; generated by Slic3r 1.1.7 on 2019-02-01 at 15:39:36

; perimeters extrusion width = 0.50mm
; infill extrusion width = 0.52mm
; solid infill extrusion width = 0.52mm
; top infill extrusion width = 0.52mm
; support material extrusion width = 0.50mm

G21 ; set units to millimeters
M107
;M190 S88 ; wait for bed temperature to be reached
;M104 S88 T0 ; set temperature
;M104 S200 T1 ; set temperature
G28 ; home all axes
G1 Z5 F5000 ; lift nozzle

;M109 S88 T0 ; wait for temperature to be reached
;M109 S200 T1 ; wait for temperature to be reached
G90 ; use absolute coordinates
G92 E0
M82 ; use absolute distances for extrusion
T0
G92 E0
G1 Z0.350 F7800.000
G1 F1800.000 E-1.00000
G92 E0
G1 X89.181 Y89.163 F7800.000
G1 E1.00000 F1800.000
G1 X91.097 Y87.892 E1.07480 F600.000
G1 X93.763 Y87.335 E1.16341
G1 X106.160 Y87.335 E1.56674
G1 X108.424 Y87.732 E1.64154 F600.000
G1 X110.419 Y88.876 E1.71634
G1 X111.905 Y90.630 E1.79114
G1 X112.777 Y93.265 E1.88146
G1 X112.924 Y94.973 E1.93721
G1 X112.924 Y100.948 E2.13161
G1 X112.219 Y103.931 E2.23134
G1 X111.731 Y104.767 E2.26284
G1 X108.301 Y109.780 E2.46045
G1 X106.695 Y111.424 E2.53525
G1 X104.624 Y112.424 E2.61005
G1 X102.807 Y112.677 E2.66974
G1 X97.214 Y112.677 E2.85171
G1 X94.950 Y112.280 E2.92651
G1 X92.955 Y111.136 E3.00131
G1 X91.692 Y109.737 E3.06265
G1 X88.318 Y104.725 E3.25923
G1 X87.223 Y101.735 E3.36283
G1 X87.076 Y100.027 E3.41858
G1 X87.076 Y94.052 E3.61299
G1 X87.781 Y91.069 E3.71271
G1 X89.136 Y89.223 E3.78722
G1 F1800.000 E-6.21278
G92 E0
G92 E0
T1
G92 E0

T1
G92 E0
G1 F1800.000 E-10.00000
G92 E0
G92 E0
T0
G92 E0

T0
G92 E0
G1 X100.354 Y97.836 F7800.000
G1 E10.00000 F1800.000
G1 X99.646 Y97.836 E10.02306 F600.000
G1 X99.646 Y97.164 E10.04492
G1 X100.354 Y97.164 E10.06798
G1 X100.354 Y97.761 E10.08739
G1 X101.012 Y98.493 F7800.000
G1 X98.988 Y98.493 E10.15321 F600.000
G1 X98.988 Y96.507 E10.21782
G1 X101.012 Y96.507 E10.28364
G1 X101.012 Y98.418 E10.34581
G1 X101.669 Y99.150 F7800.000
G1 X98.331 Y99.150 E10.45439 F600.000
G1 X98.331 Y95.850 E10.56175
G1 X101.669 Y95.850 E10.67033
G1 X101.669 Y99.075 E10.77526
G1 X101.236 Y98.900 F7800.000
G1 F1800.000 E0.77526
G92 E0
G92 E0
T1
G92 E0

T1
G92 E0
G1 X103.135 Y100.027 F7800.000
G1 E10.00000 F1800.000
G1 X103.152 Y99.992 E10.00104 F600.000
G1 X103.751 Y99.992 E10.01692
G1 X103.242 Y101.008 E10.04703
G1 X103.841 Y101.008 E10.06291
G1 X106.267 Y96.168 E10.20645
G1 X106.267 Y97.363 E10.23813
G1 X104.440 Y101.008 E10.34623
G1 X105.039 Y101.008 E10.36211
G1 X106.267 Y98.558 E10.43477
G1 X106.267 Y99.753 E10.46645
G1 X105.638 Y101.008 E10.50367
G1 X106.237 Y101.008 E10.51955
G1 X106.267 Y100.948 E10.52133
G1 X104.135 Y99.227 F7800.000
G1 X106.267 Y94.973 E10.64751 F600.000
G1 X106.160 Y93.992 E10.67365
G1 X104.135 Y98.032 E10.79346
G1 X104.135 Y96.837 E10.82515
G1 X105.561 Y93.992 E10.90952
G1 X104.962 Y93.992 E10.92540
G1 X104.135 Y95.642 E10.97432
G1 X103.854 Y95.008 E10.99272
G1 X104.363 Y93.992 E11.02283
G1 X103.764 Y93.992 E11.03871
G1 X103.255 Y95.008 E11.06882
G1 X103.135 Y94.052 E11.09435
G1 X103.165 Y93.992 E11.09612
G1 F1800.000 E10.09612
G92 E0
G1 X96.848 Y95.008 F7800.000
G1 E1.00000 F1800.000
G1 X96.865 Y94.973 E1.00104 F600.000
G1 X96.758 Y93.992 E1.02718
G1 X96.249 Y95.008 E1.05729
G1 X93.763 Y93.992 F7800.000
G1 X93.733 Y94.052 E1.05907 F600.000
G1 X93.733 Y95.247 E1.09075
G1 X94.362 Y93.992 E1.12797
G1 X94.961 Y93.992 E1.14385
G1 X93.733 Y96.442 E1.21651
G1 X93.733 Y97.637 E1.24819
G1 X95.560 Y93.992 E1.35629
G1 X96.159 Y93.992 E1.37217
G1 X93.733 Y98.832 E1.51571
G1 X93.733 Y100.027 E1.54740
G1 X95.865 Y95.773 E1.67358
G1 X95.865 Y96.968 E1.70526
G1 X93.840 Y101.008 E1.82507
G1 X94.439 Y101.008 E1.84095
G1 X95.865 Y98.163 E1.92532
G1 X95.865 Y99.358 E1.95700
G1 X95.038 Y101.008 E2.00593
G1 X95.637 Y101.008 E2.02181
G1 X96.146 Y99.992 E2.05192
G1 X96.745 Y99.992 E2.06780
G1 X96.236 Y101.008 E2.09791
G1 X96.835 Y101.008 E2.11379
G1 X96.865 Y100.948 E2.11556
G1 X97.879 Y100.230 F7800.000
G1 X96.940 Y102.103 E2.16744 F600.000
G1 X96.940 Y104.335 E2.22269
G1 X98.998 Y100.230 E2.33637
G1 X100.116 Y100.230 E2.36407
G1 X97.214 Y106.020 E2.52441
G1 X98.333 Y106.020 E2.55210
G1 X101.235 Y100.230 E2.71244
G1 X102.353 Y100.230 E2.74014
G1 X99.451 Y106.020 E2.90048
G1 X100.570 Y106.020 E2.92817
G1 X102.846 Y101.480 E3.05390
G1 X103.060 Y103.284 E3.09888
G1 X101.689 Y106.020 E3.17464
G1 X102.807 Y106.020 E3.20233
G1 X103.060 Y105.516 E3.21629
M106 S255
G1 Z0.400 F7800.000
G1 F1800.000 E2.21629
G92 E0
G1 X103.135 Y100.027 F7800.000
G1 E1.00000 F1800.000
G1 X103.152 Y99.992 E1.00015 F600.000
G1 X103.751 Y99.992 E1.00242
G1 X103.242 Y101.008 E1.00672
G1 X103.841 Y101.008 E1.00899
G1 X106.267 Y96.168 E1.02949
G1 X106.267 Y97.363 E1.03402
G1 X104.440 Y101.008 E1.04946
G1 X105.039 Y101.008 E1.05173
G1 X106.267 Y98.558 E1.06211
G1 X106.267 Y99.753 E1.06664
G1 X105.638 Y101.008 E1.07195
G1 X106.237 Y101.008 E1.07422
G1 X106.267 Y100.948 E1.07448
G1 F1800.000 E0.07448
G92 E0
G1 X104.135 Y99.227 F7800.000
G1 E1.00000 F1800.000
G1 X106.267 Y94.973 E1.01803 F600.000
G1 X106.160 Y93.992 E1.02176
G1 X104.135 Y98.032 E1.03888
G1 X104.135 Y96.837 E1.04340
G1 X105.561 Y93.992 E1.05546
G1 X104.962 Y93.992 E1.05772
G1 X104.135 Y95.642 E1.06471
G1 X103.854 Y95.008 E1.06734
G1 X104.363 Y93.992 E1.07164
G1 X103.764 Y93.992 E1.07391
G1 X103.255 Y95.008 E1.07821
G1 X103.135 Y94.052 E1.08186
G1 X103.165 Y93.992 E1.08211
G1 F1800.000 E0.08211
G92 E0
G1 X96.848 Y95.008 F7800.000
G1 E1.00000 F1800.000
G1 X96.865 Y94.973 E1.00015 F600.000
G1 X96.758 Y93.992 E1.00388
G1 X96.249 Y95.008 E1.00818
G1 F1800.000 E0.00818
G92 E0
G1 X93.763 Y93.992 F7800.000
G1 E1.00000 F1800.000
G1 X93.733 Y94.052 E1.00025 F600.000
G1 X93.733 Y95.247 E1.00478
G1 X94.362 Y93.992 E1.01010
G1 X94.961 Y93.992 E1.01237
G1 X93.733 Y96.442 E1.02275
G1 X93.733 Y97.637 E1.02727
G1 X95.560 Y93.992 E1.04271
G1 X96.159 Y93.992 E1.04498
G1 X93.733 Y98.832 E1.06549
G1 X93.733 Y100.027 E1.07001
G1 X95.865 Y95.773 E1.08804
G1 X95.865 Y96.968 E1.09257
G1 X93.840 Y101.008 E1.10968
G1 X94.439 Y101.008 E1.11195
G1 X95.865 Y98.163 E1.12400
G1 X95.865 Y99.358 E1.12853
G1 X95.038 Y101.008 E1.13552
G1 X95.637 Y101.008 E1.13779
G1 X96.146 Y99.992 E1.14209
G1 X96.745 Y99.992 E1.14436
G1 X96.236 Y101.008 E1.14866
G1 X96.835 Y101.008 E1.15093
G1 X96.865 Y100.948 E1.15118
G1 F1800.000 E0.15118
G92 E0
G1 X102.142 Y102.000 F7800.000
G1 E1.00000 F1800.000
G1 X102.142 Y100.750 E1.00442 F600.000
G1 X98.283 Y100.750 E1.01807
G1 X97.858 Y101.488 E1.02108
G1 X97.858 Y102.000 E1.02289
G1 X97.562 Y102.000 E1.02394
G1 X97.460 Y102.176 E1.02466
G1 X97.460 Y103.752 E1.03023
G1 X98.469 Y105.500 E1.03737
G1 X102.469 Y105.500 E1.05152
G1 X102.540 Y105.378 E1.05202
G1 X102.540 Y102.000 E1.06396
G1 X102.142 Y102.000 E1.06537
G1 X102.642 Y101.500 F7800.000
G1 X102.642 Y100.250 E1.06979 F600.000
G1 X97.358 Y100.250 E1.08848
G1 X97.358 Y101.500 E1.09290
G1 X96.960 Y101.500 E1.09431
G1 X96.960 Y106.000 E1.11022
G1 X103.040 Y106.000 E1.13172
G1 X103.040 Y101.500 E1.14764
G1 X102.642 Y101.500 E1.14905
G1 Z0.750 F7800.000
G1 F1800.000 E-8.85095
G92 E0
G92 E0
T0
G92 E0

T0
G92 E0
G1 X102.392 Y98.250 F7800.000
G1 E10.00000 F1800.000
M106 S255
G1 X102.269 Y98.250 E10.00344 F3600.000
M106 S255
G1 X97.731 Y98.250 E10.13182 F600.000
M106 S255
G1 X97.608 Y98.250 E10.13525 F3600.000
G1 X97.608 Y96.750 E10.17692
G1 X97.731 Y96.750 E10.18036
M106 S255
G1 X102.269 Y96.750 E10.30874 F600.000
M106 S255
G1 X102.392 Y96.750 E10.31217 F3600.000
G1 X102.392 Y98.175 E10.35176
M106 S255
G1 X102.892 Y98.750 F7800.000
M106 S255
G1 X102.269 Y98.750 E10.36909 F3600.000
M106 S255
G1 X97.731 Y98.750 E10.49746 F600.000
M106 S255
G1 X97.108 Y98.750 E10.51479 F3600.000
G1 X97.108 Y96.250 E10.58423
G1 X97.731 Y96.250 E10.60156
M106 S255
G1 X102.269 Y96.250 E10.72994 F600.000
M106 S255
G1 X102.892 Y96.250 E10.74727 F3600.000
G1 X102.892 Y98.675 E10.81463
M106 S255
G1 X103.392 Y99.250 F7800.000
M106 S255
G1 X102.269 Y99.250 E10.84584 F3600.000
M106 S255
G1 X97.731 Y99.250 E10.97422 F600.000
M106 S255
G1 X96.608 Y99.250 E11.00544 F3600.000
G1 X96.608 Y95.750 E11.10266
G1 X97.731 Y95.750 E11.13388
M106 S255
G1 X102.269 Y95.750 E11.26225 F600.000
M106 S255
G1 X103.392 Y95.750 E11.29347 F3600.000
G1 X103.392 Y99.175 E11.38861
M106 S255
G1 X102.026 Y97.117 F7800.000
M106 S255
G1 X102.026 Y97.883 E11.40989 F3600.000
G1 X101.448 Y97.883 E11.42595
G1 X101.448 Y97.117 E11.44723
G1 X100.870 Y97.117 E11.46329
G1 X100.870 Y97.883 E11.48457
G1 X100.291 Y97.883 E11.50063
G1 X100.291 Y97.117 E11.52191
G1 X99.713 Y97.117 E11.53796
G1 X99.713 Y97.883 E11.55925
G1 X99.135 Y97.883 E11.57530
G1 X99.135 Y97.117 E11.59659
M106 S255
G1 X98.922 Y97.770 F7800.000
M106 S255
G1 X98.898 Y97.903 E11.60035 F3600.000
G1 X97.955 Y97.230 E11.63254
G1 X97.978 Y97.097 E11.63631
M106 S255
G1 Z0.800 F7800.000
G1 F1800.000 E1.63631
G92 E0
G92 E0
T1
G92 E0

T1
G92 E0
G1 X102.540 Y105.378 F7800.000
G1 E10.00000 F1800.000
G1 X102.540 Y100.750 E10.13094 F600.000
G1 X98.283 Y100.750 E10.25137
G1 X97.460 Y102.176 E10.29796
G1 X97.460 Y103.752 E10.34256
G1 X98.469 Y105.500 E10.39966
G1 X102.469 Y105.500 E10.51284
G1 X102.540 Y105.378 E10.51682
G1 X103.040 Y106.000 F7800.000
G1 X103.040 Y100.250 E10.67952 F600.000
G1 X96.960 Y100.250 E10.85153
G1 X96.960 Y106.000 E11.01422
G1 X103.040 Y106.000 E11.18623
G1 Z1.150 F7800.000
G1 F1800.000 E1.18623
G92 E0
G92 E0
T0
G92 E0

T0
G92 E0
G1 X103.510 Y98.250 F7800.000
G1 E10.00000 F1800.000
G1 X96.490 Y98.250 E10.19861 F600.000
G1 X96.490 Y96.750 E10.24105
G1 X103.510 Y96.750 E10.43965
G1 X103.510 Y98.175 E10.47997
G1 X104.010 Y98.750 F7800.000
M106 S255
G1 X103.892 Y98.750 E10.48323 F3600.000
M106 S255
G1 X96.108 Y98.750 E10.70350 F600.000
M106 S255
G1 X95.990 Y98.750 E10.70675 F3600.000
G1 X95.990 Y96.250 E10.77620
G1 X96.108 Y96.250 E10.77946
M106 S255
G1 X103.892 Y96.250 E10.99972 F600.000
M106 S255
G1 X104.010 Y96.250 E11.00298 F3600.000
G1 X104.010 Y98.675 E11.07034
M106 S255
G1 X104.510 Y99.250 F7800.000
M106 S255
G1 X103.892 Y99.250 E11.08749 F3600.000
M106 S255
G1 X96.108 Y99.250 E11.30775 F600.000
M106 S255
G1 X95.490 Y99.250 E11.32490 F3600.000
G1 X95.490 Y95.750 E11.42212
G1 X96.108 Y95.750 E11.43927
M106 S255
G1 X103.892 Y95.750 E11.65953 F600.000
M106 S255
G1 X104.510 Y95.750 E11.67668 F3600.000
G1 X104.510 Y99.175 E11.77182
M106 S255
G1 X103.123 Y97.097 F7800.000
G1 X103.163 Y97.137 E11.77348 F600.000
G1 X103.134 Y97.892 E11.79569
G1 X102.339 Y97.097 E11.82875
G1 X101.556 Y97.097 E11.85179
G1 X102.362 Y97.903 E11.88531
G1 X101.578 Y97.903 E11.90835
G1 X100.772 Y97.097 E11.94188
G1 X99.989 Y97.097 E11.96492
G1 X100.795 Y97.903 E11.99845
G1 X100.011 Y97.903 E12.02149
G1 X99.205 Y97.097 E12.05501
G1 X98.422 Y97.097 E12.07805
G1 X99.228 Y97.903 E12.11158
G1 X98.444 Y97.903 E12.13462
G1 X97.638 Y97.097 E12.16814
G1 X96.866 Y97.108 E12.19085
G1 X97.661 Y97.903 E12.22391
G1 X96.877 Y97.903 E12.24695
G1 X96.837 Y97.863 E12.24861
G1 Z1.200 F7800.000
G1 F1800.000 E2.24861
G92 E0
G92 E0
T1
G92 E0

T1
G92 E0
G1 X102.540 Y105.378 F7800.000
G1 E10.00000 F1800.000
G1 X102.540 Y100.750 E10.13094 F600.000
G1 X98.283 Y100.750 E10.25137
G1 X97.460 Y102.176 E10.29796
G1 X97.460 Y103.752 E10.34256
G1 X98.469 Y105.500 E10.39966
G1 X102.469 Y105.500 E10.51284
G1 X102.540 Y105.378 E10.51682
G1 X103.040 Y106.000 F7800.000
G1 X103.040 Y100.250 E10.67952 F600.000
G1 X96.960 Y100.250 E10.85153
G1 X96.960 Y106.000 E11.01422
G1 X103.040 Y106.000 E11.18623
G1 Z1.550 F7800.000
G1 F1800.000 E1.18623
G92 E0
G92 E0
T0
G92 E0

T0
G92 E0
G1 X104.400 Y98.250 F7800.000
G1 E10.00000 F1800.000
G1 X95.600 Y98.250 E10.24900 F600.000
G1 X95.600 Y96.750 E10.29144
G1 X104.400 Y96.750 E10.54043
G1 X104.400 Y98.175 E10.58075
G1 X104.900 Y98.750 F7800.000
G1 X95.100 Y98.750 E10.85804 F600.000
G1 X95.100 Y96.250 E10.92878
G1 X104.900 Y96.250 E11.20607
G1 X104.900 Y98.675 E11.27468
G1 X105.400 Y99.250 F7800.000
M106 S255
G1 X105.010 Y99.250 E11.28553 F3600.000
M106 S255
G1 X94.990 Y99.250 E11.56902 F600.000
M106 S255
G1 X94.600 Y99.250 E11.57986 F3600.000
G1 X94.600 Y95.750 E11.67709
G1 X94.990 Y95.750 E11.68793
M106 S255
G1 X105.010 Y95.750 E11.97142 F600.000
M106 S255
G1 X105.400 Y95.750 E11.98227 F3600.000
G1 X105.400 Y99.175 E12.07741
M106 S255
G1 X104.053 Y97.863 F7800.000
G1 X104.013 Y97.903 E12.07907 F600.000
G1 X103.277 Y97.903 E12.10071
G1 X104.048 Y97.132 E12.13278
G1 X103.347 Y97.097 E12.15342
G1 X102.541 Y97.903 E12.18695
G1 X101.805 Y97.903 E12.20859
G1 X102.611 Y97.097 E12.24212
G1 X101.875 Y97.097 E12.26376
G1 X101.069 Y97.903 E12.29729
G1 X100.333 Y97.903 E12.31893
G1 X101.139 Y97.097 E12.35246
G1 X100.403 Y97.097 E12.37410
G1 X99.597 Y97.903 E12.40763
G1 X98.861 Y97.903 E12.42927
G1 X99.667 Y97.097 E12.46280
G1 X98.931 Y97.097 E12.48444
G1 X98.125 Y97.903 E12.51797
G1 X97.389 Y97.903 E12.53961
G1 X98.195 Y97.097 E12.57314
G1 X97.459 Y97.097 E12.59478
G1 X96.653 Y97.903 E12.62831
G1 X95.952 Y97.868 E12.64895
G1 X96.723 Y97.097 E12.68102
G1 X95.987 Y97.097 E12.70266
G1 X95.947 Y97.137 E12.70432
G1 Z1.600 F7800.000
G1 F1800.000 E2.70432
G92 E0
G92 E0
T1
G92 E0

T1
G92 E0
G1 X102.540 Y105.378 F7800.000
G1 E10.00000 F1800.000
G1 X102.540 Y100.750 E10.13094 F600.000
G1 X98.283 Y100.750 E10.25137
G1 X97.460 Y102.176 E10.29796
G1 X97.460 Y103.752 E10.34256
G1 X98.469 Y105.500 E10.39966
G1 X102.469 Y105.500 E10.51284
G1 X102.540 Y105.378 E10.51682
G1 X103.040 Y106.000 F7800.000
G1 X103.040 Y100.250 E10.67952 F600.000
G1 X96.960 Y100.250 E10.85153
G1 X96.960 Y106.000 E11.01422
G1 X103.040 Y106.000 E11.18623
G1 Z1.950 F7800.000
G1 F1800.000 E1.18623
G92 E0
G92 E0
T0
G92 E0

T0
G92 E0
G1 X104.606 Y97.750 F7800.000
G1 E10.00000 F1800.000
G1 X95.394 Y97.750 E10.26064 F600.000
G1 X95.394 Y97.250 E10.27478
G1 X104.606 Y97.250 E10.53542
G1 X104.606 Y97.675 E10.54745
G1 X105.106 Y98.250 F7800.000
G1 X94.894 Y98.250 E10.83638 F600.000
G1 X94.894 Y96.750 E10.87882
G1 X105.106 Y96.750 E11.16775
G1 X105.106 Y98.175 E11.20807
G1 X105.606 Y98.750 F7800.000
G1 X94.394 Y98.750 E11.52529 F600.000
G1 X94.394 Y96.250 E11.59603
G1 X105.606 Y96.250 E11.91325
G1 X105.606 Y98.675 E11.98187
G1 X106.106 Y99.250 F7800.000
M106 S255
G1 X105.900 Y99.250 E11.98758 F3600.000
M106 S255
G1 X94.100 Y99.250 E12.32146 F600.000
M106 S255
G1 X93.894 Y99.250 E12.32717 F3600.000
G1 X93.894 Y95.750 E12.42440
G1 X94.100 Y95.750 E12.43011
M106 S255
G1 X105.900 Y95.750 E12.76399 F600.000
M106 S255
G1 X106.106 Y95.750 E12.76970 F3600.000
G1 X106.106 Y99.175 E12.86484
M106 S255
G1 Z2.000 F7800.000
G1 F1800.000 E2.86484
G92 E0
G92 E0
T1
G92 E0

T1
G92 E0
G1 X102.540 Y105.378 F7800.000
G1 E10.00000 F1800.000
G1 X102.540 Y100.750 E10.13094 F600.000
G1 X98.283 Y100.750 E10.25137
G1 X97.460 Y102.176 E10.29796
G1 X97.460 Y103.752 E10.34256
G1 X98.469 Y105.500 E10.39966
G1 X102.469 Y105.500 E10.51284
G1 X102.540 Y105.378 E10.51682
G1 X103.040 Y106.000 F7800.000
G1 X103.040 Y100.250 E10.67952 F600.000
G1 X96.960 Y100.250 E10.85153
G1 X96.960 Y106.000 E11.01422
G1 X103.040 Y106.000 E11.18623
G1 Z2.350 F7800.000
G1 F1800.000 E1.18623
G92 E0
G92 E0
T0
G92 E0

T0
G92 E0
G1 X105.721 Y98.250 F7800.000
G1 E10.00000 F1800.000
G1 X101.944 Y98.250 E10.10686 F600.000
G1 X101.944 Y96.750 E10.14930
G1 X105.721 Y96.750 E10.25616
G1 X105.721 Y98.175 E10.29648
G1 X106.221 Y98.750 F7800.000
G1 X101.444 Y98.750 E10.43164 F600.000
G1 X101.444 Y96.250 E10.50237
G1 X106.221 Y96.250 E10.63753
G1 X106.221 Y98.675 E10.70614
G1 F1800.000 E9.70614
G92 E0
G1 X100.944 Y99.250 F7800.000
G1 E1.00000 F1800.000
G1 X100.944 Y95.750 E1.09903 F600.000
G1 X106.606 Y95.750 E1.25923
M106 S255
G1 X106.721 Y95.750 E1.26242 F3600.000
G1 X106.721 Y99.250 E1.35964
G1 X106.606 Y99.250 E1.36283
M106 S255
G1 X101.019 Y99.250 E1.52091 F600.000
G1 X106.606 Y98.750 F7800.000
G1 X105.374 Y97.863 F7800.000
G1 X105.334 Y97.903 E1.52257 F600.000
G1 X104.572 Y97.903 E1.54497
G1 X105.356 Y97.119 E1.57758
G1 X104.616 Y97.097 E1.59934
G1 X103.810 Y97.903 E1.63286
G1 X103.048 Y97.903 E1.65526
G1 X103.855 Y97.097 E1.68879
G1 X103.093 Y97.097 E1.71119
