; generated by Slic3r 1.1.7 on 2019-03-18 at 14:40:15

; perimeters extrusion width = 0.50mm
; infill extrusion width = 0.52mm
; solid infill extrusion width = 0.52mm
; top infill extrusion width = 0.52mm
; support material extrusion width = 0.50mm

G21 ; set units to millimeters
M107
M104 S200 T1 ; set temperature
G28 ; home all axes
G1 Z5 F5000 ; lift nozzle

M109 S200 T1 ; wait for temperature to be reached
G90 ; use absolute coordinates
M83 ; use relative distances for extrusion
T0
G1 Z0.350 F7800.000
G1 F1800.000 E-10.00000
G92 E0
T1
G92 E0

T1
G1 F1800.000 E-10.00000
G92 E0
T0
G92 E0

T0
G1 X89.751 Y73.987 F7800.000
G1 E10.00000 F1800.000
G1 X89.803 Y72.959 E0.66995 F378.000
G1 X89.961 Y71.937 E0.67288
G1 X90.221 Y70.932 E0.67556
G1 X90.582 Y69.958 E0.67554
G1 X91.040 Y69.027 E0.67551
G1 X91.589 Y68.146 E0.67548
G1 X92.225 Y67.325 E0.67546
G1 X92.940 Y66.573 E0.67544
G1 X93.728 Y65.897 E0.67542
G1 X94.580 Y65.305 E0.67540
G1 X95.488 Y64.801 E0.67538
G1 X96.442 Y64.392 E0.67536
G1 X97.432 Y64.082 E0.67534
G1 X98.449 Y63.873 E0.67532
G1 X99.481 Y63.768 E0.67531
G1 X99.749 Y63.758 E0.17432
G1 X100.778 Y63.785 E0.66995
G1 X101.551 Y63.874 E0.50646
G1 X102.568 Y64.083 E0.67527
G1 X103.558 Y64.393 E0.67526
G1 X104.511 Y64.803 E0.67524
G1 X105.419 Y65.307 E0.67524
G1 X106.270 Y65.899 E0.67523
G1 X107.058 Y66.575 E0.67522
G1 X107.772 Y67.328 E0.67521
G1 X108.040 Y67.653 E0.27391
G1 X108.407 Y68.148 E0.40150
G1 X108.650 Y68.513 E0.28498
G1 X108.956 Y69.029 E0.39043
G1 X109.168 Y69.432 E0.29604
G1 X109.413 Y69.960 E0.37936
G1 X109.589 Y70.398 E0.30711
G1 X109.774 Y70.934 E0.36829
G1 X109.909 Y71.403 E0.31817
G1 X110.034 Y71.938 E0.35722
G1 X110.123 Y72.436 E0.32924
G1 X110.191 Y72.964 E0.34616
G1 X110.250 Y74.000 E0.67541
G1 X110.191 Y75.036 E0.67542
G1 X110.123 Y75.564 E0.34616
G1 X110.034 Y76.062 E0.32924
G1 X109.909 Y76.597 E0.35723
G1 X109.774 Y77.066 E0.31817
G1 X109.589 Y77.602 E0.36829
G1 X109.413 Y78.040 E0.30711
G1 X109.168 Y78.568 E0.37936
G1 X108.956 Y78.971 E0.29604
G1 X108.650 Y79.487 E0.39043
G1 X108.407 Y79.852 E0.28498
G1 X108.040 Y80.347 E0.40149
G1 X107.772 Y80.672 E0.27391
G1 X107.058 Y81.425 E0.67521
G1 X106.270 Y82.101 E0.67521
G1 X105.419 Y82.693 E0.67523
G1 X104.511 Y83.197 E0.67523
G1 X103.558 Y83.607 E0.67525
G1 X102.568 Y83.917 E0.67526
G1 X101.551 Y84.126 E0.67527
G1 X100.778 Y84.215 E0.50646
G1 X99.749 Y84.242 E0.66995
G1 X99.481 Y84.232 E0.17433
G1 X98.449 Y84.127 E0.67531
G1 X97.432 Y83.918 E0.67532
G1 X96.442 Y83.608 E0.67535
G1 X95.488 Y83.199 E0.67536
G1 X94.580 Y82.695 E0.67538
G1 X93.728 Y82.103 E0.67540
G1 X92.940 Y81.427 E0.67541
G1 X92.225 Y80.675 E0.67545
G1 X91.589 Y79.854 E0.67547
G1 X91.040 Y78.973 E0.67548
G1 X90.582 Y78.042 E0.67551
G1 X90.221 Y77.068 E0.67554
G1 X89.961 Y76.063 E0.67556
G1 X89.803 Y75.037 E0.67559
G1 X89.751 Y73.987 E0.68395
G1 F1800.000 E-10.00000
G92 E0
T1
G92 E0

T1
G1 X91.454 Y96.464 F7800.000
G1 E10.00000 F1800.000
G1 X92.050 Y95.275 E0.03474 F1080.000
G1 X93.542 Y96.169 F7800.000
G1 X93.050 Y97.151 E0.02910 F1080.000
G1 X95.049 Y94.357 F7800.000
G1 X92.513 Y99.416 E0.14992 F1080.000
G1 X92.514 Y100.608 E0.03156
G1 X96.012 Y93.630 E0.20677
G1 X96.830 Y93.192 E0.02458
G1 X92.645 Y101.542 E0.24742
G1 X92.854 Y102.319 E0.02132
G1 X97.578 Y92.892 E0.27932
G1 X98.278 Y92.690 E0.01929
G1 X93.110 Y103.000 E0.30550
G1 X93.406 Y103.604 E0.01780
G1 X98.940 Y92.562 E0.32717
G1 X99.571 Y92.498 E0.01679
G1 X93.735 Y104.141 E0.34500
G1 X96.530 Y99.759 F7800.000
G1 X94.090 Y104.628 E0.14428 F1080.000
G1 X94.465 Y105.073 E0.01542
G1 X96.610 Y100.793 E0.12681
G1 X96.856 Y101.497 E0.01975
G1 X94.859 Y105.481 E0.11803
G1 X95.278 Y105.840 E0.01461
G1 X97.182 Y102.040 E0.11260
G1 X97.560 Y102.481 E0.01537
G1 X95.714 Y106.163 E0.10911
G1 X96.165 Y106.457 E0.01426
G1 X97.982 Y102.833 E0.10740
G1 X98.440 Y103.113 E0.01422
G1 X96.641 Y106.702 E0.10633
G1 X97.123 Y106.934 E0.01417
G1 X98.938 Y103.312 E0.10733
G1 X99.472 Y103.441 E0.01455
G1 X97.627 Y107.123 E0.10912
G1 X98.145 Y107.283 E0.01437
G1 X100.052 Y103.478 E0.11274
G1 X100.682 Y103.415 E0.01677
G1 X98.688 Y107.394 E0.11791
G1 X99.249 Y107.469 E0.01499
G1 X101.392 Y103.192 E0.12673
G1 X102.269 Y102.637 E0.02750
G1 X99.828 Y107.507 E0.14431
G1 X104.951 Y105.643 F7800.000
G1 X107.487 Y100.584 E0.14992 F1080.000
G1 X107.486 Y99.392 E0.03156
G1 X103.988 Y106.370 E0.20677
G1 X103.170 Y106.808 E0.02458
G1 X107.355 Y98.458 E0.24742
G1 X107.146 Y97.681 E0.02132
G1 X102.422 Y107.108 E0.27932
G1 X101.722 Y107.310 E0.01929
G1 X106.890 Y97.000 E0.30550
G1 X106.594 Y96.396 E0.01780
G1 X101.060 Y107.438 E0.32717
G1 X100.429 Y107.502 E0.01679
G1 X106.265 Y95.859 E0.34500
G1 X105.910 Y95.372 E0.01596
G1 X103.473 Y100.234 E0.14409
G1 X103.387 Y99.211 E0.02719
G1 X105.535 Y94.927 E0.12696
G1 X105.141 Y94.519 E0.01502
G1 X103.142 Y98.508 E0.11818
G1 X102.818 Y97.959 E0.01688
G1 X104.722 Y94.160 E0.11255
G1 X104.286 Y93.837 E0.01439
G1 X102.440 Y97.520 E0.10914
G1 X102.019 Y97.165 E0.01458
G1 X103.835 Y93.543 E0.10733
G1 X103.359 Y93.298 E0.01417
G1 X101.558 Y96.891 E0.10645
G1 X101.063 Y96.685 E0.01421
G1 X102.877 Y93.066 E0.10723
G1 X102.373 Y92.877 E0.01425
G1 X100.526 Y96.562 E0.10919
G1 X99.949 Y96.519 E0.01533
G1 X101.855 Y92.717 E0.11266
G1 X101.312 Y92.606 E0.01467
G1 X99.315 Y96.590 E0.11806
G1 X98.604 Y96.814 E0.01974
G1 X100.751 Y92.531 E0.12693
G1 X100.172 Y92.493 E0.01538
G1 X97.732 Y97.360 E0.14422
G1 X89.608 Y93.985 F7800.000
G1 X88.927 Y95.343 E0.03919 F1080.000
G1 X106.458 Y103.831 F7800.000
G1 X106.950 Y102.849 E0.02910 F1080.000
G1 X108.432 Y103.790 F7800.000
G1 X108.084 Y104.485 E0.02031 F1080.000
G1 X106.328 Y105.633 F7800.000
G1 X105.384 Y107.518 E0.05506 F1080.000
G1 X105.214 Y106.680 E0.02233
G1 X104.517 Y108.071 E0.04064
G1 X104.318 Y107.289 E0.02106
G1 X103.731 Y108.460 E0.03422
G1 X103.519 Y107.707 E0.02044
G1 X102.999 Y108.744 E0.03030
G1 X102.304 Y108.955 E0.01897
G1 X102.781 Y108.003 E0.02781
G1 X102.085 Y108.213 E0.01897
G1 X101.636 Y109.110 E0.02620
G1 X101.005 Y109.191 E0.01662
G1 X101.422 Y108.359 E0.02433
G1 X100.791 Y108.440 E0.01662
G1 X100.392 Y109.237 E0.02328
G1 X99.794 Y109.253 E0.01562
G1 X100.186 Y108.470 E0.02286
G1 X99.598 Y108.466 E0.01536
G1 X99.225 Y109.212 E0.02178
G1 X98.664 Y109.153 E0.01472
G1 X99.030 Y108.422 E0.02135
G1 X98.484 Y108.335 E0.01445
G1 X98.123 Y109.055 E0.02101
G1 X97.597 Y108.928 E0.01415
G1 X97.948 Y108.227 E0.02050
G1 X97.434 Y108.077 E0.01401
G1 X97.082 Y108.779 E0.02050
G1 X96.586 Y108.591 E0.01385
G1 X96.933 Y107.899 E0.02023
G1 X96.443 Y107.699 E0.01382
G1 X96.104 Y108.375 E0.01975
G1 X95.632 Y108.139 E0.01378
G1 X95.975 Y107.455 E0.01998
G1 X95.516 Y107.194 E0.01379
G1 X95.167 Y107.890 E0.02033
G1 X94.726 Y107.593 E0.01389
G1 X95.075 Y106.897 E0.02033
G1 X94.649 Y106.569 E0.01403
G1 X94.294 Y107.278 E0.02072
G1 X93.878 Y106.931 E0.01415
G1 X94.233 Y106.222 E0.02073
G1 X93.844 Y105.822 E0.01458
G1 X93.477 Y106.552 E0.02134
G1 X93.088 Y106.153 E0.01458
G1 X93.467 Y105.397 E0.02208
G1 X93.105 Y104.940 E0.01520
G1 X92.724 Y105.702 E0.02226
G1 X92.370 Y105.230 E0.01541
G1 X92.774 Y104.425 E0.02351
G1 X92.462 Y103.869 E0.01664
G1 X92.040 Y104.711 E0.02459
G1 X91.735 Y104.142 E0.01686
G1 X92.176 Y103.263 E0.02567
G1 X91.923 Y102.591 E0.01875
G1 X91.452 Y103.531 E0.02745
G1 X91.198 Y102.859 E0.01875
G1 X91.719 Y101.821 E0.03032
G1 X90.992 Y102.094 E0.02027
G1 X91.572 Y100.937 E0.03379
G1 X90.836 Y101.229 E0.02068
G1 X91.524 Y99.855 E0.04013
G1 X90.754 Y100.213 E0.02218
G1 X91.680 Y98.366 E0.05396
G1 X90.812 Y98.921 E0.02689
G1 X93.638 Y93.283 E0.16470
G1 X93.711 Y94.314 E0.02701
G1 X94.637 Y92.466 E0.05399
G1 X94.812 Y93.295 E0.02212
G1 X95.499 Y91.923 E0.04007
G1 X95.706 Y92.688 E0.02069
G1 X96.286 Y91.531 E0.03381
G1 X96.502 Y92.276 E0.02028
G1 X97.023 Y91.239 E0.03032
G1 X97.713 Y91.038 E0.01879
G1 X97.241 Y91.979 E0.02751
G1 X97.932 Y91.778 E0.01879
G1 X98.372 Y90.900 E0.02565
G1 X99.010 Y90.805 E0.01684
G1 X98.589 Y91.645 E0.02457
G1 X99.220 Y91.563 E0.01663
G1 X99.624 Y90.757 E0.02354
G1 X100.214 Y90.758 E0.01540
G1 X99.831 Y91.521 E0.02228
G1 X100.414 Y91.536 E0.01522
G1 X100.792 Y90.781 E0.02205
G1 X101.346 Y90.853 E0.01459
G1 X100.980 Y91.584 E0.02136
G1 X101.533 Y91.657 E0.01458
G1 X101.889 Y90.947 E0.02073
G1 X102.416 Y91.072 E0.01416
G1 X102.061 Y91.781 E0.02073
G1 X102.578 Y91.927 E0.01403
G1 X102.927 Y91.230 E0.02034
G1 X103.429 Y91.405 E0.01389
G1 X103.080 Y92.101 E0.02034
G1 X103.564 Y92.314 E0.01379
G1 X103.907 Y91.629 E0.01999
G1 X104.378 Y91.866 E0.01378
G1 X104.039 Y92.543 E0.01979
G1 X104.493 Y92.815 E0.01382
G1 X104.840 Y92.123 E0.02023
G1 X105.286 Y92.409 E0.01385
G1 X104.935 Y93.111 E0.02050
G1 X105.363 Y93.432 E0.01400
G1 X105.715 Y92.731 E0.02050
G1 X106.131 Y93.078 E0.01415
G1 X105.771 Y93.797 E0.02100
G1 X106.167 Y94.183 E0.01446
G1 X106.534 Y93.451 E0.02139
G1 X106.916 Y93.866 E0.01473
G1 X106.543 Y94.611 E0.02176
G1 X106.897 Y95.080 E0.01537
G1 X107.289 Y94.299 E0.02283
G1 X107.635 Y94.785 E0.01560
G1 X107.235 Y95.583 E0.02331
G1 X107.548 Y96.136 E0.01659
G1 X107.965 Y95.305 E0.02429
G1 X108.278 Y95.858 E0.01659
G1 X107.828 Y96.755 E0.02623
G1 X108.076 Y97.438 E0.01897
G1 X108.553 Y96.486 E0.02782
G1 X108.800 Y97.170 E0.01898
G1 X108.280 Y98.207 E0.03031
G1 X109.011 Y97.927 E0.02043
G1 X108.424 Y99.098 E0.03420
G1 X109.168 Y98.789 E0.02104
G1 X108.481 Y100.162 E0.04009
G1 X109.252 Y99.800 E0.02226
G1 X108.300 Y101.699 E0.05550
G1 X109.177 Y101.127 E0.02736
G1 X106.395 Y106.677 E0.16216
G1 X108.643 Y107.178 F7800.000
G1 X107.572 Y109.317 E0.06172 F1080.000
G1 X107.444 Y108.409 E0.02366
G1 X106.649 Y109.994 E0.04575
G1 X106.478 Y109.172 E0.02166
G1 X105.813 Y110.499 E0.03831
G1 X105.619 Y109.724 E0.02062
G1 X105.029 Y110.902 E0.03399
G1 X104.811 Y110.172 E0.01964
G1 X104.286 Y111.220 E0.03025
G1 X103.587 Y111.453 E0.01902
G1 X104.080 Y110.468 E0.02841
G1 X103.376 Y110.709 E0.01919
G1 X102.902 Y111.656 E0.02731
G1 X102.252 Y111.789 E0.01712
G1 X102.693 Y110.910 E0.02537
G1 X102.043 Y111.044 E0.01712
G1 X101.614 Y111.899 E0.02468
G1 X101.000 Y111.961 E0.01593
G1 X101.410 Y111.143 E0.02361
G1 X100.796 Y111.206 E0.01593
G1 X100.397 Y112.001 E0.02295
G1 X99.814 Y112.001 E0.01504
G1 X100.201 Y111.229 E0.02229
G1 X99.618 Y111.229 E0.01504
G1 X99.239 Y111.986 E0.02184
G1 X98.684 Y111.929 E0.01439
G1 X99.055 Y111.191 E0.02132
G1 X98.500 Y111.134 E0.01439
G1 X98.132 Y111.868 E0.02118
G1 X97.604 Y111.759 E0.01392
G1 X97.962 Y111.045 E0.02063
G1 X97.433 Y110.936 E0.01392
G1 X97.075 Y111.651 E0.02063
G1 X96.567 Y111.501 E0.01366
G1 X96.918 Y110.802 E0.02018
G1 X96.414 Y110.644 E0.01362
G1 X96.064 Y111.343 E0.02018
G1 X95.573 Y111.160 E0.01352
G1 X95.919 Y110.468 E0.01996
G1 X95.440 Y110.262 E0.01347
G1 X95.093 Y110.954 E0.01996
G1 X94.625 Y110.724 E0.01345
G1 X94.964 Y110.048 E0.01954
G1 X94.508 Y109.794 E0.01346
G1 X94.162 Y110.485 E0.01994
G1 X93.706 Y110.232 E0.01346
G1 X94.052 Y109.541 E0.01994
G1 X93.620 Y109.240 E0.01359
G1 X93.270 Y109.938 E0.02013
G1 X92.838 Y109.637 E0.01359
G1 X93.188 Y108.940 E0.02013
G1 X92.776 Y108.598 E0.01381
G1 X92.420 Y109.309 E0.02054
G1 X92.012 Y108.959 E0.01386
G1 X92.369 Y108.248 E0.02054
G1 X91.980 Y107.861 E0.01416
G1 X91.612 Y108.595 E0.02118
G1 X91.230 Y108.193 E0.01429
G1 X91.598 Y107.459 E0.02118
G1 X91.235 Y107.021 E0.01469
G1 X90.851 Y107.787 E0.02210
G1 X90.497 Y107.330 E0.01492
G1 X90.881 Y106.564 E0.02210
G1 X90.548 Y106.064 E0.01548
G1 X90.143 Y106.873 E0.02332
G1 X89.820 Y106.355 E0.01575
G1 X90.225 Y105.546 E0.02335
G1 X89.931 Y104.970 E0.01669
G1 X89.497 Y105.837 E0.02501
G1 X89.208 Y105.250 E0.01688
G1 X89.646 Y104.375 E0.02524
G1 X89.398 Y103.707 E0.01840
G1 X88.925 Y104.651 E0.02727
G1 X88.677 Y103.983 E0.01840
G1 X89.175 Y102.990 E0.02866
G1 X88.450 Y103.272 E0.02007
G1 X88.980 Y102.216 E0.03048
G1 X88.252 Y102.505 E0.02021
G1 X88.843 Y101.326 E0.03405
G1 X88.108 Y101.629 E0.02051
G1 X88.772 Y100.304 E0.03822
G1 X88.016 Y100.649 E0.02143
G1 X88.803 Y99.079 E0.04532
G1 X88.009 Y99.501 E0.02322
G1 X89.087 Y97.350 E0.06209
G1 X88.160 Y98.037 E0.02978
G1 X91.340 Y91.691 E0.18317
G1 X91.357 Y92.822 E0.02918
G1 X92.428 Y90.683 E0.06172
G1 X92.556 Y91.591 E0.02366
G1 X93.351 Y90.006 E0.04575
G1 X93.522 Y90.828 E0.02166
G1 X94.187 Y89.501 E0.03831
G1 X94.381 Y90.276 E0.02062
G1 X94.971 Y89.098 E0.03399
G1 X95.177 Y89.850 E0.02012
G1 X95.714 Y88.780 E0.03090
G1 X96.413 Y88.547 E0.01902
G1 X95.920 Y89.532 E0.02841
G1 X96.624 Y89.291 E0.01919
G1 X97.098 Y88.344 E0.02731
G1 X97.748 Y88.211 E0.01712
G1 X97.307 Y89.090 E0.02537
G1 X97.957 Y88.956 E0.01712
G1 X98.386 Y88.101 E0.02468
G1 X99.000 Y88.039 E0.01593
G1 X98.590 Y88.857 E0.02361
G1 X99.204 Y88.794 E0.01593
G1 X99.603 Y87.999 E0.02295
G1 X100.186 Y87.999 E0.01504
G1 X99.799 Y88.771 E0.02229
G1 X100.382 Y88.771 E0.01504
G1 X100.761 Y88.014 E0.02184
G1 X101.316 Y88.071 E0.01439
G1 X100.945 Y88.809 E0.02132
G1 X101.500 Y88.866 E0.01439
G1 X101.868 Y88.132 E0.02118
G1 X102.396 Y88.241 E0.01392
G1 X102.038 Y88.955 E0.02063
G1 X102.567 Y89.064 E0.01392
G1 X102.925 Y88.349 E0.02063
G1 X103.433 Y88.499 E0.01366
G1 X103.082 Y89.198 E0.02018
G1 X103.586 Y89.356 E0.01362
G1 X103.936 Y88.657 E0.02018
G1 X104.427 Y88.840 E0.01352
G1 X104.081 Y89.532 E0.01996
G1 X104.560 Y89.738 E0.01347
G1 X104.907 Y89.046 E0.01996
G1 X105.375 Y89.276 E0.01345
G1 X105.036 Y89.952 E0.01954
G1 X105.492 Y90.206 E0.01346
G1 X105.838 Y89.515 E0.01994
G1 X106.294 Y89.768 E0.01346
G1 X105.948 Y90.459 E0.01994
G1 X106.380 Y90.760 E0.01359
G1 X106.730 Y90.062 E0.02013
G1 X107.162 Y90.363 E0.01359
G1 X106.812 Y91.060 E0.02013
G1 X107.224 Y91.402 E0.01381
G1 X107.580 Y90.691 E0.02054
G1 X107.988 Y91.041 E0.01386
G1 X107.631 Y91.752 E0.02054
G1 X108.020 Y92.139 E0.01416
G1 X108.388 Y91.405 E0.02118
G1 X108.770 Y91.807 E0.01429
G1 X108.402 Y92.541 E0.02118
G1 X108.765 Y92.979 E0.01469
G1 X109.149 Y92.213 E0.02210
G1 X109.503 Y92.670 E0.01492
G1 X109.119 Y93.436 E0.02210
G1 X109.452 Y93.936 E0.01548
G1 X109.857 Y93.127 E0.02332
G1 X110.180 Y93.645 E0.01575
G1 X109.775 Y94.454 E0.02335
G1 X110.069 Y95.030 E0.01669
G1 X110.503 Y94.163 E0.02501
G1 X110.792 Y94.750 E0.01688
G1 X110.354 Y95.625 E0.02524
G1 X110.602 Y96.293 E0.01840
G1 X111.075 Y95.349 E0.02727
G1 X111.323 Y96.017 E0.01840
G1 X110.825 Y97.010 E0.02866
G1 X111.550 Y96.728 E0.02007
G1 X111.020 Y97.784 E0.03048
G1 X111.748 Y97.495 E0.02021
G1 X111.157 Y98.674 E0.03405
G1 X111.892 Y98.371 E0.02051
G1 X111.228 Y99.696 E0.03822
G1 X111.984 Y99.351 E0.02143
G1 X111.197 Y100.921 E0.04532
G1 X111.991 Y100.499 E0.02322
G1 X110.913 Y102.650 E0.06209
G1 X111.840 Y101.963 E0.02978
G1 X108.660 Y108.309 E0.18317
G1 X110.392 Y106.015 F7800.000
G1 X111.073 Y104.657 E0.03919 F1080.000
M106 S255
G1 Z0.400 F7800.000
G1 X110.392 Y106.015 E0.00560 F1639.026
G1 X109.385 Y105.698 E0.00389
G1 X107.572 Y109.317 E0.01492
G1 X106.713 Y108.704 E0.00389
G1 X105.813 Y110.499 E0.00740
G1 X105.029 Y110.902 E0.00325
G1 X105.818 Y109.327 E0.00649
G1 X105.010 Y109.776 E0.00341
G1 X104.286 Y111.220 E0.00595
G1 X103.587 Y111.453 E0.00272
G1 X104.254 Y110.122 E0.00549
G1 X103.532 Y110.398 E0.00285
G1 X102.902 Y111.656 E0.00518
G1 X102.252 Y111.789 E0.00245
G1 X102.840 Y110.615 E0.00484
G1 X102.185 Y110.759 E0.00247
G1 X101.614 Y111.899 E0.00470
G1 X101.000 Y111.961 E0.00228
G1 X101.543 Y110.879 E0.00446
G1 X100.928 Y110.941 E0.00228
G1 X100.397 Y112.001 E0.00437
G1 X99.814 Y112.001 E0.00215
G1 X100.326 Y110.979 E0.00421
G1 X99.744 Y110.979 E0.00215
G1 X99.239 Y111.986 E0.00415
G1 X98.684 Y111.929 E0.00206
G1 X99.174 Y110.952 E0.00403
G1 X98.620 Y110.895 E0.00206
G1 X98.132 Y111.868 E0.00401
G1 X97.604 Y111.759 E0.00199
G1 X98.078 Y110.813 E0.00390
G1 X97.549 Y110.705 E0.00199
G1 X97.075 Y111.651 E0.00390
G1 X96.567 Y111.501 E0.00195
G1 X97.031 Y110.575 E0.00382
G1 X96.528 Y110.417 E0.00195
G1 X96.064 Y111.343 E0.00382
G1 X95.573 Y111.160 E0.00193
G1 X96.031 Y110.244 E0.00377
G1 X95.552 Y110.038 E0.00192
G1 X95.093 Y110.954 E0.00377
G1 X94.625 Y110.724 E0.00192
G1 X95.076 Y109.824 E0.00371
G1 X94.620 Y109.571 E0.00192
G1 X94.162 Y110.485 E0.00377
