; generated by Slic3r 1.1.7 on 2019-03-18 at 14:05:34

; perimeters extrusion width = 0.50mm
; infill extrusion width = 0.52mm
; solid infill extrusion width = 0.52mm
; top infill extrusion width = 0.52mm
; support material extrusion width = 0.50mm

G21 ; set units to millimeters
M107
M104 S200 T1 ; set temperature
G28 ; home all axes
G1 Z5 F5000 ; lift nozzle

M109 S200 T1 ; wait for temperature to be reached
G90 ; use absolute coordinates
M83 ; use relative distances for extrusion
T0
G1 Z0.350 F7800.000
G1 F1800.000 E-10.00000
G92 E0
T1
G92 E0

T1
G1 F1800.000 E-10.00000
G92 E0
T0
G92 E0

T0
G1 X94.875 Y100.000 F7800.000
G1 E10.00000 F1800.000
G1 X94.902 Y99.479 E0.01696 F600.000
G1 X94.980 Y98.968 E0.01682
G1 X95.111 Y98.466 E0.01689
G1 X95.291 Y97.979 E0.01689
G1 X95.520 Y97.513 E0.01689
G1 X95.795 Y97.073 E0.01689
G1 X96.112 Y96.663 E0.01689
G1 X96.470 Y96.287 E0.01689
G1 X96.864 Y95.949 E0.01689
G1 X97.290 Y95.652 E0.01688
G1 X97.744 Y95.401 E0.01688
G1 X98.221 Y95.196 E0.01688
G1 X98.716 Y95.041 E0.01688
G1 X99.224 Y94.936 E0.01688
G1 X99.874 Y94.879 E0.02123
G1 X100.389 Y94.892 E0.01675
G1 X100.776 Y94.937 E0.01266
G1 X101.284 Y95.041 E0.01688
G1 X101.779 Y95.197 E0.01688
G1 X102.256 Y95.401 E0.01688
G1 X102.709 Y95.653 E0.01688
G1 X103.135 Y95.950 E0.01688
G1 X103.529 Y96.288 E0.01688
G1 X103.886 Y96.664 E0.01688
G1 X104.204 Y97.074 E0.01688
G1 X104.478 Y97.514 E0.01688
G1 X104.707 Y97.980 E0.01688
G1 X104.887 Y98.467 E0.01688
G1 X105.017 Y98.969 E0.01688
G1 X105.095 Y99.482 E0.01688
G1 X105.125 Y100.000 E0.01689
G1 X105.095 Y100.518 E0.01689
G1 X105.017 Y101.031 E0.01688
G1 X104.887 Y101.533 E0.01688
G1 X104.707 Y102.020 E0.01688
G1 X104.478 Y102.486 E0.01688
G1 X104.204 Y102.926 E0.01688
G1 X103.886 Y103.336 E0.01688
G1 X103.529 Y103.712 E0.01688
G1 X103.135 Y104.050 E0.01688
G1 X102.709 Y104.347 E0.01688
G1 X102.256 Y104.599 E0.01688
G1 X101.779 Y104.803 E0.01688
G1 X101.284 Y104.959 E0.01688
G1 X100.776 Y105.063 E0.01688
G1 X100.389 Y105.108 E0.01266
G1 X99.874 Y105.121 E0.01675
G1 X99.224 Y105.064 E0.02123
G1 X98.716 Y104.959 E0.01688
G1 X98.221 Y104.804 E0.01688
G1 X97.744 Y104.599 E0.01688
G1 X97.290 Y104.348 E0.01688
G1 X96.864 Y104.051 E0.01688
G1 X96.470 Y103.713 E0.01689
G1 X96.112 Y103.337 E0.01689
G1 X95.795 Y102.927 E0.01689
G1 X95.520 Y102.487 E0.01689
G1 X95.291 Y102.021 E0.01689
G1 X95.111 Y101.534 E0.01689
G1 X94.980 Y101.032 E0.01689
G1 X94.902 Y100.518 E0.01689
G1 X94.875 Y100.000 E0.01689
G1 F1800.000 E-10.00000
G92 E0
T1
G92 E0

T1
G1 X96.033 Y98.471 F7800.000
G1 E10.00000 F1800.000
G1 X96.401 Y97.738 E0.02151 F600.000
G1 X98.343 Y98.873 F7800.000
G1 X98.098 Y99.362 E0.01536 F600.000
G1 X100.518 Y100.866 F7800.000
G1 X99.946 Y102.006 E0.03583 F600.000
G1 X99.364 Y101.901 E0.01662
G1 X99.832 Y100.967 E0.02933
G1 X99.325 Y100.713 E0.01594
G1 X98.857 Y101.647 E0.02935
G1 X98.425 Y101.243 E0.01663
G1 X98.988 Y100.118 E0.03534
G1 X98.096 Y100.632 E0.02893
G1 X99.366 Y98.099 E0.07961
G1 X100.052 Y97.997 E0.01948
G1 X99.459 Y99.179 E0.03717
G1 X100.167 Y99.032 E0.02033
G1 X100.635 Y98.099 E0.02933
G1 X101.143 Y98.353 E0.01594
G1 X100.675 Y99.286 E0.02932
G1 X101.042 Y99.820 E0.01821
G1 X101.574 Y98.759 E0.03335
G1 X101.902 Y99.370 E0.01948
G1 X100.633 Y101.903 E0.07960
G1 X101.646 Y101.147 F7800.000
G1 X101.895 Y100.650 E0.01561 F600.000
G1 X100.981 Y99.942 F7800.000
G1 X101.018 Y99.867 E0.00234 F600.000
G1 X103.960 Y101.554 F7800.000
G1 X103.612 Y102.249 E0.02038 F600.000
G1 X102.195 Y102.713 E0.03907
G1 X101.573 Y103.953 E0.03635
G1 X100.878 Y104.161 E0.01902
G1 X101.351 Y103.217 E0.02767
G1 X100.653 Y103.427 E0.01910
G1 X100.243 Y104.246 E0.02400
G1 X99.655 Y104.237 E0.01540
G1 X100.031 Y103.489 E0.02194
G1 X99.458 Y103.450 E0.01504
G1 X99.103 Y104.158 E0.02074
G1 X98.584 Y104.013 E0.01413
G1 X98.931 Y103.321 E0.02029
G1 X98.438 Y103.123 E0.01392
G1 X98.105 Y103.787 E0.01948
G1 X97.639 Y103.535 E0.01388
G1 X97.984 Y102.847 E0.02017
G1 X97.565 Y102.502 E0.01423
G1 X97.211 Y103.209 E0.02073
G1 X96.813 Y102.821 E0.01456
G1 X97.190 Y102.069 E0.02204
G1 X96.867 Y101.533 E0.01640
G1 X96.457 Y102.350 E0.02395
G1 X96.144 Y101.794 E0.01674
G1 X96.617 Y100.851 E0.02764
G1 X95.896 Y101.108 E0.02006
G1 X96.513 Y99.876 E0.03611
G1 X95.754 Y100.209 E0.02173
G1 X97.627 Y96.473 E0.10951
G1 X97.816 Y97.278 E0.02165
G1 X98.431 Y96.049 E0.03602
G1 X99.129 Y95.838 E0.01911
G1 X98.657 Y96.780 E0.02763
G1 X99.353 Y96.571 E0.01906
G1 X99.763 Y95.755 E0.02394
G1 X100.353 Y95.759 E0.01545
G1 X99.976 Y96.511 E0.02205
G1 X100.548 Y96.551 E0.01503
G1 X100.902 Y95.845 E0.02070
G1 X101.419 Y95.993 E0.01411
G1 X101.075 Y96.681 E0.02017
G1 X101.567 Y96.880 E0.01391
G1 X101.900 Y96.215 E0.01949
G1 X102.368 Y96.463 E0.01387
G1 X102.020 Y97.156 E0.02030
G1 X102.439 Y97.502 E0.01423
G1 X102.794 Y96.794 E0.02077
G1 X103.188 Y97.188 E0.01462
G1 X102.814 Y97.936 E0.02191
G1 X103.136 Y98.473 E0.01642
G1 X103.547 Y97.653 E0.02402
G1 X103.858 Y98.213 E0.01680
G1 X103.385 Y99.157 E0.02766
G1 X104.109 Y98.894 E0.02018
G1 X103.486 Y100.137 E0.03645
G1 X104.252 Y99.790 E0.02203
G1 X102.377 Y103.531 E0.10964
M106 S255
G1 Z0.400 F7800.000
G1 X102.579 Y103.701 F7800.000
G1 X104.509 Y99.850 E0.01610 F600.000
G1 X103.348 Y100.987 F7800.000
G1 X104.381 Y98.926 E0.00862 F600.000
G1 X104.147 Y98.213 E0.00281
G1 X103.464 Y99.576 E0.00570
G1 X103.270 Y98.784 E0.00305
G1 X103.844 Y97.639 E0.00479
G1 X103.498 Y97.150 E0.00224
G1 X102.979 Y98.185 E0.00433
G1 X102.629 Y97.703 E0.00223
G1 X103.116 Y96.731 E0.00406
G1 X102.700 Y96.383 E0.00203
G1 X102.231 Y97.318 E0.00391
G1 X101.796 Y97.007 E0.00200
G1 X102.251 Y96.099 E0.00380
G1 X101.778 Y95.862 E0.00198
G1 X101.323 Y96.771 E0.00380
G1 X100.814 Y96.606 E0.00200
G1 X101.281 Y95.674 E0.00390
G1 X100.753 Y95.550 E0.00203
G1 X100.266 Y96.521 E0.00406
G1 X99.672 Y96.527 E0.00222
G1 X100.192 Y95.489 E0.00434
G1 X99.591 Y95.508 E0.00225
G1 X99.018 Y96.652 E0.00479
G1 X98.266 Y96.973 E0.00306
G1 X98.948 Y95.611 E0.00569
G1 X98.238 Y95.847 E0.00280
G1 X97.202 Y97.916 E0.00865
G1 X96.165 Y97.625 F7800.000
G1 X95.799 Y98.356 E0.00306 F600.000
G1 X96.652 Y99.013 F7800.000
G1 X95.619 Y101.074 E0.00862 F600.000
G1 X95.853 Y101.787 E0.00281
G1 X96.536 Y100.424 E0.00570
G1 X96.730 Y101.216 E0.00305
G1 X96.156 Y102.361 E0.00479
G1 X96.502 Y102.850 E0.00224
G1 X97.021 Y101.815 E0.00433
G1 X97.371 Y102.297 E0.00223
G1 X96.884 Y103.269 E0.00406
G1 X97.300 Y103.617 E0.00203
G1 X97.769 Y102.682 E0.00391
G1 X98.204 Y102.993 E0.00200
G1 X97.749 Y103.901 E0.00380
G1 X98.222 Y104.138 E0.00198
G1 X98.677 Y103.229 E0.00380
G1 X99.186 Y103.394 E0.00200
G1 X98.719 Y104.326 E0.00390
G1 X99.247 Y104.450 E0.00203
G1 X99.734 Y103.479 E0.00406
G1 X100.328 Y103.473 E0.00222
G1 X99.808 Y104.511 E0.00434
G1 X100.409 Y104.492 E0.00225
G1 X100.982 Y103.348 E0.00479
G1 X101.734 Y103.027 E0.00306
G1 X101.052 Y104.389 E0.00569
G1 X101.762 Y104.153 E0.00280
G1 X102.798 Y102.084 E0.00865
G1 X103.835 Y102.375 F7800.000
G1 X104.201 Y101.644 E0.00306 F600.000
G1 X101.895 Y100.650 F7800.000
G1 X101.646 Y101.147 E0.00223 F600.000
G1 X100.541 Y100.819 F7800.000
G1 X99.946 Y102.006 E0.00533 F600.000
G1 X99.364 Y101.901 E0.00237
G1 X99.832 Y100.967 E0.00419
G1 X99.325 Y100.713 E0.00228
G1 X98.857 Y101.647 E0.00419
G1 X98.425 Y101.243 E0.00238
G1 X100.052 Y97.997 E0.01457
G1 X100.635 Y98.099 E0.00238
G1 X100.167 Y99.032 E0.00419
G1 X100.675 Y99.286 E0.00228
G1 X101.143 Y98.353 E0.00419
G1 X101.574 Y98.759 E0.00238
G1 X100.981 Y99.942 E0.00531
G1 X101.902 Y99.370 E0.00435
G1 X100.633 Y101.903 E0.01137
G1 X98.096 Y100.632 F7800.000
G1 X99.366 Y98.099 E0.01137 F600.000
G1 X98.343 Y98.873 F7800.000
G1 X98.098 Y99.362 E0.00219 F600.000
G1 X95.491 Y100.150 F7800.000
G1 X97.421 Y96.299 E0.01610 F600.000
G1 Z0.750 F7800.000
G1 F1800.000 E-10.00000
G92 E0
T0
G92 E0

T0
G1 X97.250 Y100.000 F7800.000
G1 E10.00000 F1800.000
G1 X97.265 Y99.722 E0.00788 F600.000
G1 X97.307 Y99.447 E0.00788
G1 X97.378 Y99.177 E0.00788
G1 X97.475 Y98.916 E0.00788
G1 X97.597 Y98.666 E0.00788
G1 X97.745 Y98.430 E0.00788
G1 X98.040 Y98.074 E0.01309
G1 X98.263 Y97.870 E0.00857
G1 X98.508 Y97.691 E0.00857
G1 X98.771 Y97.541 E0.00857
G1 X99.023 Y97.430 E0.00779
G1 X99.311 Y97.338 E0.00854
G1 X99.584 Y97.283 E0.00788
G1 X99.938 Y97.252 E0.01006
G1 X100.416 Y97.284 E0.01356
G1 X100.689 Y97.340 E0.00788
G1 X100.954 Y97.423 E0.00788
G1 X101.210 Y97.533 E0.00788
G1 X101.454 Y97.668 E0.00788
G1 X101.682 Y97.826 E0.00788
G1 X101.894 Y98.008 E0.00788
G1 X102.082 Y98.205 E0.00772
G1 X102.257 Y98.429 E0.00804
G1 X102.404 Y98.666 E0.00788
G1 X102.526 Y98.916 E0.00788
G1 X102.622 Y99.177 E0.00788
G1 X102.692 Y99.447 E0.00788
G1 X102.734 Y99.722 E0.00788
G1 X102.750 Y100.000 E0.00788
G1 X102.734 Y100.278 E0.00788
G1 X102.692 Y100.553 E0.00788
G1 X102.622 Y100.823 E0.00788
G1 X102.526 Y101.084 E0.00788
G1 X102.404 Y101.334 E0.00788
G1 X102.257 Y101.571 E0.00788
G1 X102.086 Y101.791 E0.00788
G1 X101.894 Y101.992 E0.00788
G1 X101.682 Y102.173 E0.00788
G1 X101.454 Y102.332 E0.00788
G1 X101.210 Y102.467 E0.00788
G1 X100.954 Y102.577 E0.00788
G1 X100.689 Y102.660 E0.00788
G1 X100.416 Y102.716 E0.00788
G1 X99.938 Y102.748 E0.01356
G1 X99.584 Y102.717 E0.01006
G1 X99.311 Y102.662 E0.00788
G1 X99.023 Y102.570 E0.00855
G1 X98.771 Y102.459 E0.00779
G1 X98.508 Y102.309 E0.00857
G1 X98.263 Y102.130 E0.00857
G1 X98.040 Y101.926 E0.00857
G1 X97.745 Y101.570 E0.01309
G1 X97.597 Y101.334 E0.00788
G1 X97.475 Y101.084 E0.00788
G1 X97.378 Y100.823 E0.00788
G1 X97.307 Y100.553 E0.00788
G1 X97.265 Y100.278 E0.00788
G1 X97.250 Y100.000 E0.00788
G1 Z0.800 F7800.000
G1 F1800.000 E-10.00000
G92 E0
T1
G92 E0

T1
G1 X98.096 Y100.632 F7800.000
G1 E10.00000 F1800.000
G1 X99.366 Y98.099 E0.09098 F600.000
G1 X98.343 Y98.873 F7800.000
G1 X98.098 Y99.362 E0.01756 F600.000
G1 X95.491 Y100.150 F7800.000
G1 X97.421 Y96.299 E0.12880 F600.000
G1 X101.895 Y100.650 F7800.000
G1 X101.646 Y101.147 E0.01784 F600.000
G1 X100.541 Y100.819 E0.03701
G1 X99.946 Y102.006 E0.04264
G1 X99.364 Y101.901 E0.01899
G1 X99.832 Y100.967 E0.03352
G1 X99.325 Y100.713 E0.01822
G1 X98.857 Y101.647 E0.03354
G1 X98.425 Y101.243 E0.01900
G1 X100.052 Y97.997 E0.11658
G1 X100.635 Y98.099 E0.01902
G1 X100.167 Y99.032 E0.03352
G1 X100.675 Y99.286 E0.01822
G1 X101.143 Y98.353 E0.03351
G1 X101.574 Y98.759 E0.01902
G1 X100.981 Y99.942 E0.04246
G1 X101.902 Y99.370 E0.03481
G1 X100.633 Y101.903 E0.09097
G1 X102.579 Y103.701 F7800.000
G1 X104.509 Y99.850 E0.12880 F600.000
G1 X103.348 Y100.987 F7800.000
G1 X104.381 Y98.926 E0.06898 F600.000
G1 X104.147 Y98.213 E0.02244
G1 X103.464 Y99.576 E0.04560
G1 X103.270 Y98.784 E0.02438
G1 X103.844 Y97.639 E0.03831
G1 X103.498 Y97.150 E0.01793
G1 X102.979 Y98.185 E0.03462
G1 X102.629 Y97.703 E0.01781
G1 X103.116 Y96.731 E0.03250
G1 X102.700 Y96.383 E0.01624
G1 X102.231 Y97.318 E0.03126
G1 X101.796 Y97.007 E0.01600
G1 X102.251 Y96.099 E0.03038
G1 X101.778 Y95.862 E0.01581
G1 X101.323 Y96.771 E0.03043
G1 X100.814 Y96.606 E0.01599
G1 X101.281 Y95.674 E0.03116
G1 X100.753 Y95.550 E0.01625
G1 X100.266 Y96.521 E0.03248
G1 X99.672 Y96.527 E0.01778
G1 X100.192 Y95.489 E0.03471
G1 X99.591 Y95.508 E0.01796
G1 X99.018 Y96.652 E0.03829
G1 X98.266 Y96.973 E0.02445
G1 X98.948 Y95.611 E0.04555
G1 X98.238 Y95.847 E0.02237
G1 X97.202 Y97.916 E0.06919
G1 X96.165 Y97.625 E0.03220
G1 X95.799 Y98.356 E0.02447
G1 X96.652 Y99.013 E0.03220
G1 X95.619 Y101.074 E0.06898
G1 X95.853 Y101.787 E0.02244
G1 X96.536 Y100.424 E0.04560
G1 X96.730 Y101.216 E0.02438
G1 X96.156 Y102.361 E0.03831
G1 X96.502 Y102.850 E0.01793
G1 X97.021 Y101.815 E0.03462
G1 X97.371 Y102.297 E0.01781
G1 X96.884 Y103.269 E0.03250
G1 X97.300 Y103.617 E0.01624
G1 X97.769 Y102.682 E0.03126
G1 X98.204 Y102.993 E0.01600
G1 X97.749 Y103.901 E0.03038
G1 X98.222 Y104.138 E0.01581
G1 X98.677 Y103.229 E0.03043
G1 X99.186 Y103.394 E0.01599
G1 X98.719 Y104.326 E0.03116
G1 X99.247 Y104.450 E0.01625
G1 X99.734 Y103.479 E0.03248
G1 X100.328 Y103.473 E0.01778
G1 X99.808 Y104.511 E0.03471
G1 X100.409 Y104.492 E0.01796
G1 X100.982 Y103.348 E0.03829
G1 X101.734 Y103.027 E0.02445
G1 X101.052 Y104.389 E0.04555
G1 X101.762 Y104.153 E0.02237
G1 X102.798 Y102.084 E0.06919
G1 X103.835 Y102.375 E0.03220
G1 X104.201 Y101.644 E0.02447
G1 Z1.150 F7800.000
G1 F1800.000 E-10.00000
G92 E0
T0
G92 E0

T0
G1 X97.251 Y99.986 F7800.000
G1 E10.00000 F1800.000
G1 X97.266 Y99.711 E0.00779 F600.000
G1 X97.307 Y99.447 E0.00758
G1 X97.378 Y99.177 E0.00788
G1 X97.475 Y98.916 E0.00788
G1 X97.597 Y98.666 E0.00788
G1 X97.745 Y98.430 E0.00788
G1 X98.040 Y98.074 E0.01309
G1 X98.263 Y97.870 E0.00857
G1 X98.508 Y97.691 E0.00857
G1 X98.771 Y97.541 E0.00857
G1 X99.023 Y97.430 E0.00779
G1 X99.311 Y97.338 E0.00854
G1 X99.584 Y97.283 E0.00788
G1 X99.938 Y97.252 E0.01006
G1 X100.416 Y97.284 E0.01356
G1 X100.689 Y97.340 E0.00788
G1 X100.954 Y97.423 E0.00788
G1 X101.210 Y97.533 E0.00788
G1 X101.454 Y97.668 E0.00788
G1 X101.682 Y97.826 E0.00788
G1 X101.894 Y98.008 E0.00788
G1 X102.082 Y98.205 E0.00772
G1 X102.257 Y98.429 E0.00804
G1 X102.404 Y98.666 E0.00788
G1 X102.526 Y98.916 E0.00788
G1 X102.622 Y99.177 E0.00788
G1 X102.692 Y99.447 E0.00788
G1 X102.734 Y99.722 E0.00788
G1 X102.750 Y100.000 E0.00788
G1 X102.734 Y100.278 E0.00788
G1 X102.692 Y100.553 E0.00788
G1 X102.622 Y100.823 E0.00788
G1 X102.526 Y101.084 E0.00788
G1 X102.404 Y101.334 E0.00788
G1 X102.257 Y101.571 E0.00788
G1 X102.082 Y101.795 E0.00804
G1 X101.894 Y101.992 E0.00772
G1 X101.682 Y102.174 E0.00788
G1 X101.454 Y102.332 E0.00788
G1 X101.210 Y102.467 E0.00788
G1 X100.954 Y102.577 E0.00788
G1 X100.689 Y102.660 E0.00788
G1 X100.416 Y102.716 E0.00788
G1 X99.938 Y102.748 E0.01356
G1 X99.584 Y102.717 E0.01006
G1 X99.311 Y102.662 E0.00788
G1 X99.023 Y102.570 E0.00854
G1 X98.771 Y102.459 E0.00779
G1 X98.508 Y102.309 E0.00857
G1 X98.263 Y102.130 E0.00857
G1 X98.040 Y101.926 E0.00857
G1 X97.745 Y101.570 E0.01309
G1 X97.597 Y101.334 E0.00788
G1 X97.475 Y101.084 E0.00788
G1 X97.378 Y100.823 E0.00788
G1 X97.307 Y100.553 E0.00788
G1 X97.265 Y100.278 E0.00788
G1 X97.251 Y99.986 E0.00827
G1 Z1.550 F7800.000
G1 X97.251 Y99.986 F7800.000
G1 X97.266 Y99.711 E0.00779 F600.000
G1 X97.307 Y99.447 E0.00758
G1 X97.378 Y99.177 E0.00788
G1 X97.475 Y98.916 E0.00788
G1 X97.597 Y98.666 E0.00788
G1 X97.745 Y98.430 E0.00788
G1 X98.040 Y98.074 E0.01309
G1 X98.263 Y97.870 E0.00857
G1 X98.508 Y97.691 E0.00857
G1 X98.771 Y97.541 E0.00857
G1 X99.023 Y97.430 E0.00779
G1 X99.311 Y97.338 E0.00854
G1 X99.584 Y97.283 E0.00788
G1 X99.938 Y97.252 E0.01006
G1 X100.416 Y97.284 E0.01356
G1 X100.689 Y97.340 E0.00788
G1 X100.954 Y97.423 E0.00788
G1 X101.210 Y97.533 E0.00788
G1 X101.454 Y97.668 E0.00788
G1 X101.682 Y97.826 E0.00788
G1 X101.894 Y98.008 E0.00788
G1 X102.082 Y98.205 E0.00772
G1 X102.257 Y98.429 E0.00804
G1 X102.404 Y98.666 E0.00788
G1 X102.526 Y98.916 E0.00788
G1 X102.622 Y99.177 E0.00788
G1 X102.692 Y99.447 E0.00788
G1 X102.734 Y99.722 E0.00788
G1 X102.750 Y100.000 E0.00788
G1 X102.734 Y100.278 E0.00788
G1 X102.692 Y100.553 E0.00788
G1 X102.622 Y100.823 E0.00788
G1 X102.526 Y101.084 E0.00788
G1 X102.404 Y101.334 E0.00788
G1 X102.257 Y101.571 E0.00788
G1 X102.082 Y101.795 E0.00804
G1 X101.894 Y101.992 E0.00772
G1 X101.682 Y102.174 E0.00788
G1 X101.454 Y102.332 E0.00788
G1 X101.210 Y102.467 E0.00788
G1 X100.954 Y102.577 E0.00788
G1 X100.689 Y102.660 E0.00788
G1 X100.416 Y102.716 E0.00788
G1 X99.938 Y102.748 E0.01356
G1 X99.584 Y102.717 E0.01006
G1 X99.311 Y102.662 E0.00788
G1 X99.023 Y102.570 E0.00854
G1 X98.771 Y102.459 E0.00779
G1 X98.508 Y102.309 E0.00857
G1 X98.263 Y102.130 E0.00857
G1 X98.040 Y101.926 E0.00857
G1 X97.745 Y101.570 E0.01309
G1 X97.597 Y101.334 E0.00788
G1 X97.475 Y101.084 E0.00788
G1 X97.378 Y100.823 E0.00788
G1 X97.307 Y100.553 E0.00788
G1 X97.265 Y100.278 E0.00788
G1 X97.251 Y99.986 E0.00827
M107
M104 S0 ; turn off temperature
G28 X0  ; home X axis
M84     ; disable motors

; filament used = 2.5mm (0.0cm3)
; filament used = -4.9mm (-0.0cm3)

; avoid_crossing_perimeters = 0
; bed_size = 200,200
; bed_temperature = 0
; bridge_acceleration = 0
; bridge_fan_speed = 100
