; SETUP
; generated by Slic3r 1.1.7 on 2019-03-18 at 14:05:34

; perimeters extrusion width = 0.50mm
; infill extrusion width = 0.52mm
; solid infill extrusion width = 0.52mm
; top infill extrusion width = 0.52mm
; support material extrusion width = 0.50mm

G21 ; set units to millimeters
M107
;M104 S200 T1 ; set temperature
G28 ; home all axes
G1 Z5 F5000 ; lift nozzle

;M109 S200 T1 ; wait for temperature to be reached
G90 ; use absolute coordinates
M83 ; use relative distances for extrusion
T0
G1 Z0.350 F7800.000
;G1 F1800.000 E-10.00000
G92 E0
T1
G92 E0

T1
;G1 F1800.000 E-10.00000
G92 E0
T0
G92 E0

;T0
;G1 X94.875 Y100.000 F7800.000
;G1 E10.00000 F1800.000
; END SETUP
G92 E0
T0
G92 E0

G1 X93.058 Y99.839 F2000.000
G1 X93.058 Y99.839 E10.000 F100.000
G1 X93.086 Y99.297 E0.76839 F100.000
G1 X93.193 Y98.601 E0.99595
G1 X93.369 Y97.920 E0.99593
G1 X93.614 Y97.259 E0.99595
G1 X93.924 Y96.627 E0.99594
G1 X94.296 Y96.030 E0.99594
G1 X94.727 Y95.473 E0.99595
G1 X95.212 Y94.963 E0.99594
G1 X95.746 Y94.504 E0.99595
G1 X96.324 Y94.102 E0.99594
G1 X96.939 Y93.761 E0.99594
G1 X97.586 Y93.483 E0.99595
G1 X98.258 Y93.272 E0.99594
G1 X98.948 Y93.130 E0.99595
G1 X99.648 Y93.059 E0.99593
G1 X100.370 Y93.061 E1.02158
G1 X101.052 Y93.130 E0.97018 F100.000
G1 X101.742 Y93.272 E0.99595
G1 X102.414 Y93.483 E0.99594
G1 X103.061 Y93.761 E0.99595
G1 X103.676 Y94.102 E0.99594
G1 X104.254 Y94.504 E0.99594
G1 X104.788 Y94.963 E0.99595
G1 X105.273 Y95.473 E0.99594
G1 X105.704 Y96.030 E0.99595
G1 X106.076 Y96.627 E0.99594
G1 X106.386 Y97.259 E0.99593
G1 X106.631 Y97.920 E0.99596
G1 X106.807 Y98.601 E0.99593
G1 X106.917 Y99.360 E1.08507
G1 X106.950 Y100.000 E0.90640
G1 X106.923 Y100.535 E0.75837
G1 X106.940 Y100.535 E0.02432
G1 X106.807 Y101.399 E1.23598
G1 X106.609 Y102.140 E1.08507
G1 X106.386 Y102.741 E0.90640
G1 X106.076 Y103.373 E0.99594
G1 X105.704 Y103.970 E0.99594
G1 X105.273 Y104.527 E0.99595
G1 X104.788 Y105.037 E0.99594
G1 X104.202 Y105.532 E1.08506
G1 X103.676 Y105.898 E0.90641
G1 X103.061 Y106.239 E0.99594
G1 X102.353 Y106.536 E1.08507
G1 X101.742 Y106.728 E0.90640
G1 X101.052 Y106.870 E0.99594
G1 X100.352 Y106.941 E0.99594
G1 X99.648 Y106.941 E0.99595
G1 X98.948 Y106.870 E0.99593
G1 X98.258 Y106.728 E0.99595
G1 X97.586 Y106.517 E0.99594
G1 X96.939 Y106.239 E0.99594
G1 X96.324 Y105.898 E0.99595
G1 X95.746 Y105.496 E0.99594
G1 X95.212 Y105.037 E0.99595
G1 X94.727 Y104.527 E0.99594
G1 X94.296 Y103.970 E0.99595
G1 X93.924 Y103.373 E0.99593
G1 X93.614 Y102.741 E0.99595
G1 X93.369 Y102.080 E0.99594
G1 X93.193 Y101.399 E0.99594
G1 X93.086 Y100.703 E0.99594
G1 X93.055 Y99.914 E1.11684
	
M106 S255
G1 Z2.000 F1000.000
G92 E0
T1
G92 E0

G1 X93.058 Y122.839 F2000.000
G1 X93.058 Y122.839 E10.000 F100.000
G1 X93.086 Y122.297 E0.96049 F100.000
G1 X93.193 Y121.601 E1.24494
G1 X93.369 Y120.920 E1.24491
G1 X93.614 Y120.259 E1.24493
G1 X93.924 Y119.627 E1.24493
G1 X94.296 Y119.030 E1.24493
G1 X94.727 Y118.473 E1.24494
G1 X95.212 Y117.963 E1.24492
G1 X95.746 Y117.504 E1.24494
G1 X96.324 Y117.102 E1.24492
G1 X96.939 Y116.761 E1.24492
G1 X97.586 Y116.483 E1.24494
G1 X98.258 Y116.272 E1.24492
G1 X98.948 Y116.130 E1.24494
G1 X99.648 Y116.059 E1.24492
G1 X100.370 Y116.061 E1.27698
G1 X101.052 Y116.130 E1.21272 F100.000
G1 X101.742 Y116.272 E1.24493
G1 X102.414 Y116.483 E1.24492
G1 X103.061 Y116.761 E1.24494
G1 X103.676 Y117.102 E1.24493
G1 X104.254 Y117.504 E1.24493
G1 X104.788 Y117.963 E1.24493
G1 X105.273 Y118.473 E1.24493
G1 X105.704 Y119.030 E1.24493
G1 X106.076 Y119.627 E1.24493
G1 X106.386 Y120.259 E1.24492
G1 X106.631 Y120.920 E1.24495
G1 X106.807 Y121.601 E1.24491
G1 X106.917 Y122.360 E1.35634
G1 X106.950 Y123.000 E1.13300
G1 X106.923 Y123.535 E0.94797
G1 X106.940 Y123.535 E0.03040
G1 X106.807 Y124.399 E1.54497
G1 X106.609 Y125.140 E1.35633
G1 X106.386 Y125.741 E1.13300
G1 X106.076 Y126.373 E1.24493
G1 X105.704 Y126.970 E1.24492
G1 X105.273 Y127.527 E1.24494
G1 X104.788 Y128.037 E1.24493
G1 X104.202 Y128.532 E1.35633
G1 X103.676 Y128.898 E1.13301
G1 X103.061 Y129.239 E1.24493
G1 X102.353 Y129.536 E1.35633
G1 X101.742 Y129.728 E1.13300
G1 X101.052 Y129.870 E1.24492
G1 X100.352 Y129.941 E1.24493
G1 X99.648 Y129.941 E1.24494
G1 X98.948 Y129.870 E1.24492
G1 X98.258 Y129.728 E1.24494
G1 X97.586 Y129.517 E1.24493
G1 X96.939 Y129.239 E1.24492
G1 X96.324 Y128.898 E1.24493
G1 X95.746 Y128.496 E1.24492
G1 X95.212 Y128.037 E1.24494
G1 X94.727 Y127.527 E1.24492
G1 X94.296 Y126.970 E1.24494
G1 X93.924 Y126.373 E1.24491
G1 X93.614 Y125.741 E1.24494
G1 X93.369 Y125.080 E1.24493
G1 X93.193 Y124.399 E1.24493
G1 X93.086 Y123.703 E1.24493
G1 X93.055 Y122.914 E1.39605

M106 S255
G1 Z5.000 F7800.000

G28
M84