; generated by Slic3r 1.1.7 on 2019-03-19 at 11:57:08

; perimeters extrusion width = 0.50mm
; infill extrusion width = 0.52mm
; solid infill extrusion width = 0.52mm
; top infill extrusion width = 0.52mm
; support material extrusion width = 0.50mm

G21 ; set units to millimeters
M107
M104 S200 T1 ; set temperature
G28 ; home all axes
G1 Z5 F5000 ; lift nozzle

M109 S200 T1 ; wait for temperature to be reached
G90 ; use absolute coordinates
M83 ; use relative distances for extrusion
T0
G1 Z0.350 F7800.000
G1 F1800.000 E-10.00000
G92 E0
T1
G92 E0

T1
G1 F1800.000 E-10.00000
G92 E0
T0
G92 E0

T0
G1 X87.701 Y99.985 F7800.000
G1 E10.00000 F1800.000
G1 X87.764 Y98.751 E2.00984 F378.000
G1 X87.953 Y97.524 E2.01866
G1 X88.266 Y96.318 E2.02668
G1 X88.699 Y95.150 E2.02661
G1 X89.248 Y94.032 E2.02654
G1 X89.907 Y92.975 E2.02645
G1 X90.670 Y91.990 E2.02639
G1 X91.528 Y91.088 E2.02633
G1 X92.474 Y90.277 E2.02627
G1 X93.496 Y89.565 E2.02619
G1 X94.585 Y88.961 E2.02614
G1 X95.730 Y88.470 E2.02608
G1 X96.918 Y88.098 E2.02603
G1 X98.138 Y87.847 E2.02598
G1 X99.377 Y87.722 E2.02594
G1 X99.699 Y87.710 E0.52297
G1 X100.934 Y87.742 E2.00985
G1 X101.862 Y87.848 E1.51937
G1 X102.219 Y87.909 E0.58937
G1 X103.081 Y88.099 E1.43695
G1 X103.450 Y88.201 E0.62255
G1 X104.269 Y88.472 E1.40374
G1 X104.645 Y88.619 E0.65576
G1 X105.414 Y88.963 E1.37052
G1 X105.791 Y89.157 E0.68894
G1 X106.502 Y89.568 E1.33733
G1 X106.875 Y89.810 E0.72215
G1 X107.524 Y90.279 E1.30409
G1 X107.886 Y90.571 E0.75535
G1 X108.469 Y91.091 E1.27091
G1 X108.814 Y91.432 E0.78852
G1 X109.327 Y91.993 E1.23770
G1 X109.648 Y92.383 E0.82173
G1 X110.089 Y92.978 E1.20449
G1 X110.380 Y93.416 E0.85492
G1 X110.748 Y94.035 E1.17129
G1 X111.002 Y94.518 E0.88813
G1 X111.296 Y95.153 E1.13808
G1 X111.507 Y95.678 E0.92131
G1 X111.728 Y96.320 E1.10489
G1 X111.890 Y96.884 E0.95452
G1 X112.040 Y97.526 E1.07168
G1 X112.148 Y98.123 E0.98773
G1 X112.229 Y98.756 E1.03846
G1 X112.300 Y100.000 E2.02625
G1 X112.229 Y101.244 E2.02625
G1 X112.148 Y101.877 E1.03846
G1 X112.040 Y102.474 E0.98773
G1 X111.890 Y103.116 E1.07168
G1 X111.728 Y103.680 E0.95452
G1 X111.507 Y104.322 E1.10487
G1 X111.296 Y104.847 E0.92133
G1 X111.002 Y105.482 E1.13808
G1 X110.748 Y105.965 E0.88812
G1 X110.380 Y106.584 E1.17129
G1 X110.089 Y107.022 E0.85493
G1 X109.648 Y107.617 E1.20448
G1 X109.327 Y108.007 E0.82173
G1 X108.814 Y108.568 E1.23770
G1 X108.469 Y108.909 E0.78853
G1 X107.886 Y109.429 E1.27091
G1 X107.524 Y109.721 E0.75534
G1 X106.875 Y110.190 E1.30410
G1 X106.502 Y110.432 E0.72215
G1 X105.791 Y110.843 E1.33734
G1 X105.414 Y111.037 E0.68894
G1 X104.645 Y111.381 E1.37052
G1 X104.269 Y111.528 E0.65576
G1 X103.450 Y111.799 E1.40371
G1 X103.081 Y111.901 E0.62259
G1 X102.219 Y112.091 E1.43695
G1 X101.862 Y112.152 E0.58937
G1 X100.934 Y112.258 E1.51936
G1 X99.699 Y112.290 E2.00985
G1 X99.377 Y112.278 E0.52297
G1 X98.138 Y112.153 E2.02594
G1 X96.918 Y111.902 E2.02598
G1 X95.730 Y111.530 E2.02603
G1 X94.585 Y111.039 E2.02609
G1 X93.496 Y110.435 E2.02614
G1 X92.474 Y109.723 E2.02619
G1 X91.528 Y108.912 E2.02626
G1 X90.670 Y108.010 E2.02635
G1 X89.907 Y107.025 E2.02637
G1 X89.248 Y105.968 E2.02646
G1 X88.699 Y104.850 E2.02653
G1 X88.266 Y103.682 E2.02662
G1 X87.953 Y102.476 E2.02668
G1 X87.764 Y101.244 E2.02677
G1 X87.701 Y99.985 E2.05185
G1 F1800.000 E-10.00000
G92 E0
T1
G92 E0

T1
G1 X86.137 Y97.392 F7800.000
G1 E10.00000 F1800.000
G1 X89.604 Y90.473 E0.19990 F1080.000
G1 X89.574 Y91.699 F7800.000
G1 X90.743 Y89.366 E0.06738 F1080.000
G1 X90.871 Y90.273 E0.02366
G1 X91.716 Y88.589 E0.04867
G1 X91.888 Y89.410 E0.02167
G1 X92.604 Y87.981 E0.04130
G1 X92.784 Y88.786 E0.02132
G1 X93.412 Y87.532 E0.03624
G1 X93.608 Y88.307 E0.02064
G1 X94.186 Y87.153 E0.03332
G1 X94.392 Y87.905 E0.02013
G1 X94.929 Y86.834 E0.03093
G1 X95.136 Y87.586 E0.02013
G1 X95.672 Y86.515 E0.03093
G1 X96.325 Y86.377 E0.01724
G1 X95.844 Y87.337 E0.02774
G1 X96.536 Y87.120 E0.01874
G1 X96.984 Y86.227 E0.02581
G1 X97.634 Y86.093 E0.01715
G1 X97.194 Y86.972 E0.02539
G1 X97.844 Y86.838 E0.01715
G1 X98.262 Y86.006 E0.02405
G1 X98.877 Y85.943 E0.01596
G1 X98.467 Y86.761 E0.02363
G1 X99.082 Y86.698 E0.01596
G1 X99.481 Y85.902 E0.02302
G1 X100.064 Y85.902 E0.01507
G1 X99.677 Y86.674 E0.02231
G1 X100.261 Y86.674 E0.01507
G1 X100.648 Y85.902 E0.02231
G1 X101.206 Y85.952 E0.01448
G1 X100.836 Y86.690 E0.02134
G1 X101.391 Y86.747 E0.01441
G1 X101.761 Y86.008 E0.02134
G1 X102.308 Y86.081 E0.01425
G1 X101.947 Y86.803 E0.02085
G1 X102.479 Y86.905 E0.01400
G1 X102.837 Y86.190 E0.02065
G1 X103.366 Y86.299 E0.01395
G1 X103.008 Y87.013 E0.02065
G1 X103.528 Y87.140 E0.01382
G1 X103.878 Y86.441 E0.02020
G1 X104.383 Y86.599 E0.01365
G1 X104.032 Y87.298 E0.02020
G1 X104.536 Y87.457 E0.01365
G1 X104.887 Y86.757 E0.02020
G1 X105.368 Y86.962 E0.01350
G1 X105.021 Y87.653 E0.01998
G1 X105.501 Y87.859 E0.01350
G1 X105.848 Y87.168 E0.01998
G1 X106.316 Y87.398 E0.01347
G1 X105.976 Y88.076 E0.01958
G1 X106.433 Y88.329 E0.01348
G1 X106.779 Y87.638 E0.01996
G1 X107.236 Y87.892 E0.01348
G1 X106.889 Y88.583 E0.01996
G1 X107.331 Y88.866 E0.01355
G1 X107.680 Y88.169 E0.02015
G1 X108.113 Y88.470 E0.01361
G1 X107.763 Y89.167 E0.02015
G1 X108.194 Y89.471 E0.01363
G1 X108.546 Y88.771 E0.02024
G1 X108.959 Y89.110 E0.01381
G1 X108.602 Y89.822 E0.02056
G1 X109.010 Y90.172 E0.01389
G1 X109.367 Y89.460 E0.02056
G1 X109.772 Y89.817 E0.01393
G1 X109.404 Y90.551 E0.02120
G1 X109.786 Y90.953 E0.01432
G1 X110.154 Y90.219 E0.02120
G1 X110.536 Y90.621 E0.01432
G1 X110.165 Y91.361 E0.02139
G1 X110.519 Y91.818 E0.01494
G1 X110.903 Y91.053 E0.02212
G1 X111.257 Y91.510 E0.01494
G1 X110.873 Y92.276 E0.02212
G1 X111.203 Y92.781 E0.01559
G1 X111.609 Y91.972 E0.02338
G1 X111.932 Y92.491 E0.01579
G1 X111.527 Y93.300 E0.02338
G1 X111.830 Y93.858 E0.01641
G1 X112.256 Y93.010 E0.02452
G1 X112.554 Y93.579 E0.01660
G1 X112.119 Y94.447 E0.02506
G1 X112.387 Y95.076 E0.01767
G1 X112.842 Y94.168 E0.02624
G1 X113.109 Y94.801 E0.01773
G1 X112.635 Y95.745 E0.02730
G1 X112.853 Y96.475 E0.01966
G1 X113.357 Y95.470 E0.02903
G1 X113.578 Y96.193 E0.01953
G1 X113.052 Y97.242 E0.03032
G1 X113.776 Y96.961 E0.02008
G1 X113.194 Y98.123 E0.03357
G1 X113.929 Y97.820 E0.02052
G1 X113.297 Y99.082 E0.03644
G1 X114.053 Y98.738 E0.02144
G1 X113.335 Y100.170 E0.04138
G1 X114.106 Y99.795 E0.02215
G1 X113.252 Y101.500 E0.04924
G1 X114.064 Y101.044 E0.02403
G1 X112.888 Y103.390 E0.06777
G1 X113.863 Y102.608 F7800.000
G1 X110.396 Y109.527 E0.19990 F1080.000
G1 X110.426 Y108.301 F7800.000
G1 X109.257 Y110.634 E0.06738 F1080.000
G1 X109.129 Y109.727 E0.02366
G1 X108.284 Y111.411 E0.04867
G1 X108.112 Y110.590 E0.02167
G1 X107.396 Y112.019 E0.04130
G1 X107.216 Y111.214 E0.02132
G1 X106.588 Y112.468 E0.03624
G1 X106.392 Y111.693 E0.02064
G1 X105.814 Y112.847 E0.03332
G1 X105.608 Y112.095 E0.02013
G1 X105.071 Y113.166 E0.03093
G1 X104.367 Y113.406 E0.01921
G1 X104.864 Y112.414 E0.02865
G1 X104.156 Y112.663 E0.01939
G1 X103.675 Y113.623 E0.02774
G1 X102.982 Y113.840 E0.01874
G1 X103.464 Y112.880 E0.02774
G1 X102.806 Y113.028 E0.01741
G1 X102.366 Y113.907 E0.02539
G1 X101.738 Y113.994 E0.01636
G1 X102.156 Y113.162 E0.02406
G1 X101.533 Y113.239 E0.01619
G1 X101.123 Y114.057 E0.02363
G1 X100.509 Y114.119 E0.01596
G1 X100.918 Y113.302 E0.02363
G1 X100.323 Y113.326 E0.01540
G1 X99.936 Y114.098 E0.02231
G1 X99.352 Y114.098 E0.01507
G1 X99.739 Y113.326 E0.02231
G1 X99.164 Y113.310 E0.01487
G1 X98.794 Y114.048 E0.02134
G1 X98.239 Y113.992 E0.01441
G1 X98.609 Y113.253 E0.02134
G1 X98.053 Y113.197 E0.01441
G1 X97.692 Y113.919 E0.02085
G1 X97.163 Y113.810 E0.01395
G1 X97.521 Y113.095 E0.02065
G1 X96.992 Y112.987 E0.01395
G1 X96.634 Y113.701 E0.02065
G1 X96.122 Y113.559 E0.01373
G1 X96.472 Y112.860 E0.02020
G1 X95.968 Y112.702 E0.01365
G1 X95.617 Y113.401 E0.02020
G1 X95.113 Y113.243 E0.01365
G1 X95.464 Y112.543 E0.02020
G1 X94.979 Y112.347 E0.01352
G1 X94.632 Y113.038 E0.01998
G1 X94.152 Y112.832 E0.01350
G1 X94.499 Y112.141 E0.01998
G1 X94.024 Y111.924 E0.01348
G1 X93.684 Y112.602 E0.01958
G1 X93.221 Y112.362 E0.01347
G1 X93.567 Y111.671 E0.01996
G1 X93.111 Y111.417 E0.01348
G1 X92.764 Y112.108 E0.01996
G1 X92.320 Y111.831 E0.01353
G1 X92.669 Y111.134 E0.02015
G1 X92.237 Y110.833 E0.01361
G1 X91.887 Y111.530 E0.02015
G1 X91.454 Y111.229 E0.01361
G1 X91.806 Y110.529 E0.02024
G1 X91.398 Y110.178 E0.01389
G1 X91.041 Y110.890 E0.02056
G1 X90.633 Y110.540 E0.01389
G1 X90.990 Y109.828 E0.02056
G1 X90.596 Y109.449 E0.01411
G1 X90.228 Y110.183 E0.02120
G1 X89.846 Y109.781 E0.01432
G1 X90.214 Y109.048 E0.02120
G1 X89.835 Y108.639 E0.01439
G1 X89.464 Y109.379 E0.02139
G1 X89.097 Y108.947 E0.01464
G1 X89.481 Y108.182 E0.02212
G1 X89.127 Y107.724 E0.01494
G1 X88.743 Y108.490 E0.02212
G1 X88.391 Y108.028 E0.01500
G1 X88.797 Y107.219 E0.02338
G1 X88.473 Y106.700 E0.01579
G1 X88.068 Y107.509 E0.02338
G1 X87.744 Y106.990 E0.01579
G1 X88.170 Y106.142 E0.02452
G1 X87.881 Y105.553 E0.01693
G1 X87.446 Y106.421 E0.02506
G1 X87.158 Y105.832 E0.01693
G1 X87.613 Y104.924 E0.02624
G1 X87.365 Y104.255 E0.01844
G1 X86.891 Y105.199 E0.02730
G1 X86.643 Y104.530 E0.01844
G1 X87.147 Y103.525 E0.02903
G1 X86.422 Y103.807 E0.02008
G1 X86.948 Y102.758 E0.03032
G1 X86.224 Y103.039 E0.02008
G1 X86.806 Y101.877 E0.03357
G1 X86.071 Y102.180 E0.02052
G1 X86.703 Y100.918 E0.03644
G1 X85.947 Y101.262 E0.02144
G1 X86.665 Y99.830 E0.04138
G1 X85.894 Y100.205 E0.02215
G1 X86.748 Y98.500 E0.04924
G1 X85.936 Y98.956 E0.02403
G1 X87.112 Y96.610 E0.06777
G1 X87.003 Y94.499 F7800.000
G1 X87.772 Y92.966 E0.04430 F1080.000
G1 X90.309 Y94.290 F7800.000
G1 X89.622 Y95.661 E0.03967 F1080.000
G1 X91.951 Y96.669 F7800.000
G1 X92.493 Y95.587 E0.03157 F1080.000
G1 X94.068 Y93.619 F7800.000
G1 X91.335 Y99.072 E0.15902 F1080.000
G1 X95.047 Y92.841 F7800.000
G1 X91.300 Y100.318 E0.21808 F1080.000
G1 X91.393 Y101.306 E0.02589
G1 X95.897 Y92.321 E0.26207
G1 X96.668 Y91.957 E0.02225
G1 X91.563 Y102.144 E0.29712
G1 X91.783 Y102.879 E0.02002
G1 X97.388 Y91.696 E0.32617
G1 X98.071 Y91.509 E0.01845
G1 X92.041 Y103.541 E0.35091
G1 X92.332 Y104.135 E0.01725
G1 X98.725 Y91.379 E0.37202
G1 X107.008 Y94.832 F7800.000
G1 X104.481 Y99.873 E0.14704 F1080.000
G1 X104.353 Y98.954 E0.02420
G1 X106.651 Y94.370 E0.13370
G1 X106.268 Y93.958 E0.01465
G1 X104.120 Y98.243 E0.12496
G1 X103.820 Y97.667 E0.01694
G1 X105.874 Y93.569 E0.11950
G1 X105.462 Y93.216 E0.01415
G1 X103.476 Y97.178 E0.11556
G1 X103.095 Y96.762 E0.01470
G1 X105.033 Y92.897 E0.11275
G1 X104.595 Y92.594 E0.01387
G1 X102.683 Y96.410 E0.11130
G1 X102.241 Y96.117 E0.01383
G1 X104.132 Y92.344 E0.11006
G1 X103.661 Y92.108 E0.01373
G1 X101.769 Y95.883 E0.11010
G1 X101.270 Y95.704 E0.01383
G1 X103.180 Y91.892 E0.11119
G1 X102.679 Y91.717 E0.01385
G1 X100.741 Y95.584 E0.11278
G1 X100.180 Y95.527 E0.01469
G1 X102.169 Y91.559 E0.11574
G1 X101.635 Y91.449 E0.01422
G1 X99.583 Y95.543 E0.11941
G1 X98.943 Y95.646 E0.01691
G1 X101.090 Y91.361 E0.12498
G1 X100.530 Y91.304 E0.01469
G1 X98.233 Y95.887 E0.13368
G1 X97.414 Y96.345 E0.02446
G1 X99.945 Y91.295 E0.14731
G1 X99.346 Y91.316 E0.01565
G1 X92.653 Y104.670 E0.38946
G1 X92.992 Y105.168 E0.01572
G1 X95.523 Y100.117 E0.14731
G1 X95.645 Y101.050 E0.02452
G1 X93.349 Y105.630 E0.13359
G1 X93.732 Y106.042 E0.01465
G1 X95.881 Y101.754 E0.12505
G1 X96.177 Y102.340 E0.01710
G1 X94.126 Y106.431 E0.11931
G1 X94.538 Y106.784 E0.01415
G1 X96.523 Y102.824 E0.11552
G1 X96.906 Y103.236 E0.01466
G1 X94.967 Y107.103 E0.11281
G1 X95.405 Y107.406 E0.01387
G1 X97.320 Y103.585 E0.11143
G1 X97.762 Y103.877 E0.01383
G1 X95.868 Y107.656 E0.11023
G1 X96.339 Y107.892 E0.01373
G1 X98.233 Y104.113 E0.11023
G1 X98.732 Y104.293 E0.01383
G1 X96.820 Y108.108 E0.11126
G1 X97.321 Y108.283 E0.01385
G1 X99.259 Y104.416 E0.11279
G1 X99.818 Y104.477 E0.01465
G1 X97.831 Y108.441 E0.11564
G1 X98.365 Y108.551 E0.01422
G1 X100.414 Y104.462 E0.11928
G1 X101.060 Y104.349 E0.01708
G1 X98.910 Y108.639 E0.12513
G1 X99.470 Y108.696 E0.01469
G1 X101.764 Y104.119 E0.13349
G1 X102.584 Y103.659 E0.02452
G1 X100.055 Y108.705 E0.14719
G1 X100.655 Y108.684 E0.01565
G1 X107.347 Y95.330 E0.38946
G1 X107.668 Y95.865 E0.01627
G1 X101.275 Y108.621 E0.37202
G1 X101.929 Y108.491 E0.01739
G1 X107.959 Y96.459 E0.35091
G1 X108.217 Y97.121 E0.01851
G1 X102.612 Y108.304 E0.32617
G1 X103.332 Y108.043 E0.01996
G1 X108.437 Y97.856 E0.29712
G1 X108.607 Y98.694 E0.02227
G1 X104.103 Y107.679 E0.26207
G1 X104.953 Y107.159 E0.02597
G1 X108.700 Y99.682 E0.21808
G1 X108.665 Y100.928 F7800.000
G1 X105.932 Y106.381 E0.15902 F1080.000
G1 X108.033 Y106.720 F7800.000
G1 X106.982 Y108.815 E0.06063 F1080.000
G1 X106.839 Y107.936 E0.02304
G1 X106.071 Y109.467 E0.04428
G1 X105.885 Y108.673 E0.02108
G1 X105.240 Y109.959 E0.03720
G1 X105.046 Y109.182 E0.02072
G1 X104.477 Y110.317 E0.03282
G1 X103.752 Y110.597 E0.02010
G1 X104.272 Y109.560 E0.03000
G1 X103.541 Y109.853 E0.02037
G1 X103.051 Y110.830 E0.02827
G1 X102.388 Y110.987 E0.01761
G1 X102.839 Y110.087 E0.02603
G1 X102.177 Y110.243 E0.01761
G1 X101.743 Y111.110 E0.02507
G1 X101.118 Y111.191 E0.01629
G1 X101.535 Y110.358 E0.02409
G1 X100.910 Y110.439 E0.01629
G1 X100.513 Y111.232 E0.02295
G1 X99.921 Y111.247 E0.01531
G1 X100.313 Y110.465 E0.02264
G1 X99.722 Y110.479 E0.01530
G1 X99.348 Y111.225 E0.02157
G1 X98.786 Y111.181 E0.01459
G1 X99.159 Y110.436 E0.02157
G1 X98.600 Y110.387 E0.01453
G1 X98.239 Y111.106 E0.02081
G1 X97.704 Y111.008 E0.01407
G1 X98.064 Y110.289 E0.02081
G1 X97.532 Y110.186 E0.01403
G1 X97.180 Y110.887 E0.02030
G1 X96.670 Y110.739 E0.01373
G1 X97.022 Y110.037 E0.02030
G1 X96.514 Y109.885 E0.01371
G1 X96.167 Y110.577 E0.02003
G1 X95.682 Y110.380 E0.01355
G1 X96.029 Y109.687 E0.02003
G1 X95.544 Y109.489 E0.01355
G1 X95.207 Y110.162 E0.01948
G1 X94.740 Y109.928 E0.01351
G1 X95.083 Y109.243 E0.01981
G1 X94.622 Y108.998 E0.01351
G1 X94.276 Y109.688 E0.01998
G1 X93.835 Y109.402 E0.01359
G1 X94.184 Y108.706 E0.02013
G1 X93.747 Y108.412 E0.01362
G1 X93.398 Y109.108 E0.02013
G1 X92.978 Y108.782 E0.01377
G1 X93.333 Y108.072 E0.02051
G1 X92.921 Y107.729 E0.01388
G1 X92.566 Y108.438 E0.02051
G1 X92.166 Y108.069 E0.01406
G1 X92.533 Y107.338 E0.02114
G1 X92.147 Y106.942 E0.01430
G1 X91.781 Y107.673 E0.02114
G1 X91.406 Y107.255 E0.01451
G1 X91.787 Y106.493 E0.02204
G1 X91.432 Y106.037 E0.01496
G1 X91.048 Y106.803 E0.02217
G1 X90.702 Y106.328 E0.01520
G1 X91.105 Y105.523 E0.02328
G1 X90.789 Y104.989 E0.01607
G1 X90.375 Y105.814 E0.02388
G1 X90.065 Y105.267 E0.01626
G1 X90.497 Y104.405 E0.02495
G1 X90.232 Y103.769 E0.01783
G1 X89.773 Y104.684 E0.02647
G1 X89.510 Y104.043 E0.01791
G1 X89.988 Y103.091 E0.02755
G1 X89.263 Y103.371 E0.02009
G1 X89.786 Y102.327 E0.03021
G1 X89.062 Y102.607 E0.02009
G1 X89.633 Y101.467 E0.03297
G1 X88.898 Y101.768 E0.02053
G1 X89.542 Y100.484 E0.03714
G1 X88.786 Y100.826 E0.02145
G1 X89.553 Y99.295 E0.04427
G1 X88.758 Y99.716 E0.02325
G1 X89.791 Y97.654 E0.05964
G1 X88.889 Y98.288 E0.02851
G1 X91.979 Y92.123 E0.17832
G1 X92.013 Y93.222 E0.02843
G1 X93.045 Y91.162 E0.05959
G1 X93.183 Y92.053 E0.02331
G1 X93.951 Y90.521 E0.04432
G1 X94.128 Y91.332 E0.02148
G1 X94.772 Y90.048 E0.03715
G1 X94.971 Y90.817 E0.02054
G1 X95.542 Y89.677 E0.03296
G1 X95.751 Y90.426 E0.02010
G1 X96.276 Y89.379 E0.03029
G1 X96.962 Y89.176 E0.01849
G1 X96.485 Y90.127 E0.02752
G1 X97.174 Y89.919 E0.01861
G1 X97.632 Y89.005 E0.02644
G1 X98.275 Y88.888 E0.01690
G1 X97.842 Y89.751 E0.02499
G1 X98.485 Y89.634 E0.01690
G1 X98.898 Y88.810 E0.02384
G1 X99.506 Y88.763 E0.01577
G1 X99.102 Y89.569 E0.02331
G1 X99.710 Y89.522 E0.01577
G1 X100.093 Y88.757 E0.02212
G1 X100.670 Y88.772 E0.01492
G1 X100.287 Y89.534 E0.02206
G1 X100.861 Y89.555 E0.01486
G1 X101.228 Y88.823 E0.02115
G1 X101.777 Y88.894 E0.01431
G1 X101.410 Y89.626 E0.02115
G1 X101.955 Y89.704 E0.01424
G1 X102.311 Y88.995 E0.02052
G1 X102.833 Y89.118 E0.01388
G1 X102.477 Y89.828 E0.02052
G1 X102.996 Y89.958 E0.01384
G1 X103.345 Y89.261 E0.02014
G1 X103.843 Y89.434 E0.01362
G1 X103.494 Y90.131 E0.02014
G1 X103.989 Y90.308 E0.01361
G1 X104.336 Y89.617 E0.01998
G1 X104.806 Y89.844 E0.01351
