; generated by Slic3r 1.1.7 on 2019-03-18 at 13:55:59

; perimeters extrusion width = 0.50mm
; infill extrusion width = 0.52mm
; solid infill extrusion width = 0.52mm
; top infill extrusion width = 0.52mm
; support material extrusion width = 0.50mm

G21 ; set units to millimeters
M107
M104 S200 T1 ; set temperature
G28 ; home all axes
G1 Z5 F5000 ; lift nozzle

M109 S200 T1 ; wait for temperature to be reached
G90 ; use absolute coordinates
G92 E0
M82 ; use absolute distances for extrusion
T0
G92 E0
G1 Z0.350 F7800.000
G1 F1800.000 E-10.00000
G92 E0
G92 E0
T1
G92 E0

T1
G92 E0
G1 F1800.000 E-10.00000
G92 E0
G92 E0
T0
G92 E0

T0
G92 E0
G1 X94.875 Y113.000 F7800.000
G1 E10.00000 F1800.000
G1 X94.902 Y112.479 E10.01696 F600.000
G1 X94.980 Y111.968 E10.03378
G1 X95.111 Y111.466 E10.05067
G1 X95.291 Y110.979 E10.06756
G1 X95.520 Y110.513 E10.08445
G1 X95.795 Y110.073 E10.10133
G1 X96.112 Y109.663 E10.11822
G1 X96.470 Y109.287 E10.13511
G1 X96.864 Y108.949 E10.15199
G1 X97.290 Y108.652 E10.16888
G1 X97.744 Y108.401 E10.18576
G1 X98.221 Y108.196 E10.20264
G1 X98.716 Y108.041 E10.21953
G1 X99.224 Y107.936 E10.23641
G1 X99.874 Y107.879 E10.25764
G1 X100.389 Y107.892 E10.27439
G1 X100.776 Y107.937 E10.28705
G1 X101.284 Y108.041 E10.30394
G1 X101.779 Y108.197 E10.32082
G1 X102.256 Y108.401 E10.33770
G1 X102.709 Y108.653 E10.35458
G1 X103.135 Y108.950 E10.37146
G1 X103.529 Y109.288 E10.38834
G1 X103.886 Y109.664 E10.40522
G1 X104.204 Y110.074 E10.42210
G1 X104.478 Y110.514 E10.43898
G1 X104.707 Y110.980 E10.45586
G1 X104.887 Y111.467 E10.47274
G1 X105.017 Y111.969 E10.48962
G1 X105.095 Y112.482 E10.50650
G1 X105.125 Y113.000 E10.52339
G1 X105.095 Y113.518 E10.54027
G1 X105.017 Y114.031 E10.55715
G1 X104.887 Y114.533 E10.57403
G1 X104.707 Y115.020 E10.59091
G1 X104.478 Y115.486 E10.60779
G1 X104.204 Y115.926 E10.62467
G1 X103.886 Y116.336 E10.64155
G1 X103.529 Y116.712 E10.65843
G1 X103.135 Y117.050 E10.67531
G1 X102.709 Y117.347 E10.69219
G1 X102.256 Y117.599 E10.70907
G1 X101.779 Y117.803 E10.72595
G1 X101.284 Y117.959 E10.74283
G1 X100.776 Y118.063 E10.75972
G1 X100.389 Y118.108 E10.77238
G1 X99.874 Y118.121 E10.78913
G1 X99.224 Y118.064 E10.81036
G1 X98.716 Y117.959 E10.82724
G1 X98.221 Y117.804 E10.84413
G1 X97.744 Y117.599 E10.86101
G1 X97.290 Y117.348 E10.87790
G1 X96.864 Y117.051 E10.89478
G1 X96.470 Y116.713 E10.91167
G1 X96.112 Y116.337 E10.92855
G1 X95.795 Y115.927 E10.94544
G1 X95.520 Y115.487 E10.96233
G1 X95.291 Y115.021 E10.97921
G1 X95.111 Y114.534 E10.99610
G1 X94.980 Y114.032 E11.01299
G1 X94.902 Y113.518 E11.02988
G1 X94.875 Y113.000 E11.04677
G1 F1800.000 E1.04677
G92 E0
G92 E0
T1
G92 E0

T1
G92 E0
G1 X96.033 Y85.471 F7800.000
G1 E10.00000 F1800.000
G1 X96.401 Y84.738 E10.02151 F600.000
G1 X98.343 Y85.873 F7800.000
G1 X98.098 Y86.362 E10.03687 F600.000
G1 X100.518 Y87.866 F7800.000
G1 X99.946 Y89.006 E10.07270 F600.000
G1 X99.364 Y88.901 E10.08932
G1 X99.832 Y87.967 E10.11865
G1 X99.325 Y87.713 E10.13460
G1 X98.857 Y88.647 E10.16395
G1 X98.425 Y88.243 E10.18057
G1 X98.988 Y87.118 E10.21591
G1 X98.096 Y87.632 E10.24484
G1 X99.366 Y85.099 E10.32444
G1 X100.052 Y84.997 E10.34393
G1 X99.459 Y86.179 E10.38109
G1 X100.167 Y86.032 E10.40142
G1 X100.635 Y85.099 E10.43076
G1 X101.143 Y85.353 E10.44670
G1 X100.675 Y86.286 E10.47602
G1 X101.042 Y86.820 E10.49423
G1 X101.574 Y85.759 E10.52758
G1 X101.902 Y86.370 E10.54706
G1 X100.633 Y88.903 E10.62666
G1 X101.646 Y88.147 F7800.000
G1 X101.895 Y87.650 E10.64227 F600.000
G1 X100.981 Y86.942 F7800.000
G1 X101.018 Y86.867 E10.64461 F600.000
G1 X103.960 Y88.554 F7800.000
G1 X103.612 Y89.249 E10.66498 F600.000
G1 X102.195 Y89.713 E10.70405
G1 X101.573 Y90.953 E10.74040
G1 X100.878 Y91.161 E10.75942
G1 X101.351 Y90.217 E10.78710
G1 X100.653 Y90.427 E10.80619
G1 X100.243 Y91.246 E10.83020
G1 X99.655 Y91.237 E10.84559
G1 X100.031 Y90.489 E10.86753
G1 X99.458 Y90.450 E10.88257
G1 X99.103 Y91.158 E10.90331
G1 X98.584 Y91.013 E10.91744
G1 X98.931 Y90.321 E10.93774
G1 X98.438 Y90.123 E10.95166
G1 X98.105 Y90.787 E10.97113
G1 X97.639 Y90.535 E10.98501
G1 X97.984 Y89.847 E11.00518
G1 X97.565 Y89.502 E11.01940
G1 X97.211 Y90.209 E11.04013
G1 X96.813 Y89.821 E11.05469
G1 X97.190 Y89.069 E11.07672
G1 X96.867 Y88.533 E11.09312
G1 X96.457 Y89.350 E11.11707
G1 X96.144 Y88.794 E11.13381
G1 X96.617 Y87.851 E11.16145
G1 X95.896 Y88.108 E11.18150
G1 X96.513 Y86.876 E11.21761
G1 X95.754 Y87.209 E11.23934
G1 X97.627 Y83.473 E11.34885
G1 X97.816 Y84.278 E11.37051
G1 X98.431 Y83.049 E11.40652
G1 X99.129 Y82.838 E11.42563
G1 X98.657 Y83.780 E11.45325
G1 X99.353 Y83.571 E11.47231
G1 X99.763 Y82.755 E11.49625
G1 X100.353 Y82.759 E11.51171
G1 X99.976 Y83.511 E11.53376
G1 X100.548 Y83.551 E11.54878
G1 X100.902 Y82.845 E11.56948
G1 X101.419 Y82.993 E11.58359
G1 X101.075 Y83.681 E11.60376
G1 X101.567 Y83.880 E11.61768
G1 X101.900 Y83.215 E11.63717
G1 X102.368 Y83.463 E11.65104
G1 X102.020 Y84.156 E11.67134
G1 X102.439 Y84.502 E11.68558
G1 X102.794 Y83.794 E11.70635
G1 X103.188 Y84.188 E11.72096
G1 X102.814 Y84.936 E11.74287
G1 X103.136 Y85.473 E11.75929
G1 X103.547 Y84.653 E11.78332
G1 X103.858 Y85.213 E11.80011
G1 X103.385 Y86.157 E11.82778
G1 X104.109 Y85.894 E11.84796
G1 X103.486 Y87.137 E11.88441
G1 X104.252 Y86.790 E11.90644
G1 X102.377 Y90.531 E12.01608
M106 S255
G1 Z0.400 F7800.000
G1 X102.579 Y90.701 F7800.000
G1 X104.509 Y86.850 E12.03218 F600.000
G1 X103.348 Y87.987 F7800.000
G1 X104.381 Y85.926 E12.04080 F600.000
G1 X104.147 Y85.213 E12.04361
G1 X103.464 Y86.576 E12.04931
G1 X103.270 Y85.784 E12.05235
G1 X103.844 Y84.639 E12.05714
G1 X103.498 Y84.150 E12.05938
G1 X102.979 Y85.185 E12.06371
G1 X102.629 Y84.703 E12.06594
G1 X103.116 Y83.731 E12.07000
G1 X102.700 Y83.383 E12.07203
G1 X102.231 Y84.318 E12.07594
G1 X101.796 Y84.007 E12.07794
G1 X102.251 Y83.099 E12.08174
G1 X101.778 Y82.862 E12.08371
G1 X101.323 Y83.771 E12.08751
G1 X100.814 Y83.606 E12.08951
G1 X101.281 Y82.674 E12.09341
G1 X100.753 Y82.550 E12.09544
G1 X100.266 Y83.521 E12.09950
G1 X99.672 Y83.527 E12.10172
G1 X100.192 Y82.489 E12.10606
G1 X99.591 Y82.508 E12.10831
G1 X99.018 Y83.652 E12.11309
G1 X98.266 Y83.973 E12.11615
G1 X98.948 Y82.611 E12.12184
G1 X98.238 Y82.847 E12.12464
G1 X97.202 Y84.916 E12.13329
G1 X96.165 Y84.625 F7800.000
G1 X95.799 Y85.356 E12.13635 F600.000
G1 X96.652 Y86.013 F7800.000
G1 X95.619 Y88.074 E12.14497 F600.000
G1 X95.853 Y88.787 E12.14777
G1 X96.536 Y87.424 E12.15347
G1 X96.730 Y88.216 E12.15652
G1 X96.156 Y89.361 E12.16131
G1 X96.502 Y89.850 E12.16355
G1 X97.021 Y88.815 E12.16788
G1 X97.371 Y89.297 E12.17010
G1 X96.884 Y90.269 E12.17417
G1 X97.300 Y90.617 E12.17620
G1 X97.769 Y89.682 E12.18010
G1 X98.204 Y89.993 E12.18210
G1 X97.749 Y90.901 E12.18590
G1 X98.222 Y91.138 E12.18788
G1 X98.677 Y90.229 E12.19168
G1 X99.186 Y90.394 E12.19368
G1 X98.719 Y91.326 E12.19758
G1 X99.247 Y91.450 E12.19961
G1 X99.734 Y90.479 E12.20367
G1 X100.328 Y90.473 E12.20589
G1 X99.808 Y91.511 E12.21023
G1 X100.409 Y91.492 E12.21247
G1 X100.982 Y90.348 E12.21726
G1 X101.734 Y90.027 E12.22032
G1 X101.052 Y91.389 E12.22601
G1 X101.762 Y91.153 E12.22881
G1 X102.798 Y89.084 E12.23745
G1 X103.835 Y89.375 F7800.000
G1 X104.201 Y88.644 E12.24051 F600.000
G1 X101.895 Y87.650 F7800.000
G1 X101.646 Y88.147 E12.24274 F600.000
G1 X100.541 Y87.819 F7800.000
G1 X99.946 Y89.006 E12.24807 F600.000
G1 X99.364 Y88.901 E12.25045
G1 X99.832 Y87.967 E12.25464
G1 X99.325 Y87.713 E12.25692
G1 X98.857 Y88.647 E12.26111
G1 X98.425 Y88.243 E12.26348
G1 X100.052 Y84.997 E12.27806
G1 X100.635 Y85.099 E12.28043
G1 X100.167 Y86.032 E12.28462
G1 X100.675 Y86.286 E12.28690
G1 X101.143 Y85.353 E12.29109
G1 X101.574 Y85.759 E12.29347
G1 X100.981 Y86.942 E12.29878
G1 X101.902 Y86.370 E12.30313
G1 X100.633 Y88.903 E12.31450
G1 X98.096 Y87.632 F7800.000
G1 X99.366 Y85.099 E12.32587 F600.000
G1 X98.343 Y85.873 F7800.000
G1 X98.098 Y86.362 E12.32807 F600.000
G1 X95.491 Y87.150 F7800.000
G1 X97.421 Y83.299 E12.34417 F600.000
G1 Z0.750 F7800.000
G1 F1800.000 E2.34417
G92 E0
G92 E0
T0
G92 E0

T0
G92 E0
G1 X97.250 Y113.000 F7800.000
G1 E10.00000 F1800.000
G1 X97.265 Y112.722 E10.00788 F600.000
G1 X97.307 Y112.447 E10.01576
G1 X97.378 Y112.177 E10.02364
G1 X97.475 Y111.916 E10.03152
G1 X97.597 Y111.666 E10.03939
G1 X97.745 Y111.430 E10.04727
G1 X98.040 Y111.074 E10.06036
G1 X98.263 Y110.870 E10.06893
G1 X98.508 Y110.691 E10.07749
G1 X98.771 Y110.541 E10.08606
G1 X99.023 Y110.430 E10.09386
G1 X99.311 Y110.338 E10.10240
G1 X99.584 Y110.283 E10.11028
G1 X99.938 Y110.252 E10.12034
G1 X100.416 Y110.284 E10.13390
G1 X100.689 Y110.340 E10.14178
G1 X100.954 Y110.423 E10.14965
G1 X101.210 Y110.533 E10.15753
G1 X101.454 Y110.668 E10.16541
G1 X101.682 Y110.826 E10.17328
G1 X101.894 Y111.008 E10.18116
G1 X102.082 Y111.205 E10.18888
G1 X102.257 Y111.429 E10.19692
G1 X102.404 Y111.666 E10.20480
G1 X102.526 Y111.916 E10.21268
G1 X102.622 Y112.177 E10.22056
G1 X102.692 Y112.447 E10.22844
G1 X102.734 Y112.722 E10.23631
G1 X102.750 Y113.000 E10.24419
G1 X102.734 Y113.278 E10.25207
G1 X102.692 Y113.553 E10.25995
G1 X102.622 Y113.823 E10.26782
G1 X102.526 Y114.084 E10.27570
G1 X102.404 Y114.334 E10.28358
G1 X102.257 Y114.571 E10.29146
G1 X102.086 Y114.791 E10.29934
G1 X101.894 Y114.992 E10.30722
G1 X101.682 Y115.173 E10.31510
G1 X101.454 Y115.332 E10.32298
G1 X101.210 Y115.467 E10.33086
G1 X100.954 Y115.577 E10.33873
G1 X100.689 Y115.660 E10.34661
G1 X100.416 Y115.716 E10.35448
G1 X99.938 Y115.748 E10.36804
G1 X99.584 Y115.717 E10.37810
G1 X99.311 Y115.662 E10.38598
G1 X99.023 Y115.570 E10.39453
G1 X98.771 Y115.459 E10.40232
G1 X98.508 Y115.309 E10.41089
G1 X98.263 Y115.130 E10.41946
G1 X98.040 Y114.926 E10.42803
G1 X97.745 Y114.570 E10.44112
G1 X97.597 Y114.334 E10.44899
G1 X97.475 Y114.084 E10.45687
G1 X97.378 Y113.823 E10.46475
G1 X97.307 Y113.553 E10.47262
G1 X97.265 Y113.278 E10.48050
G1 X97.250 Y113.000 E10.48838
G1 Z0.800 F7800.000
G1 F1800.000 E0.48838
G92 E0
G92 E0
T1
G92 E0

T1
G92 E0
G1 X98.096 Y87.632 F7800.000
G1 E10.00000 F1800.000
G1 X99.366 Y85.099 E10.09098 F600.000
G1 X98.343 Y85.873 F7800.000
G1 X98.098 Y86.362 E10.10854 F600.000
G1 X95.491 Y87.150 F7800.000
G1 X97.421 Y83.299 E10.23734 F600.000
G1 X101.895 Y87.650 F7800.000
G1 X101.646 Y88.147 E10.25518 F600.000
G1 X100.541 Y87.819 E10.29219
G1 X99.946 Y89.006 E10.33484
G1 X99.364 Y88.901 E10.35383
G1 X99.832 Y87.967 E10.38735
G1 X99.325 Y87.713 E10.40557
G1 X98.857 Y88.647 E10.43912
G1 X98.425 Y88.243 E10.45812
G1 X100.052 Y84.997 E10.57469
G1 X100.635 Y85.099 E10.59372
G1 X100.167 Y86.032 E10.62724
G1 X100.675 Y86.286 E10.64546
G1 X101.143 Y85.353 E10.67897
G1 X101.574 Y85.759 E10.69799
G1 X100.981 Y86.942 E10.74045
G1 X101.902 Y86.370 E10.77526
G1 X100.633 Y88.903 E10.86623
G1 X102.579 Y90.701 F7800.000
G1 X104.509 Y86.850 E10.99504 F600.000
G1 X103.348 Y87.987 F7800.000
G1 X104.381 Y85.926 E11.06401 F600.000
G1 X104.147 Y85.213 E11.08645
G1 X103.464 Y86.576 E11.13206
G1 X103.270 Y85.784 E11.15644
G1 X103.844 Y84.639 E11.19474
G1 X103.498 Y84.150 E11.21267
G1 X102.979 Y85.185 E11.24729
G1 X102.629 Y84.703 E11.26510
G1 X103.116 Y83.731 E11.29760
G1 X102.700 Y83.383 E11.31384
G1 X102.231 Y84.318 E11.34510
G1 X101.796 Y84.007 E11.36110
G1 X102.251 Y83.099 E11.39149
G1 X101.778 Y82.862 E11.40729
G1 X101.323 Y83.771 E11.43772
G1 X100.814 Y83.606 E11.45371
G1 X101.281 Y82.674 E11.48487
G1 X100.753 Y82.550 E11.50112
G1 X100.266 Y83.521 E11.53360
G1 X99.672 Y83.527 E11.55137
G1 X100.192 Y82.489 E11.58609
G1 X99.591 Y82.508 E11.60405
G1 X99.018 Y83.652 E11.64234
G1 X98.266 Y83.973 E11.66679
G1 X98.948 Y82.611 E11.71234
G1 X98.238 Y82.847 E11.73471
G1 X97.202 Y84.916 E11.80390
G1 X96.165 Y84.625 E11.83610
G1 X95.799 Y85.356 E11.86058
G1 X96.652 Y86.013 E11.89278
G1 X95.619 Y88.074 E11.96175
G1 X95.853 Y88.787 E11.98419
G1 X96.536 Y87.424 E12.02980
G1 X96.730 Y88.216 E12.05418
G1 X96.156 Y89.361 E12.09248
G1 X96.502 Y89.850 E12.11041
G1 X97.021 Y88.815 E12.14503
G1 X97.371 Y89.297 E12.16284
G1 X96.884 Y90.269 E12.19534
G1 X97.300 Y90.617 E12.21158
G1 X97.769 Y89.682 E12.24284
G1 X98.204 Y89.993 E12.25884
G1 X97.749 Y90.901 E12.28922
G1 X98.222 Y91.138 E12.30503
G1 X98.677 Y90.229 E12.33546
G1 X99.186 Y90.394 E12.35145
G1 X98.719 Y91.326 E12.38261
G1 X99.247 Y91.450 E12.39885
G1 X99.734 Y90.479 E12.43134
G1 X100.328 Y90.473 E12.44911
G1 X99.808 Y91.511 E12.48383
G1 X100.409 Y91.492 E12.50179
G1 X100.982 Y90.348 E12.54008
G1 X101.734 Y90.027 E12.56453
G1 X101.052 Y91.389 E12.61008
G1 X101.762 Y91.153 E12.63245
G1 X102.798 Y89.084 E12.70164
G1 X103.835 Y89.375 E12.73384
G1 X104.201 Y88.644 E12.75832
G1 Z1.150 F7800.000
G1 F1800.000 E2.75832
G92 E0
G92 E0
T0
G92 E0

T0
G92 E0
G1 X97.251 Y112.986 F7800.000
G1 E10.00000 F1800.000
G1 X97.266 Y112.711 E10.00779 F600.000
G1 X97.307 Y112.447 E10.01537
G1 X97.378 Y112.177 E10.02325
G1 X97.475 Y111.916 E10.03113
G1 X97.597 Y111.666 E10.03900
G1 X97.745 Y111.430 E10.04688
G1 X98.040 Y111.074 E10.05997
G1 X98.263 Y110.870 E10.06854
G1 X98.508 Y110.691 E10.07710
G1 X98.771 Y110.541 E10.08567
G1 X99.023 Y110.430 E10.09347
G1 X99.311 Y110.338 E10.10201
G1 X99.584 Y110.283 E10.10989
G1 X99.938 Y110.252 E10.11995
G1 X100.416 Y110.284 E10.13351
G1 X100.689 Y110.340 E10.14139
G1 X100.954 Y110.423 E10.14926
G1 X101.210 Y110.533 E10.15714
G1 X101.454 Y110.668 E10.16502
G1 X101.682 Y110.826 E10.17289
G1 X101.894 Y111.008 E10.18077
G1 X102.082 Y111.205 E10.18849
G1 X102.257 Y111.429 E10.19653
G1 X102.404 Y111.666 E10.20441
G1 X102.526 Y111.916 E10.21229
G1 X102.622 Y112.177 E10.22017
G1 X102.692 Y112.447 E10.22805
G1 X102.734 Y112.722 E10.23592
G1 X102.750 Y113.000 E10.24380
G1 X102.734 Y113.278 E10.25168
G1 X102.692 Y113.553 E10.25956
G1 X102.622 Y113.823 E10.26744
G1 X102.526 Y114.084 E10.27531
G1 X102.404 Y114.334 E10.28319
G1 X102.257 Y114.571 E10.29107
G1 X102.082 Y114.795 E10.29912
G1 X101.894 Y114.992 E10.30683
G1 X101.682 Y115.174 E10.31471
G1 X101.454 Y115.332 E10.32259
G1 X101.210 Y115.467 E10.33047
G1 X100.954 Y115.577 E10.33834
G1 X100.689 Y115.660 E10.34622
G1 X100.416 Y115.716 E10.35409
G1 X99.938 Y115.748 E10.36765
G1 X99.584 Y115.717 E10.37771
G1 X99.311 Y115.662 E10.38559
G1 X99.023 Y115.570 E10.39414
G1 X98.771 Y115.459 E10.40193
G1 X98.508 Y115.309 E10.41050
G1 X98.263 Y115.130 E10.41907
G1 X98.040 Y114.926 E10.42764
G1 X97.745 Y114.570 E10.44073
G1 X97.597 Y114.334 E10.44860
G1 X97.475 Y114.084 E10.45648
G1 X97.378 Y113.823 E10.46436
G1 X97.307 Y113.553 E10.47223
G1 X97.265 Y113.278 E10.48011
G1 X97.251 Y112.986 E10.48838
G1 Z1.550 F7800.000
G1 X97.251 Y112.986 F7800.000
G1 X97.266 Y112.711 E10.49618 F600.000
G1 X97.307 Y112.447 E10.50375
G1 X97.378 Y112.177 E10.51163
G1 X97.475 Y111.916 E10.51951
G1 X97.597 Y111.666 E10.52739
G1 X97.745 Y111.430 E10.53526
G1 X98.040 Y111.074 E10.54835
G1 X98.263 Y110.870 E10.55692
G1 X98.508 Y110.691 E10.56549
G1 X98.771 Y110.541 E10.57406
G1 X99.023 Y110.430 E10.58185
G1 X99.311 Y110.338 E10.59040
G1 X99.584 Y110.283 E10.59828
G1 X99.938 Y110.252 E10.60834
G1 X100.416 Y110.284 E10.62189
G1 X100.689 Y110.340 E10.62977
G1 X100.954 Y110.423 E10.63765
G1 X101.210 Y110.533 E10.64552
G1 X101.454 Y110.668 E10.65340
G1 X101.682 Y110.826 E10.66128
G1 X101.894 Y111.008 E10.66915
G1 X102.082 Y111.205 E10.67687
G1 X102.257 Y111.429 E10.68492
G1 X102.404 Y111.666 E10.69280
G1 X102.526 Y111.916 E10.70068
G1 X102.622 Y112.177 E10.70855
G1 X102.692 Y112.447 E10.71643
G1 X102.734 Y112.722 E10.72431
G1 X102.750 Y113.000 E10.73219
G1 X102.734 Y113.278 E10.74007
G1 X102.692 Y113.553 E10.74794
G1 X102.622 Y113.823 E10.75582
G1 X102.526 Y114.084 E10.76370
G1 X102.404 Y114.334 E10.77158
G1 X102.257 Y114.571 E10.77946
G1 X102.082 Y114.795 E10.78750
G1 X101.894 Y114.992 E10.79522
G1 X101.682 Y115.174 E10.80310
G1 X101.454 Y115.332 E10.81097
G1 X101.210 Y115.467 E10.81885
G1 X100.954 Y115.577 E10.82673
G1 X100.689 Y115.660 E10.83460
G1 X100.416 Y115.716 E10.84248
G1 X99.938 Y115.748 E10.85604
G1 X99.584 Y115.717 E10.86610
G1 X99.311 Y115.662 E10.87398
G1 X99.023 Y115.570 E10.88252
G1 X98.771 Y115.459 E10.89031
G1 X98.508 Y115.309 E10.89888
