; generated by Slic3r 1.1.7 on 2019-03-09 at 14:40:20

; perimeters extrusion width = 0.50mm
; infill extrusion width = 0.52mm
; solid infill extrusion width = 0.52mm
; top infill extrusion width = 0.52mm
; support material extrusion width = 0.50mm

G21 ; set units to millimeters
M107
M104 S200 T1 ; set temperature
G28 ; home all axes
G1 Z5 F5000 ; lift nozzle

M109 S200 T1 ; wait for temperature to be reached
G90 ; use absolute coordinates
G92 E0
M82 ; use absolute distances for extrusion
T0
G92 E0
G1 Z0.350 F7800.000
G1 F1800.000 E-10.00000
G92 E0
G92 E0
T1
G92 E0

T1
G92 E0
G1 F1800.000 E-10.00000
G92 E0
G92 E0
T0
G92 E0

T0
G92 E0
G1 X89.751 Y112.987 F7800.000
G1 E10.00000 F1800.000
G1 X89.803 Y111.959 E10.03350 F378.000
G1 X89.961 Y110.937 E10.06714
G1 X90.221 Y109.932 E10.10092
G1 X90.582 Y108.958 E10.13470
G1 X91.040 Y108.027 E10.16847
G1 X91.589 Y107.146 E10.20225
G1 X92.225 Y106.325 E10.23602
G1 X92.940 Y105.573 E10.26979
G1 X93.728 Y104.897 E10.30356
G1 X94.580 Y104.305 E10.33733
G1 X95.488 Y103.801 E10.37110
G1 X96.442 Y103.392 E10.40487
G1 X97.432 Y103.082 E10.43864
G1 X98.449 Y102.873 E10.47240
G1 X99.481 Y102.768 E10.50617
G1 X99.749 Y102.758 E10.51489
G1 X100.778 Y102.785 E10.54838
G1 X101.551 Y102.874 E10.57371
G1 X102.568 Y103.083 E10.60747
G1 X103.558 Y103.393 E10.64123
G1 X104.511 Y103.803 E10.67499
G1 X105.419 Y104.307 E10.70876
G1 X106.270 Y104.899 E10.74252
G1 X107.058 Y105.575 E10.77628
G1 X107.772 Y106.328 E10.81004
G1 X108.040 Y106.653 E10.82373
G1 X108.407 Y107.148 E10.84381
G1 X108.650 Y107.513 E10.85806
G1 X108.956 Y108.029 E10.87758
G1 X109.168 Y108.432 E10.89238
G1 X109.413 Y108.960 E10.91135
G1 X109.589 Y109.398 E10.92670
G1 X109.774 Y109.934 E10.94512
G1 X109.909 Y110.403 E10.96103
G1 X110.034 Y110.938 E10.97889
G1 X110.123 Y111.436 E10.99535
G1 X110.191 Y111.964 E11.01266
G1 X110.250 Y113.000 E11.04643
G1 X110.191 Y114.036 E11.08020
G1 X110.123 Y114.564 E11.09751
G1 X110.034 Y115.062 E11.11397
G1 X109.909 Y115.597 E11.13183
G1 X109.774 Y116.066 E11.14774
G1 X109.589 Y116.602 E11.16615
G1 X109.413 Y117.040 E11.18151
G1 X109.168 Y117.568 E11.20048
G1 X108.956 Y117.971 E11.21528
G1 X108.650 Y118.487 E11.23480
G1 X108.407 Y118.852 E11.24905
G1 X108.040 Y119.347 E11.26913
G1 X107.772 Y119.672 E11.28282
G1 X107.058 Y120.425 E11.31658
G1 X106.270 Y121.101 E11.35034
G1 X105.419 Y121.693 E11.38410
G1 X104.511 Y122.197 E11.41787
G1 X103.558 Y122.607 E11.45163
G1 X102.568 Y122.917 E11.48539
G1 X101.551 Y123.126 E11.51915
G1 X100.778 Y123.215 E11.54448
G1 X99.749 Y123.242 E11.57797
G1 X99.481 Y123.232 E11.58669
G1 X98.449 Y123.127 E11.62046
G1 X97.432 Y122.918 E11.65422
G1 X96.442 Y122.608 E11.68799
G1 X95.488 Y122.199 E11.72176
G1 X94.580 Y121.695 E11.75553
G1 X93.728 Y121.103 E11.78930
G1 X92.940 Y120.427 E11.82307
G1 X92.225 Y119.675 E11.85684
G1 X91.589 Y118.854 E11.89061
G1 X91.040 Y117.973 E11.92439
G1 X90.582 Y117.042 E11.95816
G1 X90.221 Y116.068 E11.99194
G1 X89.961 Y115.063 E12.02572
G1 X89.803 Y114.037 E12.05950
G1 X89.751 Y112.987 E12.09369
G1 F1800.000 E2.09369
G92 E0
G92 E0
T1
G92 E0

T1
G92 E0
G1 X91.454 Y83.464 F7800.000
G1 E10.00000 F1800.000
G1 X92.050 Y82.275 E10.03474 F1080.000
G1 X93.542 Y83.169 F7800.000
G1 X93.050 Y84.151 E10.06384 F1080.000
G1 X95.049 Y81.357 F7800.000
G1 X92.513 Y86.416 E10.21376 F1080.000
G1 X92.514 Y87.608 E10.24532
G1 X96.012 Y80.630 E10.45209
G1 X96.830 Y80.192 E10.47667
G1 X92.645 Y88.542 E10.72409
G1 X92.854 Y89.319 E10.74541
G1 X97.578 Y79.892 E11.02473
G1 X98.278 Y79.690 E11.04402
G1 X93.110 Y90.000 E11.34952
G1 X93.406 Y90.604 E11.36732
G1 X98.940 Y79.562 E11.69450
G1 X99.571 Y79.498 E11.71129
G1 X93.735 Y91.141 E12.05628
G1 X96.530 Y86.759 F7800.000
G1 X94.090 Y91.628 E12.20057 F1080.000
G1 X94.465 Y92.073 E12.21599
G1 X96.610 Y87.793 E12.34280
G1 X96.856 Y88.497 E12.36254
G1 X94.859 Y92.481 E12.48057
G1 X95.278 Y92.840 E12.49518
G1 X97.182 Y89.040 E12.60778
G1 X97.560 Y89.481 E12.62315
G1 X95.714 Y93.163 E12.73226
G1 X96.165 Y93.457 E12.74653
G1 X97.982 Y89.833 E12.85392
G1 X98.440 Y90.113 E12.86815
G1 X96.641 Y93.702 E12.97447
G1 X97.123 Y93.934 E12.98865
G1 X98.938 Y90.312 E13.09598
G1 X99.472 Y90.441 E13.11053
G1 X97.627 Y94.123 E13.21965
G1 X98.145 Y94.283 E13.23402
G1 X100.052 Y90.478 E13.34676
G1 X100.682 Y90.415 E13.36353
G1 X98.688 Y94.394 E13.48144
G1 X99.249 Y94.469 E13.49642
G1 X101.392 Y90.192 E13.62315
G1 X102.269 Y89.637 E13.65065
G1 X99.828 Y94.507 E13.79495
G1 X104.951 Y92.643 F7800.000
G1 X107.487 Y87.584 E13.94487 F1080.000
G1 X107.486 Y86.392 E13.97644
G1 X103.988 Y93.370 E14.18320
G1 X103.170 Y93.808 E14.20778
G1 X107.355 Y85.458 E14.45520
G1 X107.146 Y84.681 E14.47652
G1 X102.422 Y94.108 E14.75584
G1 X101.722 Y94.310 E14.77513
G1 X106.890 Y84.000 E15.08063
G1 X106.594 Y83.396 E15.09844
G1 X101.060 Y94.438 E15.42561
G1 X100.429 Y94.502 E15.44240
G1 X106.265 Y82.859 E15.78740
G1 X105.910 Y82.372 E15.80336
G1 X103.473 Y87.234 E15.94744
G1 X103.387 Y86.211 E15.97464
G1 X105.535 Y81.927 E16.10159
G1 X105.141 Y81.519 E16.11661
G1 X103.142 Y85.508 E16.23479
G1 X102.818 Y84.959 E16.25167
G1 X104.722 Y81.160 E16.36423
G1 X104.286 Y80.837 E16.37862
G1 X102.440 Y84.520 E16.48776
G1 X102.019 Y84.165 E16.50234
G1 X103.835 Y80.543 E16.60967
G1 X103.359 Y80.298 E16.62384
G1 X101.558 Y83.891 E16.73029
G1 X101.063 Y83.685 E16.74450
G1 X102.877 Y80.066 E16.85172
G1 X102.373 Y79.877 E16.86598
G1 X100.526 Y83.562 E16.97516
G1 X99.949 Y83.519 E16.99050
G1 X101.855 Y79.717 E17.10315
G1 X101.312 Y79.606 E17.11783
G1 X99.315 Y83.590 E17.23588
G1 X98.604 Y83.814 E17.25563
G1 X100.751 Y79.531 E17.38256
G1 X100.172 Y79.493 E17.39794
G1 X97.732 Y84.360 E17.54216
G1 X89.608 Y80.985 F7800.000
G1 X88.927 Y82.343 E17.58135 F1080.000
G1 X106.458 Y90.831 F7800.000
G1 X106.950 Y89.849 E17.61046 F1080.000
G1 X108.432 Y90.790 F7800.000
G1 X108.084 Y91.485 E17.63076 F1080.000
G1 X106.328 Y92.633 F7800.000
G1 X105.384 Y94.518 E17.68582 F1080.000
G1 X105.214 Y93.680 E17.70815
G1 X104.517 Y95.071 E17.74878
G1 X104.318 Y94.289 E17.76985
G1 X103.731 Y95.460 E17.80406
G1 X103.519 Y94.707 E17.82450
G1 X102.999 Y95.744 E17.85480
G1 X102.304 Y95.955 E17.87377
G1 X102.781 Y95.003 E17.90158
G1 X102.085 Y95.213 E17.92055
G1 X101.636 Y96.110 E17.94675
G1 X101.005 Y96.191 E17.96337
G1 X101.422 Y95.359 E17.98769
G1 X100.791 Y95.440 E18.00431
G1 X100.392 Y96.237 E18.02759
G1 X99.794 Y96.253 E18.04321
G1 X100.186 Y95.470 E18.06607
G1 X99.598 Y95.466 E18.08143
G1 X99.225 Y96.212 E18.10321
G1 X98.664 Y96.153 E18.11793
G1 X99.030 Y95.422 E18.13928
G1 X98.484 Y95.335 E18.15373
G1 X98.123 Y96.055 E18.17474
G1 X97.597 Y95.928 E18.18888
G1 X97.948 Y95.227 E18.20939
G1 X97.434 Y95.077 E18.22339
G1 X97.082 Y95.779 E18.24390
G1 X96.586 Y95.591 E18.25775
G1 X96.933 Y94.899 E18.27798
G1 X96.443 Y94.699 E18.29180
G1 X96.104 Y95.375 E18.31155
G1 X95.632 Y95.139 E18.32532
G1 X95.975 Y94.455 E18.34530
G1 X95.516 Y94.194 E18.35909
G1 X95.167 Y94.890 E18.37943
G1 X94.726 Y94.593 E18.39332
G1 X95.075 Y93.897 E18.41365
G1 X94.649 Y93.569 E18.42768
G1 X94.294 Y94.278 E18.44840
G1 X93.878 Y93.931 E18.46255
G1 X94.233 Y93.222 E18.48328
G1 X93.844 Y92.822 E18.49786
G1 X93.477 Y93.552 E18.51921
G1 X93.088 Y93.153 E18.53379
G1 X93.467 Y92.397 E18.55587
G1 X93.105 Y91.940 E18.57108
G1 X92.724 Y92.702 E18.59333
G1 X92.370 Y92.230 E18.60874
G1 X92.774 Y91.425 E18.63225
G1 X92.462 Y90.869 E18.64889
G1 X92.040 Y91.711 E18.67348
G1 X91.735 Y91.142 E18.69034
G1 X92.176 Y90.263 E18.71601
G1 X91.923 Y89.591 E18.73476
G1 X91.452 Y90.531 E18.76222
G1 X91.198 Y89.859 E18.78097
G1 X91.719 Y88.821 E18.81129
G1 X90.992 Y89.094 E18.83156
G1 X91.572 Y87.937 E18.86536
G1 X90.836 Y88.229 E18.88603
G1 X91.524 Y86.855 E18.92616
G1 X90.754 Y87.213 E18.94834
G1 X91.680 Y85.366 E19.00230
G1 X90.812 Y85.921 E19.02920
G1 X93.638 Y80.283 E19.19390
G1 X93.711 Y81.314 E19.22091
G1 X94.637 Y79.466 E19.27490
G1 X94.812 Y80.295 E19.29702
G1 X95.499 Y78.923 E19.33709
G1 X95.706 Y79.688 E19.35778
G1 X96.286 Y78.531 E19.39158
G1 X96.502 Y79.276 E19.41186
G1 X97.023 Y78.239 E19.44218
G1 X97.713 Y78.038 E19.46097
G1 X97.241 Y78.979 E19.48848
G1 X97.932 Y78.778 E19.50727
G1 X98.372 Y77.900 E19.53292
G1 X99.010 Y77.805 E19.54977
G1 X98.589 Y78.645 E19.57433
G1 X99.220 Y78.563 E19.59096
G1 X99.624 Y77.757 E19.61450
G1 X100.214 Y77.758 E19.62990
G1 X99.831 Y78.521 E19.65218
G1 X100.414 Y78.536 E19.66740
G1 X100.792 Y77.781 E19.68944
G1 X101.346 Y77.853 E19.70404
G1 X100.980 Y78.584 E19.72540
G1 X101.533 Y78.657 E19.73998
G1 X101.889 Y77.947 E19.76070
G1 X102.416 Y78.072 E19.77486
G1 X102.061 Y78.781 E19.79559
G1 X102.578 Y78.927 E19.80962
G1 X102.927 Y78.230 E19.82996
G1 X103.429 Y78.405 E19.84385
G1 X103.080 Y79.101 E19.86419
G1 X103.564 Y79.314 E19.87798
G1 X103.907 Y78.629 E19.89798
G1 X104.378 Y78.866 E19.91175
G1 X104.039 Y79.543 E19.93154
G1 X104.493 Y79.815 E19.94536
G1 X104.840 Y79.123 E19.96558
G1 X105.286 Y79.409 E19.97943
G1 X104.935 Y80.111 E19.99993
G1 X105.363 Y80.432 E20.01393
G1 X105.715 Y79.731 E20.03443
G1 X106.131 Y80.078 E20.04858
G1 X105.771 Y80.797 E20.06958
G1 X106.167 Y81.183 E20.08403
G1 X106.534 Y80.451 E20.10542
G1 X106.916 Y80.866 E20.12015
G1 X106.543 Y81.611 E20.14191
G1 X106.897 Y82.080 E20.15728
G1 X107.289 Y81.299 E20.18011
G1 X107.635 Y81.785 E20.19571
G1 X107.235 Y82.583 E20.21902
G1 X107.548 Y83.136 E20.23561
G1 X107.965 Y82.305 E20.25990
G1 X108.278 Y82.858 E20.27650
G1 X107.828 Y83.755 E20.30272
G1 X108.076 Y84.438 E20.32169
G1 X108.553 Y83.486 E20.34952
G1 X108.800 Y84.170 E20.36850
G1 X108.280 Y85.207 E20.39880
G1 X109.011 Y84.927 E20.41923
G1 X108.424 Y86.098 E20.45344
G1 X109.168 Y85.789 E20.47448
G1 X108.481 Y87.162 E20.51456
G1 X109.252 Y86.800 E20.53682
G1 X108.300 Y88.699 E20.59232
G1 X109.177 Y88.127 E20.61968
G1 X106.395 Y93.677 E20.78184
G1 X108.643 Y94.178 F7800.000
G1 X107.572 Y96.317 E20.84356 F1080.000
G1 X107.444 Y95.409 E20.86722
G1 X106.649 Y96.994 E20.91296
G1 X106.478 Y96.172 E20.93462
G1 X105.813 Y97.499 E20.97293
G1 X105.619 Y96.724 E20.99355
G1 X105.029 Y97.902 E21.02754
G1 X104.811 Y97.172 E21.04718
G1 X104.286 Y98.220 E21.07743
G1 X103.587 Y98.453 E21.09645
G1 X104.080 Y97.468 E21.12486
G1 X103.376 Y97.709 E21.14405
G1 X102.902 Y98.656 E21.17136
G1 X102.252 Y98.789 E21.18848
G1 X102.693 Y97.910 E21.21384
G1 X102.043 Y98.044 E21.23096
G1 X101.614 Y98.899 E21.25564
G1 X101.000 Y98.961 E21.27157
G1 X101.410 Y98.143 E21.29518
G1 X100.796 Y98.206 E21.31111
G1 X100.397 Y99.001 E21.33406
G1 X99.814 Y99.001 E21.34910
G1 X100.201 Y98.229 E21.37139
G1 X99.618 Y98.229 E21.38643
G1 X99.239 Y98.986 E21.40827
G1 X98.684 Y98.929 E21.42266
G1 X99.055 Y98.191 E21.44397
G1 X98.500 Y98.134 E21.45836
G1 X98.132 Y98.868 E21.47954
G1 X97.604 Y98.759 E21.49346
G1 X97.962 Y98.045 E21.51409
G1 X97.433 Y97.936 E21.52801
G1 X97.075 Y98.651 E21.54864
G1 X96.567 Y98.501 E21.56230
G1 X96.918 Y97.802 E21.58249
G1 X96.414 Y97.644 E21.59611
G1 X96.064 Y98.343 E21.61629
G1 X95.573 Y98.160 E21.62982
G1 X95.919 Y97.468 E21.64978
G1 X95.440 Y97.262 E21.66325
G1 X95.093 Y97.954 E21.68321
G1 X94.625 Y97.724 E21.69665
G1 X94.964 Y97.048 E21.71619
G1 X94.508 Y96.794 E21.72965
G1 X94.162 Y97.485 E21.74959
G1 X93.706 Y97.232 E21.76305
G1 X94.052 Y96.541 E21.78300
G1 X93.620 Y96.240 E21.79658
G1 X93.270 Y96.938 E21.81671
G1 X92.838 Y96.637 E21.83030
G1 X93.188 Y95.940 E21.85043
G1 X92.776 Y95.598 E21.86424
G1 X92.420 Y96.309 E21.88478
G1 X92.012 Y95.959 E21.89864
G1 X92.369 Y95.248 E21.91917
G1 X91.980 Y94.861 E21.93333
G1 X91.612 Y95.595 E21.95451
G1 X91.230 Y95.193 E21.96881
G1 X91.598 Y94.459 E21.98999
G1 X91.235 Y94.021 E22.00468
G1 X90.851 Y94.787 E22.02678
G1 X90.497 Y94.330 E22.04169
G1 X90.881 Y93.564 E22.06379
G1 X90.548 Y93.064 E22.07928
G1 X90.143 Y93.873 E22.10260
G1 X89.820 Y93.355 E22.11835
G1 X90.225 Y92.546 E22.14170
G1 X89.931 Y91.970 E22.15839
G1 X89.497 Y92.837 E22.18340
G1 X89.208 Y92.250 E22.20028
G1 X89.646 Y91.375 E22.22552
G1 X89.398 Y90.707 E22.24392
G1 X88.925 Y91.651 E22.27119
G1 X88.677 Y90.983 E22.28959
G1 X89.175 Y89.990 E22.31825
G1 X88.450 Y90.272 E22.33831
G1 X88.980 Y89.216 E22.36879
G1 X88.252 Y89.505 E22.38900
G1 X88.843 Y88.326 E22.42305
G1 X88.108 Y88.629 E22.44356
G1 X88.772 Y87.304 E22.48178
G1 X88.016 Y87.649 E22.50321
G1 X88.803 Y86.079 E22.54853
G1 X88.009 Y86.501 E22.57175
G1 X89.087 Y84.350 E22.63384
G1 X88.160 Y85.037 E22.66362
G1 X91.340 Y78.691 E22.84679
G1 X91.357 Y79.822 E22.87597
G1 X92.428 Y77.683 E22.93769
G1 X92.556 Y78.591 E22.96135
G1 X93.351 Y77.006 E23.00710
G1 X93.522 Y77.828 E23.02876
G1 X94.187 Y76.501 E23.06707
G1 X94.381 Y77.276 E23.08769
G1 X94.971 Y76.098 E23.12168
G1 X95.177 Y76.850 E23.14179
G1 X95.714 Y75.780 E23.17269
G1 X96.413 Y75.547 E23.19171
G1 X95.920 Y76.532 E23.22012
G1 X96.624 Y76.291 E23.23931
G1 X97.098 Y75.344 E23.26662
G1 X97.748 Y75.211 E23.28374
G1 X97.307 Y76.090 E23.30911
G1 X97.957 Y75.956 E23.32622
G1 X98.386 Y75.101 E23.35090
G1 X99.000 Y75.039 E23.36683
G1 X98.590 Y75.857 E23.39044
G1 X99.204 Y75.794 E23.40637
G1 X99.603 Y74.999 E23.42932
G1 X100.186 Y74.999 E23.44436
G1 X99.799 Y75.771 E23.46665
G1 X100.382 Y75.771 E23.48169
G1 X100.761 Y75.014 E23.50353
G1 X101.316 Y75.071 E23.51792
G1 X100.945 Y75.809 E23.53923
G1 X101.500 Y75.866 E23.55362
G1 X101.868 Y75.132 E23.57480
G1 X102.396 Y75.241 E23.58872
G1 X102.038 Y75.955 E23.60935
G1 X102.567 Y76.064 E23.62327
G1 X102.925 Y75.349 E23.64390
G1 X103.433 Y75.499 E23.65756
G1 X103.082 Y76.198 E23.67775
G1 X103.586 Y76.356 E23.69137
G1 X103.936 Y75.657 E23.71155
G1 X104.427 Y75.840 E23.72508
G1 X104.081 Y76.532 E23.74504
G1 X104.560 Y76.738 E23.75851
G1 X104.907 Y76.046 E23.77847
G1 X105.375 Y76.276 E23.79191
G1 X105.036 Y76.952 E23.81145
G1 X105.492 Y77.206 E23.82491
G1 X105.838 Y76.515 E23.84485
G1 X106.294 Y76.768 E23.85831
G1 X105.948 Y77.459 E23.87826
G1 X106.380 Y77.760 E23.89184
G1 X106.730 Y77.062 E23.91197
G1 X107.162 Y77.363 E23.92556
G1 X106.812 Y78.060 E23.94569
G1 X107.224 Y78.402 E23.95950
G1 X107.580 Y77.691 E23.98004
G1 X107.988 Y78.041 E23.99390
G1 X107.631 Y78.752 E24.01443
G1 X108.020 Y79.139 E24.02859
G1 X108.388 Y78.405 E24.04977
G1 X108.770 Y78.807 E24.06407
G1 X108.402 Y79.541 E24.08525
G1 X108.765 Y79.979 E24.09994
G1 X109.149 Y79.213 E24.12204
G1 X109.503 Y79.670 E24.13695
G1 X109.119 Y80.436 E24.15905
G1 X109.452 Y80.936 E24.17454
G1 X109.857 Y80.127 E24.19786
G1 X110.180 Y80.645 E24.21361
G1 X109.775 Y81.454 E24.23696
G1 X110.069 Y82.030 E24.25365
G1 X110.503 Y81.163 E24.27866
G1 X110.792 Y81.750 E24.29554
G1 X110.354 Y82.625 E24.32078
G1 X110.602 Y83.293 E24.33918
G1 X111.075 Y82.349 E24.36645
G1 X111.323 Y83.017 E24.38485
G1 X110.825 Y84.010 E24.41351
G1 X111.550 Y83.728 E24.43357
G1 X111.020 Y84.784 E24.46405
G1 X111.748 Y84.495 E24.48426
G1 X111.157 Y85.674 E24.51831
G1 X111.892 Y85.371 E24.53882
G1 X111.228 Y86.696 E24.57704
G1 X111.984 Y86.351 E24.59847
G1 X111.197 Y87.921 E24.64379
G1 X111.991 Y87.499 E24.66701
G1 X110.913 Y89.650 E24.72910
G1 X111.840 Y88.963 E24.75888
G1 X108.660 Y95.309 E24.94206
G1 X110.392 Y93.015 F7800.000
G1 X111.073 Y91.657 E24.98125 F1080.000
M106 S255
G1 Z0.400 F7800.000
G1 X110.392 Y93.015 E24.98685 F1639.026
G1 X109.385 Y92.698 E24.99074
G1 X107.572 Y96.317 E25.00566
G1 X106.713 Y95.704 E25.00955
G1 X105.813 Y97.499 E25.01695
G1 X105.029 Y97.902 E25.02020
G1 X105.818 Y96.327 E25.02669
G1 X105.010 Y96.776 E25.03010
G1 X104.286 Y98.220 E25.03606
G1 X103.587 Y98.453 E25.03877
G1 X104.254 Y97.122 E25.04426
G1 X103.532 Y97.398 E25.04711
G1 X102.902 Y98.656 E25.05229
G1 X102.252 Y98.789 E25.05474
G1 X102.840 Y97.615 E25.05958
G1 X102.185 Y97.759 E25.06205
G1 X101.614 Y98.899 E25.06675
G1 X101.000 Y98.961 E25.06902
G1 X101.543 Y97.879 E25.07349
G1 X100.928 Y97.941 E25.07576
G1 X100.397 Y99.001 E25.08013
G1 X99.814 Y99.001 E25.08228
G1 X100.326 Y97.979 E25.08650
G1 X99.744 Y97.979 E25.08865
G1 X99.239 Y98.986 E25.09280
G1 X98.684 Y98.929 E25.09485
G1 X99.174 Y97.952 E25.09888
G1 X98.620 Y97.895 E25.10094
G1 X98.132 Y98.868 E25.10495
G1 X97.604 Y98.759 E25.10694
G1 X98.078 Y97.813 E25.11084
