; generated by Slic3r 1.1.7 on 2019-03-18 at 15:29:55

; perimeters extrusion width = 0.50mm
; infill extrusion width = 0.52mm
; solid infill extrusion width = 0.52mm
; top infill extrusion width = 0.52mm
; support material extrusion width = 0.50mm

G21 ; set units to millimeters
M107
M104 S200 T1 ; set temperature
G28 ; home all axes
G1 Z5 F5000 ; lift nozzle

M109 S200 T1 ; wait for temperature to be reached
G90 ; use absolute coordinates
M83 ; use relative distances for extrusion
T0
G1 Z0.350 F7800.000
G1 F1800.000 E-10.00000
G92 E0
T1
G92 E0

T1
G1 F1800.000 E-10.00000
G92 E0
T0
G92 E0

T0
G1 X92.127 Y66.127 F7800.000
G1 E10.00000 F1800.000
G1 X92.500 Y66.050 E0.24773 F600.000
G1 X107.500 Y66.050 E9.76056
G1 X107.873 Y66.127 E0.24773
G1 X107.950 Y66.500 E0.24773
G1 X107.950 Y81.500 E9.76056
G1 X107.873 Y81.873 E0.24773
G1 X107.500 Y81.950 E0.24773
G1 X92.500 Y81.950 E9.76056
G1 X92.127 Y81.873 E0.24773
G1 X92.050 Y81.500 E0.24773
G1 X92.050 Y66.500 E9.76056
G1 X92.127 Y66.127 E0.24773
G1 F1800.000 E-10.00000
G92 E0
T1
G92 E0

T1
G1 X93.334 Y93.230 F7800.000
G1 E10.00000 F1800.000
G1 X93.230 Y93.437 E0.00574 F739.621
G1 X90.073 Y90.809 F7800.000
G1 X90.442 Y90.073 E0.02038 F739.621
G1 X104.844 Y105.973 F7800.000
G1 X104.445 Y106.770 E0.02207 F739.621
G1 X103.726 Y105.973 E0.02658
G1 X103.326 Y106.770 E0.02207
G1 X102.607 Y105.973 E0.02658
G1 X102.208 Y106.770 E0.02207
G1 X101.488 Y105.973 E0.02658
G1 X101.089 Y106.770 E0.02207
G1 X100.370 Y105.973 E0.02658
G1 X99.970 Y106.770 E0.02207
G1 X99.251 Y105.973 E0.02658
G1 X98.852 Y106.770 E0.02207
G1 X98.133 Y105.973 E0.02658
G1 X97.733 Y106.770 E0.02207
G1 X97.014 Y105.973 E0.02658
G1 X96.615 Y106.770 E0.02207
G1 X95.896 Y105.973 E0.02658
G1 X95.496 Y106.770 E0.02207
G1 X94.777 Y105.973 E0.02658
G1 X94.378 Y106.770 E0.02207
G1 X93.259 Y106.770 E0.02769
G1 X94.027 Y105.238 E0.04243
G1 X93.230 Y104.596 E0.02533
G1 X94.027 Y103.006 E0.04404
G1 X93.230 Y102.364 E0.02533
G1 X94.027 Y100.774 E0.04404
G1 X93.230 Y100.133 E0.02533
G1 X94.027 Y98.542 E0.04404
G1 X93.230 Y97.901 E0.02533
G1 X94.027 Y96.311 E0.04404
G1 X93.230 Y95.669 E0.02533
G1 X94.452 Y93.230 E0.06754
G1 X95.172 Y94.027 E0.02658
G1 X95.571 Y93.230 E0.02207
G1 X96.290 Y94.027 E0.02658
G1 X96.690 Y93.230 E0.02207
G1 X97.409 Y94.027 E0.02658
G1 X97.808 Y93.230 E0.02207
G1 X98.527 Y94.027 E0.02658
G1 X98.927 Y93.230 E0.02207
G1 X99.646 Y94.027 E0.02658
G1 X100.045 Y93.230 E0.02207
G1 X100.764 Y94.027 E0.02658
G1 X101.164 Y93.230 E0.02207
G1 X101.883 Y94.027 E0.02658
G1 X102.282 Y93.230 E0.02207
G1 X103.002 Y94.027 E0.02658
G1 X103.401 Y93.230 E0.02207
G1 X104.120 Y94.027 E0.02658
G1 X104.520 Y93.230 E0.02207
G1 X105.239 Y94.027 E0.02658
G1 X105.638 Y93.230 E0.02207
G1 X106.747 Y93.249 E0.02747
G1 X105.973 Y94.794 E0.04278
G1 X106.770 Y95.435 E0.02533
G1 X105.973 Y97.025 E0.04404
G1 X106.770 Y97.667 E0.02533
G1 X105.973 Y99.257 E0.04404
G1 X106.770 Y99.899 E0.02533
G1 X105.973 Y101.489 E0.04404
G1 X106.770 Y102.131 E0.02533
G1 X105.973 Y103.721 E0.04404
G1 X106.770 Y104.362 E0.02533
G1 X105.563 Y106.770 E0.06667
G1 X105.963 Y105.973 E0.02207
G1 X106.682 Y106.770 E0.02658
G1 X106.770 Y106.594 E0.00487
G1 X109.130 Y108.581 F7800.000
G1 X109.927 Y106.991 E0.04404 F739.621
G1 X109.130 Y106.349 E0.02533
G1 X109.927 Y104.759 E0.04404
G1 X109.130 Y104.117 E0.02533
G1 X109.927 Y102.527 E0.04404
G1 X109.130 Y101.885 E0.02533
G1 X109.927 Y100.295 E0.04404
G1 X109.130 Y99.654 E0.02533
G1 X109.927 Y98.064 E0.04404
G1 X109.130 Y97.422 E0.02533
G1 X109.927 Y95.832 E0.04404
G1 X109.130 Y95.190 E0.02533
G1 X109.927 Y93.600 E0.04404
G1 X109.130 Y92.958 E0.02533
G1 X109.927 Y91.368 E0.04404
G1 X109.458 Y90.073 E0.03411
G1 X109.058 Y90.870 E0.02207
G1 X108.339 Y90.073 E0.02658
G1 X107.940 Y90.870 E0.02207
G1 X107.220 Y90.073 E0.02658
G1 X106.821 Y90.870 E0.02207
G1 X106.102 Y90.073 E0.02658
G1 X105.702 Y90.870 E0.02207
G1 X104.983 Y90.073 E0.02658
G1 X104.584 Y90.870 E0.02207
G1 X103.865 Y90.073 E0.02658
G1 X103.465 Y90.870 E0.02207
G1 X102.746 Y90.073 E0.02658
G1 X102.347 Y90.870 E0.02207
G1 X101.628 Y90.073 E0.02658
G1 X101.228 Y90.870 E0.02207
G1 X100.509 Y90.073 E0.02658
G1 X100.110 Y90.870 E0.02207
G1 X99.390 Y90.073 E0.02658
G1 X98.991 Y90.870 E0.02207
G1 X98.272 Y90.073 E0.02658
G1 X97.872 Y90.870 E0.02207
G1 X97.153 Y90.073 E0.02658
G1 X96.754 Y90.870 E0.02207
G1 X96.035 Y90.073 E0.02658
G1 X95.635 Y90.870 E0.02207
G1 X94.916 Y90.073 E0.02658
G1 X94.517 Y90.870 E0.02207
G1 X93.798 Y90.073 E0.02658
G1 X93.398 Y90.870 E0.02207
G1 X92.679 Y90.073 E0.02658
G1 X92.280 Y90.870 E0.02207
G1 X91.560 Y90.073 E0.02658
G1 X90.073 Y93.041 E0.08218
G1 X90.870 Y93.682 E0.02533
G1 X90.073 Y95.272 E0.04404
G1 X90.870 Y95.914 E0.02533
G1 X90.073 Y97.504 E0.04404
G1 X90.870 Y98.146 E0.02533
G1 X90.073 Y99.736 E0.04404
G1 X90.870 Y100.378 E0.02533
G1 X90.073 Y101.968 E0.04404
G1 X90.870 Y102.609 E0.02533
G1 X90.073 Y104.200 E0.04404
G1 X90.870 Y104.841 E0.02533
G1 X90.073 Y106.431 E0.04404
G1 X90.870 Y107.073 E0.02533
G1 X90.073 Y108.663 E0.04404
G1 X90.558 Y109.927 E0.03352
G1 X90.958 Y109.130 E0.02207
G1 X91.677 Y109.927 E0.02658
G1 X92.076 Y109.130 E0.02207
G1 X92.795 Y109.927 E0.02658
G1 X93.195 Y109.130 E0.02207
G1 X93.914 Y109.927 E0.02658
G1 X94.313 Y109.130 E0.02207
G1 X95.032 Y109.927 E0.02658
G1 X95.432 Y109.130 E0.02207
G1 X96.151 Y109.927 E0.02658
G1 X96.550 Y109.130 E0.02207
G1 X97.270 Y109.927 E0.02658
G1 X97.669 Y109.130 E0.02207
G1 X98.388 Y109.927 E0.02658
G1 X98.788 Y109.130 E0.02207
G1 X99.507 Y109.927 E0.02658
G1 X99.906 Y109.130 E0.02207
G1 X100.625 Y109.927 E0.02658
G1 X101.025 Y109.130 E0.02207
G1 X101.744 Y109.927 E0.02658
G1 X102.143 Y109.130 E0.02207
G1 X102.862 Y109.927 E0.02658
G1 X103.262 Y109.130 E0.02207
G1 X103.981 Y109.927 E0.02658
G1 X104.380 Y109.130 E0.02207
G1 X105.100 Y109.927 E0.02658
G1 X105.499 Y109.130 E0.02207
G1 X106.218 Y109.927 E0.02658
G1 X106.618 Y109.130 E0.02207
G1 X107.337 Y109.927 E0.02658
G1 X107.736 Y109.130 E0.02207
G1 X108.455 Y109.927 E0.02658
G1 X108.855 Y109.130 E0.02207
G1 X109.574 Y109.927 E0.02658
G1 X109.927 Y109.222 E0.01951
M106 S255
G1 Z0.750 F7800.000
G1 F1800.000 E-10.00000
G92 E0
T0
G92 E0

T0
G1 X107.750 Y81.750 F7800.000
G1 E10.00000 F1800.000
G1 X92.250 Y81.750 E8.77121 F600.000
G1 X92.250 Y66.250 E8.77121
G1 X107.750 Y66.250 E8.77121
G1 X107.750 Y81.675 E8.72876
G1 X107.750 Y82.250 F7800.000
G1 X108.150 Y82.150 F7800.000
G1 X91.850 Y82.150 E9.22391 F600.000
G1 X91.850 Y65.850 E9.22391
G1 X108.150 Y65.850 E9.22391
G1 X108.150 Y82.075 E9.18147
G1 X107.717 Y81.900 F7800.000
G1 F1800.000 E-10.00000
G92 E0
T1
G92 E0

T1
G1 X106.750 Y106.750 F7800.000
G1 E10.00000 F1800.000
G1 X106.750 Y93.250 E0.38197 F1234.800
G1 X93.250 Y93.250 E0.38197
G1 X93.250 Y106.750 E0.38197
G1 X106.750 Y106.750 E0.38197
G1 X109.907 Y109.907 F7800.000
G1 X109.907 Y90.093 E0.56062 F1234.800
G1 X90.093 Y90.093 E0.56062
G1 X90.093 Y109.907 E0.56062
G1 X109.907 Y109.907 E0.56062
G1 X94.007 Y94.007 F7800.000
G1 X105.993 Y94.007 E0.33914 F1234.800
G1 X105.993 Y105.993 E0.33914
G1 X94.007 Y105.993 E0.33914
G1 X94.007 Y94.007 E0.33914
G1 X90.850 Y90.850 F7800.000
G1 X109.150 Y90.850 E0.51778 F1234.800
G1 X109.150 Y109.150 E0.51778
G1 X90.850 Y109.150 E0.51778
G1 X90.850 Y90.850 E0.51778
G1 Z1.150 F7800.000
G1 Z1.250 F7800.000
G1 X90.593 Y93.200 F7800.000
G1 X109.427 Y93.200 E0.66612 F600.000
G1 X109.427 Y96.200 E0.10610
G1 X106.473 Y96.200 E0.10448
G1 X106.473 Y99.200 E0.10610
G1 X109.427 Y99.200 E0.10448
G1 X109.427 Y102.200 E0.10610
G1 X106.473 Y102.200 E0.10448
G1 X106.473 Y105.200 E0.10610
G1 X109.427 Y105.200 E0.10448
G1 X109.427 Y108.200 E0.10610
G1 X90.593 Y108.200 E0.66612
G1 X90.593 Y105.200 E0.10610
G1 X93.527 Y105.200 E0.10377
G1 X93.527 Y102.200 E0.10610
G1 X90.593 Y102.200 E0.10377
G1 X90.593 Y99.200 E0.10610
G1 X93.527 Y99.200 E0.10377
G1 X93.527 Y96.200 E0.10610
G1 X90.593 Y96.200 E0.10377
G1 X94.007 Y94.007 F7800.000
G1 X105.993 Y94.007 E0.42392 F600.000
G1 X105.993 Y105.993 E0.42392
G1 X94.007 Y105.993 E0.42392
G1 X94.007 Y94.007 E0.42392
G1 X109.907 Y109.907 F7800.000
G1 X109.907 Y90.093 E0.70078 F600.000
G1 X90.093 Y90.093 E0.70078
G1 X90.093 Y109.907 E0.70078
G1 X109.907 Y109.907 E0.70078
G1 Z1.550 F7800.000
G1 Z1.600 F7800.000
G1 X90.093 Y109.907 E0.49054 F600.000
G1 X90.093 Y90.093 E0.49054
G1 X109.907 Y90.093 E0.49054
G1 X109.907 Y109.907 E0.49054
G1 X94.007 Y94.007 F7800.000
G1 X105.993 Y94.007 E0.29674 F600.000
G1 X105.993 Y105.993 E0.29674
G1 X94.007 Y105.993 E0.29674
G1 X94.007 Y94.007 E0.29674
G1 X90.593 Y93.200 F7800.000
G1 X109.427 Y93.200 E0.46628 F600.000
G1 X109.427 Y96.200 E0.07427
G1 X106.473 Y96.200 E0.07313
G1 X106.473 Y99.200 E0.07427
G1 X109.427 Y99.200 E0.07313
G1 X109.427 Y102.200 E0.07427
G1 X106.473 Y102.200 E0.07313
G1 X106.473 Y105.200 E0.07427
G1 X109.427 Y105.200 E0.07313
G1 X109.427 Y108.200 E0.07427
G1 X90.593 Y108.200 E0.46628
G1 X90.593 Y105.200 E0.07427
G1 X93.527 Y105.200 E0.07264
G1 X93.527 Y102.200 E0.07427
G1 X90.593 Y102.200 E0.07264
G1 X90.593 Y99.200 E0.07427
G1 X93.527 Y99.200 E0.07264
G1 X93.527 Y96.200 E0.07427
G1 X90.593 Y96.200 E0.07264
G1 Z1.950 F7800.000
G1 Z2.000 F7800.000
G1 X94.554 Y94.015 F7800.000
G1 X96.523 Y90.085 E0.12952 F1083.469
G1 X97.105 Y90.085 E0.01717
G1 X95.136 Y94.015 E0.12952
G1 X95.719 Y94.015 E0.01717
G1 X97.688 Y90.085 E0.12952
G1 X98.270 Y90.085 E0.01717
G1 X96.301 Y94.015 E0.12952
G1 X96.884 Y94.015 E0.01717
G1 X98.853 Y90.085 E0.12952
G1 X99.435 Y90.085 E0.01717
G1 X97.466 Y94.015 E0.12952
G1 X98.049 Y94.015 E0.01717
G1 X100.018 Y90.085 E0.12952
G1 X100.600 Y90.085 E0.01717
G1 X98.631 Y94.015 E0.12952
G1 X99.214 Y94.015 E0.01717
G1 X101.183 Y90.085 E0.12952
G1 X101.765 Y90.085 E0.01717
G1 X99.796 Y94.015 E0.12952
G1 X100.379 Y94.015 E0.01717
G1 X102.348 Y90.085 E0.12952
G1 X102.930 Y90.085 E0.01717
G1 X100.961 Y94.015 E0.12952
G1 X101.544 Y94.015 E0.01717
G1 X103.513 Y90.085 E0.12952
G1 X104.095 Y90.085 E0.01717
G1 X102.126 Y94.015 E0.12952
G1 X102.709 Y94.015 E0.01717
G1 X104.678 Y90.085 E0.12952
G1 X105.260 Y90.085 E0.01717
G1 X103.291 Y94.015 E0.12952
G1 X103.874 Y94.015 E0.01717
G1 X105.843 Y90.085 E0.12952
G1 X106.425 Y90.085 E0.01717
G1 X104.456 Y94.015 E0.12952
G1 X105.039 Y94.015 E0.01717
G1 X107.008 Y90.085 E0.12952
G1 X107.590 Y90.085 E0.01717
G1 X105.621 Y94.015 E0.12952
G1 X105.985 Y94.450 E0.01673
G1 X108.173 Y90.085 E0.14387
G1 X108.755 Y90.085 E0.01717
G1 X105.985 Y95.612 E0.18218
G1 X105.985 Y96.774 E0.03425
G1 X109.338 Y90.085 E0.22049
G1 X109.907 Y90.112 E0.01679
G1 X105.985 Y97.937 E0.25793
G1 X105.985 Y99.099 E0.03425
G1 X109.915 Y91.259 E0.25841
G1 X109.915 Y92.422 E0.03425
G1 X105.985 Y100.261 E0.25841
G1 X105.985 Y101.423 E0.03425
G1 X109.915 Y93.584 E0.25841
G1 X109.915 Y94.746 E0.03425
G1 X105.985 Y102.585 E0.25841
G1 X105.985 Y103.748 E0.03425
G1 X109.915 Y95.908 E0.25841
G1 X109.915 Y97.070 E0.03425
G1 X105.985 Y104.910 E0.25841
G1 X109.915 Y109.855 F7800.000
G1 X109.885 Y109.915 E0.00197 F1083.469
G1 X109.302 Y109.915 E0.01717
G1 X109.915 Y108.692 E0.04028
G1 X109.915 Y107.530 E0.03425
G1 X108.720 Y109.915 E0.07859
G1 X108.137 Y109.915 E0.01717
G1 X109.915 Y106.368 E0.11690
G1 X109.915 Y105.206 E0.03425
G1 X107.555 Y109.915 E0.15521
G1 X106.972 Y109.915 E0.01717
G1 X109.915 Y104.044 E0.19352
G1 X109.915 Y102.881 E0.03425
G1 X106.390 Y109.915 E0.23183
G1 X105.807 Y109.915 E0.01717
G1 X109.915 Y101.719 E0.27014
G1 X109.915 Y100.557 E0.03425
G1 X105.225 Y109.915 E0.30845
G1 X104.642 Y109.915 E0.01717
G1 X109.915 Y99.395 E0.34676
G1 X109.915 Y98.233 E0.03425
G1 X104.060 Y109.915 E0.38507
G1 X103.477 Y109.915 E0.01717
G1 X105.446 Y105.985 E0.12952
G1 X104.864 Y105.985 E0.01717
G1 X102.895 Y109.915 E0.12952
G1 X102.312 Y109.915 E0.01717
G1 X104.281 Y105.985 E0.12952
G1 X103.699 Y105.985 E0.01717
G1 X101.730 Y109.915 E0.12952
G1 X101.147 Y109.915 E0.01717
G1 X103.116 Y105.985 E0.12952
G1 X102.534 Y105.985 E0.01717
G1 X100.565 Y109.915 E0.12952
G1 X99.982 Y109.915 E0.01717
G1 X101.951 Y105.985 E0.12952
G1 X101.369 Y105.985 E0.01717
G1 X99.400 Y109.915 E0.12952
G1 X98.817 Y109.915 E0.01717
G1 X100.786 Y105.985 E0.12952
G1 X100.204 Y105.985 E0.01717
G1 X98.235 Y109.915 E0.12952
G1 X97.652 Y109.915 E0.01717
G1 X99.621 Y105.985 E0.12952
G1 X99.039 Y105.985 E0.01717
G1 X97.070 Y109.915 E0.12952
G1 X96.487 Y109.915 E0.01717
G1 X98.456 Y105.985 E0.12952
G1 X97.874 Y105.985 E0.01717
G1 X95.905 Y109.915 E0.12952
G1 X95.322 Y109.915 E0.01717
G1 X97.291 Y105.985 E0.12952
G1 X96.709 Y105.985 E0.01717
G1 X94.740 Y109.915 E0.12952
G1 X94.157 Y109.915 E0.01717
G1 X96.126 Y105.985 E0.12952
G1 X95.544 Y105.985 E0.01717
G1 X93.575 Y109.915 E0.12952
G1 X92.992 Y109.915 E0.01717
G1 X94.961 Y105.985 E0.12952
G1 X94.379 Y105.985 E0.01717
G1 X92.410 Y109.915 E0.12952
G1 X91.827 Y109.915 E0.01717
G1 X94.015 Y105.550 E0.14387
G1 X94.015 Y104.388 E0.03425
G1 X91.245 Y109.915 E0.18218
G1 X90.662 Y109.915 E0.01717
G1 X94.015 Y103.226 E0.22049
G1 X94.015 Y102.063 E0.03425
G1 X90.093 Y109.888 E0.25793
G1 X90.085 Y108.741 E0.03382
G1 X94.015 Y100.901 E0.25841
G1 X94.015 Y99.739 E0.03425
G1 X90.085 Y107.578 E0.25841
G1 X90.085 Y106.416 E0.03425
G1 X94.015 Y98.577 E0.25841
G1 X94.015 Y97.415 E0.03425
G1 X90.085 Y105.254 E0.25841
G1 X90.085 Y104.092 E0.03425
G1 X94.015 Y96.252 E0.25841
G1 X94.015 Y95.090 E0.03425
G1 X90.085 Y102.930 E0.25841
G1 X90.085 Y101.767 E0.03425
G1 X95.940 Y90.085 E0.38507
G1 X95.358 Y90.085 E0.01717
G1 X90.085 Y100.605 E0.34676
G1 X90.085 Y99.443 E0.03425
G1 X94.775 Y90.085 E0.30845
G1 X94.193 Y90.085 E0.01717
G1 X90.085 Y98.281 E0.27014
G1 X90.085 Y97.119 E0.03425
G1 X93.610 Y90.085 E0.23183
G1 X93.028 Y90.085 E0.01717
G1 X90.085 Y95.956 E0.19352
G1 X90.085 Y94.794 E0.03425
G1 X92.445 Y90.085 E0.15521
G1 X91.863 Y90.085 E0.01717
G1 X90.085 Y93.632 E0.11690
G1 X90.085 Y92.470 E0.03425
G1 X91.280 Y90.085 E0.07859
G1 X90.698 Y90.085 E0.01717
G1 X90.085 Y91.308 E0.04028
G1 X90.085 Y90.145 E0.03425
G1 X90.115 Y90.085 E0.00197
G1 Z2.350 F7800.000
G1 Z2.400 F7800.000
G1 X90.085 Y90.145 E0.00197 F1083.469
G1 X90.085 Y91.308 E0.03425
G1 X90.698 Y90.085 E0.04028
G1 X91.280 Y90.085 E0.01717
G1 X90.085 Y92.470 E0.07859
G1 X90.085 Y93.632 E0.03425
G1 X91.863 Y90.085 E0.11690
G1 X92.445 Y90.085 E0.01717
G1 X90.085 Y94.794 E0.15521
G1 X90.085 Y95.956 E0.03425
G1 X93.028 Y90.085 E0.19352
G1 X93.610 Y90.085 E0.01717
G1 X90.085 Y97.119 E0.23183
G1 X90.085 Y98.281 E0.03425
G1 X94.193 Y90.085 E0.27014
G1 X94.775 Y90.085 E0.01717
G1 X90.085 Y99.443 E0.30845
G1 X90.085 Y100.605 E0.03425
G1 X95.358 Y90.085 E0.34676
G1 X95.940 Y90.085 E0.01717
G1 X90.085 Y101.767 E0.38507
G1 X90.085 Y102.930 E0.03425
G1 X94.015 Y95.090 E0.25841
G1 X94.015 Y96.252 E0.03425
G1 X90.085 Y104.092 E0.25841
G1 X90.085 Y105.254 E0.03425
G1 X94.015 Y97.415 E0.25841
G1 X94.015 Y98.577 E0.03425
G1 X90.085 Y106.416 E0.25841
G1 X90.085 Y107.578 E0.03425
G1 X94.015 Y99.739 E0.25841
G1 X94.015 Y100.901 E0.03425
G1 X90.085 Y108.741 E0.25841
G1 X90.093 Y109.888 E0.03382
G1 X94.015 Y102.063 E0.25793
G1 X94.015 Y103.226 E0.03425
G1 X90.662 Y109.915 E0.22049
G1 X91.245 Y109.915 E0.01717
G1 X94.015 Y104.388 E0.18218
G1 X94.015 Y105.550 E0.03425
G1 X91.827 Y109.915 E0.14387
G1 X92.410 Y109.915 E0.01717
G1 X94.379 Y105.985 E0.12952
G1 X94.961 Y105.985 E0.01717
G1 X92.992 Y109.915 E0.12952
G1 X93.575 Y109.915 E0.01717
G1 X95.544 Y105.985 E0.12952
G1 X96.126 Y105.985 E0.01717
G1 X94.157 Y109.915 E0.12952
G1 X94.740 Y109.915 E0.01717
G1 X96.709 Y105.985 E0.12952
G1 X97.291 Y105.985 E0.01717
G1 X95.322 Y109.915 E0.12952
G1 X95.905 Y109.915 E0.01717
G1 X97.874 Y105.985 E0.12952
G1 X98.456 Y105.985 E0.01717
G1 X96.487 Y109.915 E0.12952
G1 X97.070 Y109.915 E0.01717
G1 X99.039 Y105.985 E0.12952
G1 X99.621 Y105.985 E0.01717
G1 X97.652 Y109.915 E0.12952
G1 X98.235 Y109.915 E0.01717
G1 X100.204 Y105.985 E0.12952
G1 X100.786 Y105.985 E0.01717
G1 X98.817 Y109.915 E0.12952
G1 X99.400 Y109.915 E0.01717
G1 X101.369 Y105.985 E0.12952
G1 X101.951 Y105.985 E0.01717
G1 X99.982 Y109.915 E0.12952
G1 X100.565 Y109.915 E0.01717
G1 X102.534 Y105.985 E0.12952
