; generated by Slic3r 1.1.7 on 2019-03-18 at 15:37:28

; perimeters extrusion width = 0.50mm
; infill extrusion width = 0.52mm
; solid infill extrusion width = 0.52mm
; top infill extrusion width = 0.52mm
; support material extrusion width = 0.50mm

G21 ; set units to millimeters
M107
M104 S200 T1 ; set temperature
G28 ; home all axes
G1 Z5 F5000 ; lift nozzle

M109 S200 T1 ; wait for temperature to be reached
G90 ; use absolute coordinates
M83 ; use relative distances for extrusion
T0
G1 Z0.350 F7800.000
G1 F1800.000 E-10.00000
G92 E0
T1
G92 E0

T1
G1 F1800.000 E-10.00000
G92 E0
T0
G92 E0

T0
G1 X91.980 Y92.755 F7800.000
G1 E10.00000 F1800.000
G1 X92.500 Y92.605 E0.35192 F600.000
G1 X107.500 Y92.605 E9.76057
G1 X108.020 Y92.755 E0.35192
G1 X107.890 Y93.280 E0.35192
G1 X106.417 Y95.831 E1.91664
G1 X100.390 Y106.270 E7.84393
G1 X100.000 Y106.645 E0.35192
G1 X99.610 Y106.270 E0.35192
G1 X92.110 Y93.280 E9.76057
G1 X91.980 Y92.755 E0.35192
G1 F1800.000 E-10.00000
G92 E0
T1
G92 E0

T1
G1 X94.530 Y93.785 F7800.000
G1 E10.00000 F1800.000
G1 X94.174 Y94.494 E0.01965 F600.000
G1 X88.887 Y91.652 F7800.000
G1 X89.401 Y90.628 E0.02835 F600.000
G1 X99.392 Y101.938 F7800.000
G1 X98.964 Y102.791 E0.02363 F600.000
G1 X99.991 Y102.975 E0.02582
G1 X99.563 Y103.828 E0.02363
G1 X98.365 Y101.754 E0.05930
G1 X98.793 Y100.901 E0.02363
G1 X97.767 Y100.717 E0.02582
G1 X98.194 Y99.864 E0.02363
G1 X97.168 Y99.680 E0.02582
G1 X97.596 Y98.827 E0.02363
G1 X96.569 Y98.643 E0.02582
G1 X96.997 Y97.790 E0.02363
G1 X95.970 Y97.606 E0.02582
G1 X96.398 Y96.752 E0.02363
G1 X95.372 Y96.569 E0.02582
G1 X95.799 Y95.715 E0.02363
G1 X94.773 Y95.531 E0.02582
G1 X95.648 Y93.785 E0.04837
G1 X96.367 Y94.582 E0.02658
G1 X96.767 Y93.785 E0.02207
G1 X97.486 Y94.582 E0.02658
G1 X97.885 Y93.785 E0.02207
G1 X98.605 Y94.582 E0.02658
G1 X99.004 Y93.785 E0.02207
G1 X99.723 Y94.582 E0.02658
G1 X100.123 Y93.785 E0.02207
G1 X100.842 Y94.582 E0.02658
G1 X101.241 Y93.785 E0.02207
G1 X101.960 Y94.582 E0.02658
G1 X102.360 Y93.785 E0.02207
G1 X103.079 Y94.582 E0.02658
G1 X103.478 Y93.785 E0.02207
G1 X104.197 Y94.582 E0.02658
G1 X104.597 Y93.785 E0.02207
G1 X105.715 Y93.785 F7800.000
G1 X102.292 Y100.616 E0.18917 F600.000
G1 X103.741 Y104.420 F7800.000
G1 X110.653 Y90.628 E0.38194 F600.000
G1 X109.535 Y90.628 F7800.000
G1 X109.135 Y91.425 E0.02207 F600.000
G1 X108.416 Y90.628 E0.02658
G1 X108.017 Y91.425 E0.02207
G1 X107.298 Y90.628 E0.02658
G1 X106.898 Y91.425 E0.02207
G1 X106.179 Y90.628 E0.02658
G1 X105.780 Y91.425 E0.02207
G1 X105.061 Y90.628 E0.02658
G1 X104.661 Y91.425 E0.02207
G1 X103.942 Y90.628 E0.02658
G1 X103.543 Y91.425 E0.02207
G1 X102.823 Y90.628 E0.02658
G1 X102.424 Y91.425 E0.02207
G1 X101.705 Y90.628 E0.02658
G1 X101.305 Y91.425 E0.02207
G1 X100.586 Y90.628 E0.02658
G1 X100.187 Y91.425 E0.02207
G1 X99.468 Y90.628 E0.02658
G1 X99.068 Y91.425 E0.02207
G1 X98.349 Y90.628 E0.02658
G1 X97.950 Y91.425 E0.02207
G1 X97.231 Y90.628 E0.02658
G1 X96.831 Y91.425 E0.02207
G1 X96.112 Y90.628 E0.02658
G1 X95.713 Y91.425 E0.02207
G1 X94.993 Y90.628 E0.02658
G1 X94.594 Y91.425 E0.02207
G1 X93.875 Y90.628 E0.02658
G1 X93.475 Y91.425 E0.02207
G1 X92.756 Y90.628 E0.02658
G1 X92.357 Y91.425 E0.02207
G1 X91.638 Y90.628 E0.02658
G1 X91.238 Y91.425 E0.02207
G1 X90.519 Y90.628 E0.02658
G1 X89.486 Y92.689 E0.05707
G1 X90.513 Y92.873 E0.02582
G1 X90.085 Y93.726 E0.02363
G1 X91.111 Y93.910 E0.02582
G1 X90.684 Y94.763 E0.02363
G1 X91.710 Y94.947 E0.02582
G1 X91.283 Y95.800 E0.02363
G1 X92.309 Y95.984 E0.02582
G1 X91.881 Y96.837 E0.02363
G1 X92.908 Y97.021 E0.02582
G1 X92.480 Y97.874 E0.02363
G1 X93.506 Y98.058 E0.02582
G1 X93.079 Y98.911 E0.02363
G1 X94.105 Y99.095 E0.02582
G1 X93.678 Y99.948 E0.02363
G1 X94.704 Y100.132 E0.02582
G1 X94.276 Y100.986 E0.02363
G1 X95.303 Y101.169 E0.02582
G1 X94.875 Y102.023 E0.02363
G1 X95.902 Y102.207 E0.02582
G1 X95.474 Y103.060 E0.02363
G1 X96.500 Y103.244 E0.02582
G1 X96.073 Y104.097 E0.02363
G1 X97.099 Y104.281 E0.02582
G1 X96.671 Y105.134 E0.02363
G1 X97.698 Y105.318 E0.02582
G1 X97.270 Y106.171 E0.02363
G1 X98.297 Y106.355 E0.02582
G1 X97.869 Y107.208 E0.02363
G1 X98.895 Y107.392 E0.02582
G1 X98.468 Y108.245 E0.02363
G1 X99.494 Y108.429 E0.02582
G1 X99.067 Y109.282 E0.02363
G1 X99.665 Y110.320 E0.02965
G1 X101.317 Y107.024 E0.09126
M106 S255
G1 Z0.750 F7800.000
G1 F1800.000 E-10.00000
G92 E0
T0
G92 E0

T0
G1 X100.000 Y106.545 F7800.000
G1 E10.00000 F1800.000
G1 X102.842 Y101.623 E3.21621 F600.000
G1 X103.188 Y101.823 E0.22635
G1 X100.000 Y107.345 E3.60827
G1 X91.374 Y92.405 E9.76245
G1 X108.626 Y92.405 E9.76244
G1 X108.395 Y92.805 E0.26137
G1 X92.067 Y92.805 E9.23970
G1 X99.963 Y106.480 E8.93590
G1 X100.383 Y106.867 F7800.000
G1 X103.140 Y101.507 F7800.000
G1 X108.020 Y93.055 E5.52263 F600.000
G1 F1800.000 E-10.00000
G92 E0
T1
G92 E0

T1
G1 X102.267 Y100.618 F7800.000
G1 E10.00000 F1800.000
G1 X106.201 Y93.805 E0.22261 F907.717
G1 X93.799 Y93.805 E0.35090
G1 X100.000 Y104.545 E0.35090
G1 X102.267 Y100.618 E0.12829
G1 X104.828 Y102.497 F7800.000
G1 X111.669 Y90.648 E0.38712 F907.717
G1 X88.331 Y90.648 E0.66033
G1 X100.000 Y110.859 E0.66033
G1 X104.828 Y102.497 E0.27321
G1 X95.110 Y94.562 F7800.000
G1 X104.890 Y94.562 E0.27671 F907.717
G1 X100.000 Y103.031 E0.27671
G1 X95.110 Y94.562 E0.27671
G1 X89.642 Y91.405 F7800.000
G1 X110.358 Y91.405 E0.58614 F907.717
G1 X100.000 Y109.345 E0.58614
G1 X89.642 Y91.405 E0.58614
G1 Z1.150 F7800.000
G1 Z1.250 F7800.000
G1 X89.598 Y91.882 F7800.000
G1 X110.402 Y91.882 E0.73579 F600.000
G1 X108.670 Y94.882 E0.12252
G1 X105.259 Y94.882 E0.12064
G1 X106.938 Y97.882 E0.12159
G1 X103.527 Y97.882 E0.12064
G1 X105.206 Y100.882 E0.12159
G1 X101.795 Y100.882 E0.12064
G1 X103.474 Y103.882 E0.12159
G1 X96.526 Y103.882 E0.24572
G1 X98.205 Y100.882 E0.12159
G1 X94.794 Y100.882 E0.12064
G1 X96.473 Y97.882 E0.12159
G1 X93.062 Y97.882 E0.12064
G1 X94.741 Y94.882 E0.12159
G1 X91.330 Y94.882 E0.12064
G1 X95.110 Y94.562 F7800.000
G1 X104.890 Y94.562 E0.34588 F600.000
G1 X100.000 Y103.031 E0.34588
G1 X95.110 Y94.562 E0.34588
G1 X104.828 Y102.497 F7800.000
G1 X111.669 Y90.648 E0.48390 F600.000
G1 X88.331 Y90.648 E0.82541
G1 X100.000 Y110.859 E0.82541
G1 X104.828 Y102.497 E0.34151
G1 X101.742 Y106.882 F7800.000
G1 X98.258 Y106.882 E0.12321 F600.000
G1 Z1.550 F7800.000
G1 Z1.600 F7800.000
G1 X101.742 Y106.882 E0.08624 F600.000
G1 X104.828 Y102.497 F7800.000
G1 X111.669 Y90.648 E0.33873 F600.000
G1 X88.331 Y90.648 E0.57779
G1 X100.000 Y110.859 E0.57779
G1 X104.828 Y102.497 E0.23906
G1 X95.110 Y94.562 F7800.000
G1 X104.890 Y94.562 E0.24212 F600.000
G1 X100.000 Y103.031 E0.24212
G1 X95.110 Y94.562 E0.24212
G1 X91.330 Y94.882 F7800.000
G1 X94.741 Y94.882 E0.08445 F600.000
G1 X93.062 Y97.882 E0.08511
G1 X96.473 Y97.882 E0.08445
G1 X94.794 Y100.882 E0.08511
G1 X98.205 Y100.882 E0.08445
G1 X96.526 Y103.882 E0.08511
G1 X103.474 Y103.882 E0.17201
G1 X101.795 Y100.882 E0.08511
G1 X105.206 Y100.882 E0.08445
G1 X103.527 Y97.882 E0.08511
G1 X106.938 Y97.882 E0.08445
G1 X105.259 Y94.882 E0.08511
G1 X108.670 Y94.882 E0.08445
G1 X110.402 Y91.882 E0.08576
G1 X89.598 Y91.882 E0.51506
G1 Z1.950 F7800.000
G1 Z2.000 F7800.000
G1 X88.342 Y90.682 F7800.000
G1 X88.362 Y90.640 E0.00136 F808.531
G1 X88.945 Y90.640 E0.01716
G1 X88.653 Y91.222 E0.01916
G1 X88.965 Y91.762 E0.01837
G1 X89.527 Y90.640 E0.03695
G1 X90.110 Y90.640 E0.01716
G1 X89.277 Y92.302 E0.05475
G1 X89.589 Y92.841 E0.01837
G1 X90.692 Y90.640 E0.07254
G1 X91.274 Y90.640 E0.01716
G1 X89.900 Y93.381 E0.09034
G1 X90.212 Y93.921 E0.01837
G1 X91.857 Y90.640 E0.10813
G1 X92.439 Y90.640 E0.01716
G1 X90.524 Y94.461 E0.12593
G1 X90.836 Y95.001 E0.01837
G1 X93.022 Y90.640 E0.14372
G1 X93.604 Y90.640 E0.01716
G1 X91.147 Y95.541 E0.16152
G1 X91.459 Y96.081 E0.01837
G1 X94.186 Y90.640 E0.17931
G1 X94.769 Y90.640 E0.01716
G1 X91.771 Y96.621 E0.19711
G1 X92.083 Y97.161 E0.01837
G1 X95.351 Y90.640 E0.21490
G1 X95.933 Y90.640 E0.01716
G1 X92.394 Y97.701 E0.23270
G1 X92.706 Y98.241 E0.01837
G1 X96.516 Y90.640 E0.25049
G1 X97.098 Y90.640 E0.01716
G1 X93.018 Y98.781 E0.26829
G1 X93.330 Y99.321 E0.01837
G1 X95.438 Y95.114 E0.13863
G1 X95.750 Y95.654 E0.01837
G1 X93.641 Y99.861 E0.13863
G1 X93.953 Y100.401 E0.01837
G1 X96.062 Y96.194 E0.13863
G1 X96.373 Y96.734 E0.01837
G1 X94.265 Y100.941 E0.13863
G1 X94.577 Y101.481 E0.01837
G1 X96.685 Y97.274 E0.13863
G1 X96.997 Y97.814 E0.01837
G1 X94.888 Y102.021 E0.13863
G1 X95.200 Y102.561 E0.01837
G1 X97.309 Y98.354 E0.13863
G1 X97.620 Y98.894 E0.01837
G1 X95.512 Y103.101 E0.13863
G1 X95.824 Y103.641 E0.01837
G1 X97.932 Y99.434 E0.13863
G1 X98.244 Y99.974 E0.01837
G1 X96.135 Y104.181 E0.13863
G1 X96.447 Y104.721 E0.01837
G1 X98.555 Y100.514 E0.13863
G1 X98.867 Y101.054 E0.01837
G1 X96.759 Y105.261 E0.13863
G1 X97.071 Y105.801 E0.01837
G1 X99.179 Y101.594 E0.13863
G1 X101.618 Y100.214 F7800.000
G1 X98.006 Y107.420 E0.23750 F808.531
G1 X98.318 Y107.960 E0.01837
G1 X106.999 Y90.640 E0.57080
G1 X106.416 Y90.640 E0.01716
G1 X104.447 Y94.569 E0.12949
G1 X105.834 Y90.640 F7800.000
G1 X103.864 Y94.569 E0.12949 F808.531
G1 X103.282 Y94.569 E0.01716
G1 X105.251 Y90.640 E0.12949
G1 X104.669 Y90.640 E0.01716
G1 X102.700 Y94.569 E0.12949
G1 X102.117 Y94.569 E0.01716
G1 X104.087 Y90.640 E0.12949
G1 X103.504 Y90.640 E0.01716
G1 X101.535 Y94.569 E0.12949
G1 X100.953 Y94.569 E0.01716
G1 X102.922 Y90.640 E0.12949
G1 X102.340 Y90.640 E0.01716
G1 X100.370 Y94.569 E0.12949
G1 X99.788 Y94.569 E0.01716
G1 X101.757 Y90.640 E0.12949
G1 X101.175 Y90.640 E0.01716
G1 X99.205 Y94.569 E0.12949
G1 X98.623 Y94.569 E0.01716
G1 X100.592 Y90.640 E0.12949
G1 X100.010 Y90.640 E0.01716
G1 X98.041 Y94.569 E0.12949
G1 X97.458 Y94.569 E0.01716
G1 X99.428 Y90.640 E0.12949
G1 X98.845 Y90.640 E0.01716
G1 X96.876 Y94.569 E0.12949
G1 X96.294 Y94.569 E0.01716
G1 X98.263 Y90.640 E0.12949
G1 X97.681 Y90.640 E0.01716
G1 X95.711 Y94.569 E0.12949
G1 X97.382 Y106.341 F7800.000
G1 X99.491 Y102.134 E0.13863 F808.531
G1 X99.802 Y102.674 E0.01837
G1 X97.694 Y106.880 E0.13863
G1 X99.876 Y110.660 F7800.000
G1 X109.910 Y90.640 E0.65977 F808.531
G1 X109.328 Y90.640 E0.01716
G1 X99.565 Y110.120 E0.64198
G1 X99.253 Y109.580 E0.01837
G1 X108.746 Y90.640 E0.62418
G1 X108.163 Y90.640 E0.01716
G1 X98.941 Y109.040 E0.60639
G1 X98.629 Y108.500 E0.01837
G1 X107.581 Y90.640 E0.58859
G1 X110.493 Y90.640 F7800.000
G1 X102.664 Y106.260 E0.51475 F808.531
G1 X107.080 Y98.612 F7800.000
G1 X111.075 Y90.640 E0.26270 F808.531
G1 X111.496 Y90.964 E0.01562
G1 X111.648 Y90.660 E0.01000
G1 Z2.350 F7800.000
G1 Z2.400 F7800.000
G1 X111.496 Y90.964 E0.01000 F808.531
G1 X111.075 Y90.640 E0.01562
G1 X107.080 Y98.612 E0.26270
G1 X104.447 Y94.569 F7800.000
G1 X106.416 Y90.640 E0.12949 F808.531
G1 X106.999 Y90.640 E0.01716
G1 X98.318 Y107.960 E0.57080
G1 X98.006 Y107.420 E0.01837
G1 X101.618 Y100.214 E0.23750
G1 X99.179 Y101.594 F7800.000
G1 X97.071 Y105.801 E0.13863 F808.531
G1 X96.759 Y105.261 E0.01837
G1 X98.867 Y101.054 E0.13863
G1 X98.555 Y100.514 E0.01837
G1 X96.447 Y104.721 E0.13863
G1 X96.135 Y104.181 E0.01837
G1 X98.244 Y99.974 E0.13863
G1 X97.932 Y99.434 E0.01837
G1 X95.824 Y103.641 E0.13863
G1 X95.512 Y103.101 E0.01837
G1 X97.620 Y98.894 E0.13863
G1 X97.309 Y98.354 E0.01837
G1 X95.200 Y102.561 E0.13863
G1 X94.888 Y102.021 E0.01837
G1 X96.997 Y97.814 E0.13863
G1 X96.685 Y97.274 E0.01837
G1 X94.577 Y101.481 E0.13863
G1 X94.265 Y100.941 E0.01837
G1 X96.373 Y96.734 E0.13863
G1 X96.062 Y96.194 E0.01837
G1 X93.953 Y100.401 E0.13863
G1 X93.641 Y99.861 E0.01837
G1 X95.750 Y95.654 E0.13863
G1 X95.438 Y95.114 E0.01837
G1 X93.330 Y99.321 E0.13863
G1 X93.018 Y98.781 E0.01837
G1 X97.098 Y90.640 E0.26829
G1 X96.516 Y90.640 E0.01716
G1 X92.706 Y98.241 E0.25049
G1 X92.394 Y97.701 E0.01837
G1 X95.933 Y90.640 E0.23270
G1 X95.351 Y90.640 E0.01716
G1 X92.083 Y97.161 E0.21490
G1 X91.771 Y96.621 E0.01837
G1 X94.769 Y90.640 E0.19711
G1 X94.186 Y90.640 E0.01716
G1 X91.459 Y96.081 E0.17931
G1 X91.147 Y95.541 E0.01837
G1 X93.604 Y90.640 E0.16152
G1 X93.022 Y90.640 E0.01716
G1 X90.836 Y95.001 E0.14372
G1 X90.524 Y94.461 E0.01837
G1 X92.439 Y90.640 E0.12593
G1 X91.857 Y90.640 E0.01716
G1 X90.212 Y93.921 E0.10813
G1 X89.900 Y93.381 E0.01837
G1 X91.274 Y90.640 E0.09034
G1 X90.692 Y90.640 E0.01716
G1 X89.589 Y92.841 E0.07254
G1 X89.277 Y92.302 E0.01837
G1 X90.110 Y90.640 E0.05475
G1 X89.527 Y90.640 E0.01716
G1 X88.965 Y91.762 E0.03695
G1 X88.653 Y91.222 E0.01837
G1 X88.945 Y90.640 E0.01916
G1 X88.362 Y90.640 E0.01716
G1 X88.342 Y90.682 E0.00136
G1 X95.711 Y94.569 F7800.000
G1 X97.681 Y90.640 E0.12949 F808.531
G1 X98.263 Y90.640 E0.01716
G1 X96.294 Y94.569 E0.12949
G1 X96.876 Y94.569 E0.01716
G1 X98.845 Y90.640 E0.12949
G1 X99.428 Y90.640 E0.01716
G1 X97.458 Y94.569 E0.12949
G1 X98.041 Y94.569 E0.01716
G1 X100.010 Y90.640 E0.12949
G1 X100.592 Y90.640 E0.01716
G1 X98.623 Y94.569 E0.12949
G1 X99.205 Y94.569 E0.01716
G1 X101.175 Y90.640 E0.12949
G1 X101.757 Y90.640 E0.01716
G1 X99.788 Y94.569 E0.12949
G1 X100.370 Y94.569 E0.01716
G1 X102.340 Y90.640 E0.12949
G1 X102.922 Y90.640 E0.01716
G1 X100.953 Y94.569 E0.12949
G1 X101.535 Y94.569 E0.01716
G1 X103.504 Y90.640 E0.12949
G1 X104.087 Y90.640 E0.01716
G1 X102.117 Y94.569 E0.12949
G1 X102.700 Y94.569 E0.01716
G1 X104.669 Y90.640 E0.12949
G1 X105.251 Y90.640 E0.01716
G1 X103.282 Y94.569 E0.12949
G1 X103.864 Y94.569 E0.01716
G1 X105.834 Y90.640 E0.12949
G1 X107.581 Y90.640 F7800.000
G1 X98.629 Y108.500 E0.58859 F808.531
G1 X98.941 Y109.040 E0.01837
G1 X108.163 Y90.640 E0.60639
G1 X108.746 Y90.640 E0.01716
G1 X99.253 Y109.580 E0.62418
G1 X99.565 Y110.120 E0.01837
G1 X109.328 Y90.640 E0.64198
G1 X109.910 Y90.640 E0.01716
G1 X99.876 Y110.660 E0.65977
G1 X97.694 Y106.880 F7800.000
G1 X99.802 Y102.674 E0.13863 F808.531
G1 X99.491 Y102.134 E0.01837
G1 X97.382 Y106.341 E0.13863
G1 X102.664 Y106.260 F7800.000
G1 X110.493 Y90.640 E0.51475 F808.531
G1 Z2.750 F7800.000
G1 Z2.800 F7800.000
G1 X102.664 Y106.260 E0.51475 F808.531
G1 X97.694 Y106.880 F7800.000
G1 X99.802 Y102.674 E0.13863 F808.531
G1 X99.491 Y102.134 E0.01837
G1 X97.382 Y106.341 E0.13863
G1 X99.876 Y110.660 F7800.000
G1 X109.910 Y90.640 E0.65977 F808.531
G1 X109.328 Y90.640 E0.01716
G1 X99.565 Y110.120 E0.64198
G1 X99.253 Y109.580 E0.01837
G1 X108.746 Y90.640 E0.62418
G1 X108.163 Y90.640 E0.01716
G1 X98.941 Y109.040 E0.60639
G1 X98.629 Y108.500 E0.01837
G1 X107.581 Y90.640 E0.58859
G1 X105.834 Y90.640 F7800.000
G1 X103.864 Y94.569 E0.12949 F808.531
G1 X103.282 Y94.569 E0.01716
G1 X105.251 Y90.640 E0.12949
G1 X104.669 Y90.640 E0.01716
G1 X102.700 Y94.569 E0.12949
G1 X102.117 Y94.569 E0.01716
G1 X104.087 Y90.640 E0.12949
G1 X103.504 Y90.640 E0.01716
G1 X101.535 Y94.569 E0.12949
G1 X100.953 Y94.569 E0.01716
G1 X102.922 Y90.640 E0.12949
G1 X102.340 Y90.640 E0.01716
G1 X100.370 Y94.569 E0.12949
G1 X99.788 Y94.569 E0.01716
G1 X101.757 Y90.640 E0.12949
G1 X101.175 Y90.640 E0.01716
G1 X99.205 Y94.569 E0.12949
G1 X98.623 Y94.569 E0.01716
G1 X100.592 Y90.640 E0.12949
G1 X100.010 Y90.640 E0.01716
G1 X98.041 Y94.569 E0.12949
G1 X97.458 Y94.569 E0.01716
G1 X99.428 Y90.640 E0.12949
G1 X98.845 Y90.640 E0.01716
G1 X96.876 Y94.569 E0.12949
G1 X96.294 Y94.569 E0.01716
G1 X98.263 Y90.640 E0.12949
G1 X97.681 Y90.640 E0.01716
G1 X95.711 Y94.569 E0.12949
G1 X99.179 Y101.594 F7800.000
G1 X97.071 Y105.801 E0.13863 F808.531
G1 X96.759 Y105.261 E0.01837
G1 X98.867 Y101.054 E0.13863
G1 X98.555 Y100.514 E0.01837
G1 X96.447 Y104.721 E0.13863
G1 X96.135 Y104.181 E0.01837
G1 X98.244 Y99.974 E0.13863
G1 X97.932 Y99.434 E0.01837
G1 X95.824 Y103.641 E0.13863
G1 X95.512 Y103.101 E0.01837
G1 X97.620 Y98.894 E0.13863
G1 X97.309 Y98.354 E0.01837
G1 X95.200 Y102.561 E0.13863
G1 X94.888 Y102.021 E0.01837
G1 X96.997 Y97.814 E0.13863
G1 X96.685 Y97.274 E0.01837
G1 X94.577 Y101.481 E0.13863
G1 X94.265 Y100.941 E0.01837
G1 X96.373 Y96.734 E0.13863
G1 X96.062 Y96.194 E0.01837
G1 X93.953 Y100.401 E0.13863
G1 X93.641 Y99.861 E0.01837
G1 X95.750 Y95.654 E0.13863
G1 X95.438 Y95.114 E0.01837
G1 X93.330 Y99.321 E0.13863
G1 X93.018 Y98.781 E0.01837
G1 X97.098 Y90.640 E0.26829
G1 X96.516 Y90.640 E0.01716
